/* XPM */
static const char *icon_fakturama_2[] = {
/* columns rows colors chars-per-pixel */
"256 256 246 2 ",
"   c #07111C",
".  c #0A1A28",
"X  c #071B33",
"o  c #091D36",
"O  c #071E39",
"+  c #0A1F39",
"@  c #07213C",
"#  c #0C223D",
"$  c #0E2538",
"%  c #13283B",
"&  c #10202F",
"*  c #212E3B",
"=  c #072543",
"-  c #0E2542",
";  c #0D2946",
":  c #0E2B4A",
">  c #072B4A",
",  c #102744",
"<  c #112946",
"1  c #1A2E43",
"2  c #132B4B",
"3  c #192E4A",
"4  c #0B324E",
"5  c #14314E",
"6  c #1B324D",
"7  c #183346",
"8  c #0D2E53",
"9  c #152E51",
"0  c #0D3353",
"q  c #0A3759",
"w  c #163153",
"e  c #193355",
"r  c #143659",
"t  c #1B365A",
"y  c #123A5C",
"u  c #1D395D",
"i  c #193B54",
"p  c #25384A",
"a  c #243A54",
"s  c #223C5C",
"d  c #263B55",
"f  c #0C3D66",
"g  c #143C63",
"h  c #1E3B61",
"j  c #123D6B",
"k  c #133F70",
"l  c #213E64",
"z  c #223F68",
"x  c #16445A",
"c  c #2B425C",
"v  c #26475E",
"b  c #33455B",
"n  c #38424F",
"m  c #0A4469",
"M  c #18446A",
"N  c #0A4C73",
"B  c #09557A",
"V  c #185271",
"C  c #244066",
"Z  c #2C4463",
"A  c #25436A",
"S  c #28466E",
"D  c #274A6B",
"F  c #354A64",
"G  c #364B66",
"H  c #38536A",
"J  c #254771",
"K  c #294770",
"L  c #2B4A74",
"P  c #2D4E79",
"I  c #254A73",
"U  c #314E77",
"Y  c #2F517C",
"T  c #265776",
"R  c #31527D",
"E  c #395776",
"W  c #2B5166",
"Q  c #36637B",
"!  c #22657C",
"~  c #1C617B",
"^  c #44505D",
"/  c #43556C",
"(  c #48596A",
")  c #4B5C73",
"_  c #455B76",
"`  c #4F5C6D",
"'  c #4D6279",
"]  c #53657B",
"[  c #56677A",
"{  c #57626E",
"}  c #67707B",
"|  c #065B83",
" . c #345583",
".. c #365886",
"X. c #365A89",
"o. c #395C8C",
"O. c #3A5985",
"+. c #3B5F91",
"@. c #2B5783",
"#. c #096C91",
"$. c #3A668A",
"%. c #39738C",
"&. c #2A6991",
"*. c #3E6294",
"=. c #3F6498",
"-. c #346992",
";. c #2B7390",
":. c #067CA3",
">. c #307FA0",
",. c #496586",
"<. c #5B6D83",
"1. c #546C87",
"2. c #48728A",
"3. c #5C7286",
"4. c #58748A",
"5. c #406596",
"6. c #41669A",
"7. c #44699D",
"8. c #4A6B96",
"9. c #4B759A",
"0. c #597A95",
"q. c #526E95",
"w. c #66768A",
"e. c #677B94",
"r. c #6D798A",
"t. c #466CA1",
"y. c #496EA3",
"u. c #4B71A6",
"i. c #4E74A9",
"p. c #477BA3",
"a. c #5076AB",
"s. c #5278AE",
"d. c #5779A3",
"f. c #5279B0",
"g. c #496489",
"h. c #378EAA",
"j. c #208BAB",
"k. c #5A839C",
"l. c #6A829B",
"z. c #7C8A9B",
"x. c #758497",
"c. c #7A838D",
"v. c #5C87A5",
"b. c #5092B2",
"n. c #6586A5",
"m. c #788CA4",
"M. c #7B95AA",
"N. c #7C9AB4",
"B. c #6694B5",
"V. c #76A5B9",
"C. c #69A2BE",
"Z. c #53A2BD",
"A. c #06ABCE",
"S. c #589DCA",
"D. c #6C9DC7",
"F. c #4EAFD0",
"G. c #74B3C8",
"H. c #74B9D7",
"J. c #6EAFCB",
"K. c #69B7E4",
"L. c #5CBCE6",
"P. c #54CCEB",
"I. c #68D1ED",
"U. c #72E8F8",
"Y. c #58D4E7",
"T. c #838D9B",
"R. c #88929E",
"E. c #8592A3",
"W. c #8A97A8",
"Q. c #939CA9",
"!. c #849BB5",
"~. c #8B9DB3",
"^. c #8B99AC",
"/. c #97A2AD",
"(. c #8AA2B9",
"). c #9BA5B2",
"_. c #9EA9B5",
"`. c #97A6B8",
"'. c #9FB0BD",
"]. c #A3ABB6",
"[. c #A3ADBB",
"{. c #ABB2BD",
"}. c #A6B1BC",
"|. c #ABB1B8",
" X c #98ACC3",
".X c #9CB5C9",
"XX c #89B4D1",
"oX c #A3B3C4",
"OX c #ABB5C2",
"+X c #A7B8CA",
"@X c #B4BECA",
"#X c #B5BCC5",
"$X c #A7BDD3",
"%X c #8FBCE1",
"&X c #8EC4DD",
"*X c #BBC3CC",
"=X c #B6C1CA",
"-X c #A8C4D8",
";X c #B7C7D7",
":X c #96D7EF",
">X c #A5CCE3",
",X c #B8CEE3",
"<X c #BBD5E7",
"1X c #ABD8EE",
"2X c #92F0FB",
"3X c #B9EAF7",
"4X c #B0ECF9",
"5X c #C2C6CE",
"6X c #C4CBD3",
"7X c #C9CED5",
"8X c #C3CDDA",
"9X c #C6D2D9",
"0X c #CBD3DB",
"qX c #CAD0D7",
"wX c #D1D6DC",
"eX c #D5D9DE",
"rX c #C9D8E5",
"tX c #D4DBE3",
"yX c #DADEE3",
"uX c #C9DEF1",
"iX c #DDE1E6",
"pX c #DDE3EA",
"aX c #D5E2EB",
"sX c #C6E7F5",
"dX c #D5E5F4",
"fX c #D8EBF8",
"gX c #C7F4FB",
"hX c #D7F8FD",
"jX c #CCE1EC",
"kX c #E3E6EA",
"lX c #E6E9ED",
"zX c #E9EBEE",
"xX c #E1E3E7",
"cX c #E5ECF4",
"vX c #EBEEF2",
"bX c #E2EEFA",
"nX c #EDF1F5",
"mX c #EDF4FA",
"MX c #ECFAFC",
"NX c #E4F6FB",
"BX c #F3F4F6",
"VX c #F4F6F9",
"CX c #F8F7F8",
"ZX c #F5F9FB",
"AX c #FCFCFD",
"SX c None",
/* pixels */
"SXSXSXSXSXSXSXSXSXSXSXSXSXSXSXSXSXSXSXSXSXSXSXSXSXSXSXSXSXSXSXSXSXSXSXSXSXSXSXSXSXSXSXSXSXSXSXSXSXSXSXSXSXSXSXSXSXSXSXSXSXSXSXSXSXSXSXSXSXSXSXSXSXSXSXSXSXSXSXSXSXSXSXSXSXSXSXSXSXSXSXSXSXSXSXSXSXSXSXSXSXSXSXSXSXSXSXSXSXSXSXSXSXSXSXSXSXSXSXSXSXSXSXSXSXSXSXSXSXSXSXSXSXSXSXSXSXSXSXSXSXSXSXSXSXSXSXSXSXSXSXSXSXSXSXSXSXSXSXSXSXSXSXSXSXSXSXSXSXSXSXSXSXSXSXSXSXSXSXSXSXSXSXSXSXSXSXSXSXSXSXSXSXSXSXSXSXSXSXSXSXSXSXSXSXSXSXSXSXSXSXSXSXSXSXSXSXSXSXSXSXSXSXSXSXSXSXSXSXSXSXSXSXSXSXSXSXSXSXSXSXSXSXSXSXSXSXSXSXSXSXSXSXSXSXSX",
"SXSXSXSXSXSXSXSXSXSXSXSXSXSXSXSXSXSXSXSXSXSXSXSXSXSXSXSXSXSXSXSXSXSXSXSXSXSXSXSXSXSXSXSXSXSXSXSXSXSXSXSXSXSXSXSXSXSXSXSXSXSXSXSXSXSXSXSXSXSXSXSXSXSXSXSXSXSXSXSXSXSXSXSXSXSXSXSXSXSXSXSXSXSXSXSXSXSXSXSXSXSXSXSXSXSXSXSXSXSXSXSXSXSXSXSXSXSXSXSXSXSXSXSXSXSXSXSXSXSXSXSXSXSXSXSXSXSXSXSXSXSXSXSXSXSXSXSXSXSXSXSXSXSXSXSXSXSXSXSXSXSXSXSXSXSXSXSXSXSXSXSXSXSXSXSXSXSXSXSXSXSXSXSXSXSXSXSXSXSXSXSXSXSXSXSXSXSXSXSXSXSXSXSXSXSXSXSXSXSXSXSXSXSXSXSXSXSXSXSXSXSXSXSXSXSXSXSXSXSXSXSXSXSXSXSXSXSXSXSXSXSXSXSXSXSXSXSXSXSXSXSXSXSXSXSX",
"SXSXSXSXSXSXSXSXSXSXSXSXSXSXSXSXSXSXSXSXSXSXSXSXSXSXSXSXSXSXSXSXSXSXSXSX`. X X X X X X X X X X X X X X X X X X X X`. X X X X X X X X.X.X.X.XoX+XoXoXoXoX+XoXoXoXoX.X.XoXoXoXoXoXoX+XoXoXoXoXoXoXoXoXoXoXoX.X XoXoXoXoXoXoXoXoXoXoXoXoXoXoXoX}.[.[.[.}.[.[.[.[.[.}.}.}.[.}.}.}.}.[.[.[.[.[.[.]._._._._._._._._._._._._._._.).).).).)././././.).)._._._._.]._._.)./.Q././.).)./././././.).).).).).)./././._._.).).).).).).).)./.).)._.].]._././.Q.R.T.x.r.} SXSXSXSXSXSXSXSXSXSXSXSXSXSXSXSXSXSXSXSXSXSXSXSXSXSXSXSXSXSXSXSXSXSXSX",
"SXSXSXSXSXSXSXSXSXSXSXSXSXSXSXSXSXSXSXSXSXSXSXSXSXSXSXSXSXSXSXSX X.X.X$X$X$X$X$X$X$X$X$X$X$X$X$X$X$X$X$X$X-X-X-X-X-X-X-X;X;X;X;X-X-X;X;X;X;X;X;X;X;X;X;X;X;X;X;X;X;X;X;X;X;X;X;X;X;X;X;X;X;X;X;X;X;X;X;X;X;X;X;X;X;X;X8X8X8X8X8X8X8X6X;X;X;X*X*X;X;X;X;X;X;X6X6X6X6X6X6X6X6X6X6X6X6X6X6X6X;X*X*X*X@X#X#X@X@X=X=X@X@X@X=X=X*X*X=X=X=X@X@X@X@X=X=X=X*X*X*X*X*X*X*X=X#X=X=X*X*X=X=X*X*X*X6X6X6X6X6X6X6X6X6X6X6X6X6X6X6X6X6X6X6X6X6X6X6X6X7X7X6X6X5X#X{.|.].Q.R.T.r.} SXSXSXSXSXSXSXSXSXSXSXSXSXSXSXSXSXSXSXSXSXSXSXSXSXSXSXSXSXSXSX",
"SXSXSXSXSXSXSXSXSXSXSXSXSXSXSXSXSXSXSXSXSXSXSXSXSXSXSXSXSX.X$X-X-X-X-X>X,X,X<XrXuXjXdXdXdXdXdXdXdXdXdXdXdXdXdXdXdXdXdXfXfXfXfXfXfXcXcXcXcXcXcXcXcXcXcXcXcXcXcXcXcXcXcXcXcXcXnXnXnXnXnXnXnXnXvXnXnXvXvXvXvXvXvXvXvXvXvXvXnXnXnXnXvXvXvXvXvXvXzXzXvXvXvXvXvXvXvXvXvXvXvXvXvXvXvXvXvXvXvXvXvXzXzXzXzXzXlXlXlXlXlXlXlXlXlXlXlXlXlXlXlXlXlXlXkXkXkXkXkXkXlXlXlXkXkXkXkXkXkXkXpXpXpXpXpXpXpXpXpXpXpXpXpXpXpXpXpXiXiXiXiXiXyXyXyXyXyXiXyXyXyXiXyXyXyXyXyXyXeXwX7X5XOX].Q.x.} SXSXSXSXSXSXSXSXSXSXSXSXSXSXSXSXSXSXSXSXSXSXSXSXSXSXSXSXSX",
"SXSXSXSXSXSXSXSXSXSXSXSXSXSXSXSXSXSXSXSXSXSXSXSXSXSX.X$X-X,X<X3XsXsXsXfXcXmXZXZXZXZXZXZXZXZXZXZXAXAXAXAXAXAXAXAXAXAXAXAXAXAXAXAXAXAXAXAXAXAXAXAXAXAXAXAXAXAXAXAXAXAXAXAXAXAXAXAXAXAXAXAXAXAXAXAXAXAXAXAXAXAXAXAXAXAXAXAXAXAXAXAXAXAXAXAXAXAXAXAXAXAXAXAXAXAXAXAXAXAXAXAXAXAXAXAXAXAXAXZXAXAXAXAXAXAXAXZXAXZXZXZXZXZXZXZXMXMXmXmXmXmXmXmXcXcXcXcXcXcXcXcXcXcXfXfXfXpXaXaXaXtXtXrXrXrXrXrXrXrXrXrX9X9X9X9X8X;X;X;X;X;X;X;X=X=X=X=X=X=X=X=X@X+X@X@X=X*X6XqXeXyXeX0X5X{./.T.r.{ SXSXSXSXSXSXSXSXSXSXSXSXSXSXSXSXSXSXSXSXSXSXSXSXSXSX",
"SXSXSXSXSXSXSXSXSXSXSXSXSXSXSXSXSXSXSXSXSXSXSXSX.X-X,X<XsXgXhXNXMXZXAXAXAXAXAXAXAXAXAXAXAXAXAXAXAXAXAXAXAXAXAXAXAXAXAXAXAXAXAXAXAXAXAXAXAXAXAXAXAXAXAXAXAXAXAXAXAXAXAXAXAXAXAXAXAXAXAXAXAXAXAXAXAXAXAXAXAXAXAXAXAXAXAXAXAXAXAXAXAXAXAXAXAXAXAXAXAXAXAXAXAXAXAXAXAXAXAXAXAXAXAXAXAXAXAXAXAXAXAXAXAXAXAXAXAXZXZXZXZXZXZXZXZXZXZXVXVXVXmXmXmXmXmXmXcXcXcXcXcXcXcXcXcXfXfXpXpXpXaXaXaXtXtXtXtXtXtXrXrXrXrXrXrXrX9X9X9X8X8X8X8X6X;X;X;X;X;X;X;X;X=X+XOXOXOXOXOX#X*X7XwXwX6X{./.T.r.[ SXSXSXSXSXSXSXSXSXSXSXSXSXSXSXSXSXSXSXSXSXSXSXSX",
"SXSXSXSXSXSXSXSXSXSXSXSXSXSXSXSXSXSXSXSXSXSXSX.X,X3XsXhXMXZXAXAXAXAXAXAXAXAXZXmXcXdXjXrXrXrXrXrXrXrXrXrXrXrXrXrXrXrXrXrXrXrXrXrXrXrXrXrXrXrXrXrXrXrXrXrXrXrXrXrXrXrXrXrXrXrX9X9X9X9X9X9X9X9X9X9X9X9X9X9X9X9X9X9X9X9X9X9X9X9X9X9X7X7X7X7X9X9X9X9X9X9X9X9X9X9X9X9X7X7X7X7X7X7X7X7X7X7X6X6X7X7X7X7XqXqXqX7X7X7X7X7X7X7X7X7XqX9X9X7X9X9X9X9X9X9X9X9X9X9X9X9X9X9X9X9X9X9X9X9X9X9X9X9X9X9X9X9X9X9X9X9X9X9X9X9X9X9X9X9X9X9X9X9X9X9X9X9X9X9X9X8X9X0XtXaXaXtXtX8X=XOX}.}.OX@X6XqX5X{./.T.} SXSXSXSXSXSXSXSXSXSXSXSXSXSXSXSXSXSXSXSXSXSXSX",
"SXSXSXSXSXSXSXSXSXSXSXSXSXSXSXSXSXSXSXSXSX(..X,XsXhXMXAXAXAXAXAXAXAXZXfX;X Xn.8.$.Y T I I I I I I I I I I T I I I I I I I I I J J J J J J J J J J J I J J J J J J J J J J A C C C C C C C C u u u u u u u u u u u u u u u t i e e 6 6 e e e 6 6 6 e e i e 6 6 6 1 1 1 1 1 7 7 1 1 1 1 1 1 3 7 7 7 1 1 1 1 1 1 1 1 1 1 1 1 1 1 1 1 1 1 1 1 1 1 1 1 1 1 1 1 1 1 1 1 % 1 1 1 1 1 1 1 1 1 1 7 7 1 1 1 1 7 7 7 7 7 1 1 7 7 7 7 1 1 1 1 1 % % 1 7 p b ( w.^.OXwXpX0X*XOX[.[.OX5X0X5X|.R.r.{ SXSXSXSXSXSXSXSXSXSXSXSXSXSXSXSXSXSXSXSXSX",
"SXSXSXSXSXSXSXSXSXSXSXSXSXSXSXSXSXSXSXSX(..X,XsXhXZXAXAXAXAXAXZXjX.Xv.$.M g g M M A A A A A A A A A A S S J A A A A C C C C C C C z z z z C C C C C C C C z l l l l l h h h h h h h h h h h u u t u u t t t t e t t t e e e e e e e e e e e e w w w w w w 5 2 2 2 2 2 2 2 2 2 2 2 3 3 2 2 3 3 2 2 2 2 < 2 < < < < < < < < < , , < < < , , - - - # - - - # # # # # # # # # # # # # # # # # # # # # # # # @ # # # # # # # # @ @ @ # # @ @ @ @ + + + O @ % d [ /.9XaX8XOX[.[.OX*X7X{.Q.c.} SXSXSXSXSXSXSXSXSXSXSXSXSXSXSXSXSXSXSXSX",
"SXSXSXSXSXSXSXSXSXSXSXSXSXSXSXSXSXSXM.(..X,XsXMXZXZXZXAXAXcX-Xv.@.M M A I L L L L P P P L L L L L L P P P L P P P L L L L L L L L K K K K K K K L L L L L K K S K S S S A A A A A A A S S A A A C C C C C C C C C l l l l l l l l l l s s u u u u u u u u t t t e e e e e e e e e t e e t t e e e e e e w w w 5 5 5 3 3 3 2 2 2 2 2 2 2 2 2 2 2 2 2 2 2 < < < < < < < < < < < < < , - - ; - - - - - - - - - - - - - - - - # # - - # - # # # # - - - - - # # % p [ }.tX0XOX'._.}.*X#XQ.x.} ` SXSXSXSXSXSXSXSXSXSXSXSXSXSXSXSXSXSX",
"SXSXSXSXSXSXSXSXSXSXSXSXSXSXSXSXSXm.(..X,XdXZXZXZXAXAXcX.X2.M M I I L P P Y R  . . . . ................. . ......... . . . . . . . .R R R R R R R R R R R R R R R R P P P P L L L L L L L L L L L K K K K K K S S S A A A A A A A A A C C C C C C C C l l l l l u u u s u u u u u u u u u u u u t t t t t t t e e e e e e e w w w w w w w w w 5 2 2 2 2 2 2 2 2 2 2 2 2 2 2 2 2 2 < < < < < < < < < < < < < ; , ; ; ; - - - - - - - - - - - - - - ; - ; , < < - # < ( _.yX9X}.).).{.#X).R.} ( SXSXSXSXSXSXSXSXSXSXSXSXSXSXSXSXSX",
"SXSXSXSXSXSXSXSXSXSXSXSXSXSXSXSXx.!..X,XfXZXZXZXAXVX-X2.M M P Y Y Y Y  . ...X.o.o.o.+.+.+.*.*.*.*.*.*.*.*.*.*.*.*.*.*.*.o.o.o.o.o.o.o.o.o.o.o.X.X..................... . . . .R R R R R R R Y P P P P P P P P L L L L K K K K K K K S S S S A A A A A A A C C C C C C C C C l l l l l l l l l u u u u u u u u u u t t t t t t t t e e e e e e e w w w w w w 9 9 3 2 2 2 2 2 2 2 2 2 2 2 2 2 2 < < < < < < < < < < < < < , - , , , , , , , - - - - - , - ; , ; , , < < 2 ) OXyX=X`./._.#X{.R.} ` SXSXSXSXSXSXSXSXSXSXSXSXSXSXSXSX",
"SXSXSXSXSXSXSXSXSXSXSXSXSXSXSXl.!. X;XbXZXZXZXAXjXn.M M I P R  . ...X.X.o.*.*.*.*.=.=.5.6.=.=.=.=.6.6.6.6.6.6.6.6.6.6.5.=.*.*.*.*.*.*.*.*.*.*.o.o.o.o.o.o.o.o.o.o.o.X.X............. . . . . .R R  .R R R R R R Y P P P P P L L L L L L L K K S S S S S S S S S S S A A A A A C C C l l l l l l l l l l l h u u u u u u u u u t t t t t t t t e e e e e e w w w w w w w w 5 2 2 2 2 2 2 2 2 2 2 2 2 2 2 < < < < < < < < < , , , , , , , , , - - - , , , , , , - - , < < ; 6 w.0X0X'.`._.#X|.T.} ( SXSXSXSXSXSXSXSXSXSXSXSXSXSXSX",
"SXSXSXSXSXSXSXSXSXSXSXSXSXSXe.M. X-XfXMXMXZXZX.XE g J L P  . ...o.o.*.*.=.=.5.6.6.6.6.6.6.6.=.=.6.6.6.6.6.6.6.6.6.6.6.6.5.5.5.*.*.*.*.*.*.*.*.*.*.*.o.o.o.o.o.o.o.o.o.X.X.X.X.X......... . . . . . . . .R R R R R R R P P P P P P P P L L L L K K K K K K K K K S S S S S S A A A C C l l l l l l C z l l l l l h u u u u u u u u t t t t t t t t t e e e e e e e e e e e w w w w 9 2 2 2 2 2 2 2 2 2 2 2 2 < < < < < < < < , , < < < < , , , , - - - , , - - - - - , < < < ; F OXiXOX).).{./.T.} ( SXSXSXSXSXSXSXSXSXSXSXSXSXSX",
"SXSXSXSXSXSXSXSXSXSXSXSXSXw.M.(.$XfXNXNXZXcXM.M M L P R  .X.o.+.*.=.5.5.=.=.6.6.6.6.6.6.6.6.6.6.6.6.6.6.6.6.6.6.6.6.6.6.5.5.5.5.*.*.*.*.*.*.*.*.*.*.o.o.o.o.o.o.o.o.o.X.X.X.X.X.X........... . . . . .R R R R R R R R Y P P P P P P P P L L L L L L L K K L K K S S S S S S S A A A C C C C l l l z z l l l h l l h s u u u u u u u u t t u u t t t t e e e e e e e e e e w w w 9 9 9 2 2 2 2 2 2 2 2 2 2 2 2 2 < 2 < < < < < < < < < < , , , , - - - - - - # # - - - - , < 2 2 u W.iXOX/./.]./.T.} ^ SXSXSXSXSXSXSXSXSXSXSXSXSX",
"SXSXSXSXSXSXSXSXSXSXSXSXw.m.!..XdXNXNXMXpX0.y A L P  ...o.+.*.=.=.5.5.5.5.6.5.6.6.6.6.7.7.6.6.6.6.6.6.6.6.6.6.6.6.6.6.6.6.5.5.*.*.*.*.*.*.*.*.*.*.*.o.o.o.o.o.o.o.o.X.X.X.X.X.X.X........... . . . . .R R R R R R R Y Y Y P P P P P P P L L L L L L L L L K K K S S S S S S S S A A A C C C C l l l l l l l l l l l l h u u u u u u u u u u u u t t t t t e e e e e e e e e w w 9 9 9 9 9 9 9 2 2 2 2 2 2 2 2 2 2 2 2 < < < < < < < < < , , , , , - - - - % # # # # # # - - < 2 2 w e.tX@X`.).}.Q.r.{ n SXSXSXSXSXSXSXSXSXSXSXSX",
"SXSXSXSXSXSXSXSXSXSXSXSXl.M. XrXfXfXmXtX,.g A L R  .X.o.*.=.=.=.5.6.6.5.6.6.5.6.6.6.6.7.6.6.6.6.7.6.6.6.6.6.6.6.6.6.6.6.6.5.5.*.*.*.*.*.*.*.*.*.*.o.o.o.o.o.o.o.o.X.X.X.X.X.X................. . . . . .R R R R R R R Y Y Y P P P P P P L L L L L L L L K K K K K S S S S S S S A A A A C C C l l l l l l l l l l l l l h u u u u u u u u u u u u t t t t t t t e e e e e e e w w w w 9 9 9 9 9 2 2 2 2 2 2 2 2 2 2 2 2 < < < < < < < < , , , , , , - - - # # # # # # # # % - < < 2 w w.yX@X`.)./.T.} ( n SXSXSXSXSXSXSXSXSXSXSX",
"SXSXSXSXSXSXSXSXSXSXSXe.M.(.,XfXfXmXaX,.r S L R ..o.+.*.=.5.5.=.6.6.6.6.6.6.6.6.6.6.6.7.6.6.6.7.7.6.6.7.6.6.6.6.6.6.6.6.6.5.5.=.*.*.*.*.*.*.*.*.+.o.o.o.o.o.o.o.o.X.X.X.X.X.X............... . . . . . .R R R R R R R Y Y Y Y P P P P P L L L L L L L L L K K K K K S S S S S S S A A A A A C C C C C l l l l l l l l l h h u u u u u u u u u u u t t t t t t e e e e e e e e e w w w 9 9 9 9 9 2 2 2 2 2 2 2 2 2 2 2 2 < < < < < < < < , , , , , , , - % % # # # # # # # # # - , < 2 w w.tXOX^./.Q.x.} ^ SXSXSXSXSXSXSXSXSXSXSX",
"SXSXSXSXSXSXSXSXSXSX<.m.!.;XdXfXNXfX2.y S L R ..o.*.*.=.=.5.5.5.6.6.6.6.6.6.6.6.6.6.6.6.6.7.7.7.7.7.6.6.6.6.6.6.6.6.6.5.5.5.5.=.*.*.*.*.*.+.+.+.+.o.o.o.o.o.o.o.o.X.X.X.X.X.X......... ... . . . . . . .R R R R R R R Y Y Y P P P P P L L L L L L L L L L L K K K S S S S S S S S A A A A A C C C C C C C l l l l l l l l h h h h u u u u u u t u u t t t t t t e e e e e e e e w w w w w w 9 9 9 2 2 2 2 2 2 2 2 2 2 2 < < < < < < < < , , , , , , , , % # - # # # # # # # # # # , < 2 w x.yX[.Q./.Q.c.{ n SXSXSXSXSXSXSXSXSXSX",
"SXSXSXSXSXSXSXSXSX[ e.M..XdXdXbXcXl.r S P R ..o.*.*.=.5.5.=.5.5.6.6.6.6.6.6.6.6.6.6.6.6.6.7.7.7.7.7.7.6.6.6.6.6.6.6.6.5.5.5.5.=.*.*.*.*.*.+.+.+.+.+.o.o.o.o.o.o.o.X.X.X.X.X.X......... ... ... . . . . .R R R R R R R Y Y P P P P P P P L L L L L L L L L L K K K K S S S S S S A A A S S A A C C C C C C C l l l l l l l h h h h h u u u u u t t t t t t t t t e e e e e e e e e w w w w 9 9 9 9 2 3 2 2 2 2 2 2 2 2 2 < < < < < < < < , , , , , , , , - - - - # # # # # # # # # # , < 2 t ^.tX_././.T.} ^ p SXSXSXSXSXSXSXSXSX",
"SXSXSXSXSXSXSXSXSXw.m.(.rXdXdXmX!.r A L R ..o.*.*.=.5.5.6.6.6.6.6.6.6.6.6.6.6.6.6.6.6.6.7.7.7.7.7.7.7.6.7.6.6.6.6.6.6.5.5.5.5.=.*.*.*.*.*.*.*.*.*.*.o.o.o.o.o.o.o.X.X.X.X.X............. . ... . . . . .R R R R R R R Y Y Y P P P P P P L L L L L L L L L L L K K K K S S S S S S A A A A A A A C C C C C C C l l l l l l l h h h h u u u u u u t t t t t t t t e e e e e e e e w w w w w 9 9 9 9 9 3 2 2 2 2 2 2 2 2 < < < < < < < < < < < , , , , , - - - - - # # # # # # # # # # # , 2 w s OX9X`./.W.r.[ ^ SXSXSXSXSXSXSXSXSX",
"SXSXSXSXSXSXSXSX[ l.!.-XdXdXmX-Xh h L R ..o.*.*.*.5.5.5.5.6.6.6.6.6.6.6.6.6.6.6.6.6.6.6.7.7.7.7.7.7.7.7.6.7.6.6.6.6.6.6.5.6.6.5.=.*.*.*.*.*.*.*.*.o.o.o.o.o.o.o.o.X.X.X.X.X............. . . . . . . . . .R R R R R R Y Y Y Y P P P P P L L L L L L L L L L L L L K K K S S S S S A A A A A A A C C C C C C z l l l l l l l h h h h h u u u u u u u t t t t t t t t e e e e e e w w w w 9 9 9 9 9 9 9 2 2 2 2 2 2 2 2 2 2 2 < 2 < < < < < < , , , , , - - - - - - # # # # # # # # # # % , 2 w H 0X@X^.Q.E.w.` p SXSXSXSXSXSXSXSX",
"SXSXSXSXSXSXSXSXw.M. XuXdXfXpXE u K Y  .o.*.*.*.=.5.5.5.6.6.6.6.6.6.6.6.6.6.6.6.6.6.6.6.7.7.7.7.7.7.7.7.7.7.6.6.6.7.6.6.6.6.6.5.=.*.*.*.*.*.*.*.*.o.o.o.o.o.o.o.X.X.X.X.X.X................. . . . . . .R R R R R Y Y Y Y Y Y Y P P P L L L L L L L L K K L L L L L L K S S S S S A A A A A A A A C C C C C z l l l l l l l h h h h h u u u u u u u t t t t t t t t t e e e e e w w w 9 9 9 9 9 9 9 9 2 2 2 2 2 2 2 2 2 2 2 2 2 < < < < < < , , , , , , , - - - - # # # # # # # # # # # % < 2 w e.tX`.^./.x.[ b SXSXSXSXSXSXSXSX",
"SXSXSXSXSXSXSX' l.M.;XdXdXmXM.r A P  .X.*.*.=.=.5.5.6.6.6.6.6.6.6.6.6.7.6.6.6.6.7.7.7.7.7.7.7.7.7.7.7.7.7.7.7.7.7.7.6.6.6.6.6.5.5.*.*.*.*.*.*.*.*.*.*.*.o.o.o.o.X.X.X.o.o.X................. . . . . . .R R R R R R Y Y Y Y Y Y P P P P L L L L L L L K L K L L L L K S S S S S S S A A A A A A A A C C C C l l l l l l l l h h h h u u u u u u u t t t t t t t t t t t e e e e e w w w 9 9 9 9 9 9 9 9 2 2 2 2 2 2 2 2 2 2 2 2 < < < < < < < , , , - , , - - - - - - # # # # # # # # # # - < 2 u oX;X^./.W.} ( p SXSXSXSXSXSXSX",
"SXSXSXSXSXSXSX4.m.`.uXdXbX9XA C L R ..o.*.=.5.5.5.6.6.6.6.6.6.6.7.7.7.7.7.7.7.7.7.7.7.7.7.7.7.7.7.7.7.7.7.7.7.7.7.7.6.6.6.6.6.5.5.*.*.*.*.*.*.*.*.*.*.*.o.o.o.o.o.X.X.X.X................... . . . . . .R R R R R R Y Y Y Y Y P P P P P L L L L L L L K K K L L L K K S S S S S S S A A A A A A A A A C C z l l l l l l l l h h h h u u u u u u u t t t t t t t t t t e e e e e e w w w 9 9 9 9 9 9 9 2 2 2 2 2 2 2 2 2 2 2 < < < < < < < < < < , , - , - - - - - - - # # # # # # # # # # # , 2 w _ tX}.Q.Q.r.` n SXSXSXSXSXSXSX",
"SXSXSXSXSXSX_ e.M.;XdXdXmX0.u L R ..o.*.=.5.5.5.6.6.6.7.7.7.7.7.7.7.7.7.7.7.7.7.7.7.7.7.7.7.7.7.7.7.7.7.6.7.7.7.7.7.7.6.6.6.6.5.5.=.=.*.*.*.*.*.*.*.o.o.o.o.o.o.o.o.X.X.X................. . . . . . . . .R R R R R Y Y Y P P P P P P P L L L L L L L L K K K K K K K S S S S S S S A A A A A A C A C C z z z z l l l l l l h h h u u u u u u u u t t t t t t t t t e e e e e e e w w w 9 9 9 2 2 2 2 2 2 2 2 2 2 2 2 2 2 < < < < < < < < < < , , , , - - - - , - - - # # # # # # # # # # # - < 2 r `.0X/.^.z.[ / p SXSXSXSXSXSX",
"SXSXSXSXSXSX1.m.(.uXuXbX;XC A Y ..o.*.=.5.5.5.6.6.7.7.7.7.7.7.7.7.7.7.7.7.7.7.7.7.7.7.7.7.7.7.7.7.7.7.7.7.7.7.7.7.6.6.6.6.6.6.5.5.=.=.*.*.*.*.*.*.*.o.o.o.o.o.o.o.o.X.X............. . . . . . . . . . . .R R R R R Y Y P P P P P P P P L L L L L L L L K K K K K K K S S S S S S A A A A A A C C C C C z z z z l l l l l l h h h u u u u u t u u t t t t t t t t e e e e e e e e e w w 9 9 9 2 2 2 2 2 2 2 2 2 2 2 2 2 2 < < < < < < < < , , , , , - - , - - , - - # # # # # # # # # # # # # , 2 w E tX'.^.W.w.` n SXSXSXSXSXSX",
"SXSXSXSXSX( w.M.$XuXuXcXl.u L  .o.*.=.5.5.6.6.6.7.7.7.7.7.7.7.7.7.7.7.7.7.t.t.t.t.7.7.7.7.7.7.7.7.7.7.7.7.7.7.7.7.7.7.7.6.6.6.6.5.5.=.=.*.*.*.*.*.*.o.o.o.o.o.o.o.o.X............. . . . . . . . . . . . .R Y Y Y Y Y Y P P P P P P P L L L L L L L L L L K K K K K K S S S S S S A A A A A A C C C C C C z z l l l l l l h h h u u u u u u t t t t t t t t e t e e e e e e e e e e w w w 9 9 3 2 2 2 2 2 2 2 2 2 2 2 2 2 < < < < < < < < , , , , , - , - - - - - - - # # # # # # # # # # # # - < 2 r `.9X^.^.z.[ ^ * SXSXSXSXSX",
"SXSXSXSXSX] l.^.rXuXdXrXS A P ..+.=.5.6.6.6.7.7.7.7.7.7.7.7.7.7.7.t.t.t.t.t.t.t.t.t.t.7.7.7.t.t.7.7.7.7.7.7.7.7.7.7.7.6.6.6.6.5.6.5.5.*.*.*.*.*.*.o.o.o.o.o.o.o.o.X.X.X............. . . . . . . . . . .R R Y Y Y Y Y P P P P P P P P L L L L L L L L L L K K K K K S S S S S S S A A A A A C C C C C C z z z l l l l l l h h u u u u u u u t t t t t t t e e e e e e e e e e e e w w w w 9 9 9 2 2 2 2 2 2 2 2 2 2 2 < 2 < < < < < < < < < , , - , , , - - - , - - - # # # # # # # # # # # # # , 2 w ,.tX`.^.^.w.( p SXSXSXSXSX",
"SXSXSXSXSX1.l.`.uXsXmX(.h L  .o.*.6.6.6.6.7.7.7.7.7.7.7.7.7.t.7.t.t.t.t.t.t.t.t.t.t.t.t.t.t.t.t.t.t.t.7.7.7.7.7.7.7.7.6.6.6.6.6.6.5.=.*.*.*.*.*.*.o.o.o.o.o.o.o.o.X.X.X.X..... . . . . . . .R R  . . . .R Y Y Y Y Y P P P P P P P P L L L L L L L L L L K K K K K S S S S S S S S A A A A A C C C C C l z l l l l l l l l h u u u u u u u t t t t t t t t t e e e e e e e e e e w w w w 9 9 9 w 2 2 2 2 2 2 2 2 2 2 < 2 < < < < < < < < < < , , - , , - - - - , , - - - # # # # # # # # # # # # - < 2 u =X;X~.^.r.` p SXSXSXSXSX",
"SXSXSXSX/ 3.m.$XdXdXcX,.z P ..o.5.6.6.6.7.7.7.7.7.7.7.7.7.t.t.t.t.y.t.t.t.t.t.t.t.t.t.t.y.y.y.y.t.t.t.7.7.7.7.7.7.7.7.7.6.6.6.6.6.5.5.=.*.*.*.*.*.*.o.o.o.o.o.o.o.X.X.X.X....... ... . . . .R R R  . . .R Y Y P P P P P P P P P P L L L L L L L L L L K K K K K S S S S S S S S A A A A A C C z z z z l l l l l l l l h h h u u u u u u u u t t t t t t t t e e e e e e e e e w w w w 9 9 9 9 9 9 2 2 2 2 2 2 2 2 2 < < < < < < < < , , < , , , - - - - - - - - - - - - # # # # # # # # # # # # # - 2 w m.rX(.^.x.' b * SXSXSXSX",
"SXSXSXSX( e.M.,XuXfX9XA K  .X.*.5.6.6.7.7.7.7.7.7.7.7.7.t.t.t.t.t.y.y.y.y.t.t.t.y.y.t.t.y.y.y.y.y.y.t.t.7.7.7.7.7.7.7.7.6.6.6.6.6.5.5.=.*.*.*.*.*.+.o.o.o.o.o.o.X.X................. . . . . . .R R R R R Y Y P P P P P P P P P L L L L L L L L L L K K K K K K S S S S S S A S A A A A A C C z z z l l l l l l l l l h h h h u u u u u u u t t t t t t t e e e e e e e e e e w w w w 9 9 9 9 9 9 2 2 2 2 2 2 2 2 2 2 < < < < < < , , , , , , , - - - - - - - - # # # # # # # # # # # # # # # # # - < 2 U rX`.~.M.] b p SXSXSXSX",
"SXSXSXSX' l.(.uXuXbX(.h P ..o.*.6.6.7.7.7.7.7.7.t.t.t.t.y.y.y.y.y.t.y.y.y.y.y.y.y.y.y.y.y.y.y.y.y.t.t.t.t.t.7.7.7.7.7.7.7.7.7.6.6.5.5.=.*.*.*.*.*.+.o.o.o.o.X.X.X.8.!.e. . ......... . . . . . .R R R R R R R P P P P P P P P L L L L L L L L L L K K S S S K K S S S S S A A A A A A A A C C z l l l l l l l l l l l h h h h u u u u u u u t t t t t e e e e e e e e e e e e w w w 9 9 9 9 9 9 2 2 2 2 2 2 2 2 2 2 2 < < < < < < , , , , , - - - # # # - - - - % # # # # # # # # # # # # # # # # - < 2 u =X-X(.^.3./ p SXSXSXSX",
"SXSXSXSX1.m.+XuXuXNX0.l R O.o.5.6.6.7.7.7.7.t.t.t.y.y.y.y.y.y.y.y.y.y.y.y.y.y.y.y.y.y.y.y.y.y.y.y.y.t.t.t.7.7.7.7.7.7.7.7.7.7.7.6.5.5.*.*.*.*.*.*.+.o.o.o.o.o...0.9XAX X8.O....... . . . . . . . .R R R R R R Y P P P P P P P P L L L L L L L L L K K S S S S S S S S S S A A A A A A A C C C C l h l l l u u l l h l l h h h u u u u u u t t t t t t e e e e e e e e e e e w w w w 9 9 9 9 9 9 9 2 2 2 2 2 2 2 2 2 2 < < < < < < < < - - < d ( r.[ d b 6 - # # # # # # # # # # # # # # # # # # # # ; 2 w ^.rX(.(.w.( p SXSXSXSX",
"SXSXSXSX3.M.-XdXdXfXE S R X.*.6.7.7.7.7.7.t.t.y.y.y.y.y.y.y.y.y.y.y.y.u.u.u.u.u.u.u.u.y.y.u.u.y.y.y.t.t.t.7.7.7.7.7.7.7.7.7.7.7.6.6.5.5.*.*.*.*.*.+.+.o.o.o.o.0.8XAXAXlXtXe. ... . . . . . . . . . .R R R R R Y P P P P P P P P L L L L L L L L L K K S S S S S S S S S S A A A A A A A C l C A E e.^.1.S _ e.E h h l l l h h u u u u u u t t t t t t e e e e e e e e e e w w w w w w 9 9 9 9 9 9 2 2 2 2 2 2 2 2 2 2 < < < , , - - < d ' [.wXcXBXvXyXyX@Xr.a # # # # # - # # # # # # # # # # # # # - 2 2 4.uX`.`.x.` b * SXSXSX",
"SXSXSX/ 0.M.;XsXfXrXL L  .o.5.6.7.7.7.7.7.t.y.y.y.y.y.y.u.y.y.u.u.u.u.u.u.u.u.u.u.u.u.u.y.u.u.u.y.y.y.y.t.t.7.7.7.7.7.7.7.7.7.7.6.6.5.5.*.*.*.*.*.*.+.o.o.o.N.yXAXAXZXCX+Xo..... . . . . . . . .R R R R R R R P P P P P P P P P L L L L L L L L L K K K S S S S S S S S S S A A C A S A S _ U e.tXCXBX;XqXlXVX`.h h h l l h h u u u u u u u t t t t t t e e e e e e e e e e w w w w w 9 9 9 9 9 2 2 2 2 2 2 2 2 2 2 2 2 < < - a ( x.).tXnXVXVXVXVXVXZXAXAXVX=Xa # # # # # - # # # # # # # # # # # # - < 5 E rX X(.m.) b * SXSXSX",
"SXSXSX( e.!.<XuXbX;XA P ..o.5.7.7.7.7.7.7.t.y.y.y.y.u.u.u.y.y.u.u.u.u.u.u.u.u.u.u.u.u.u.y.y.u.u.u.y.y.y.t.t.7.7.7.7.7.7.7.7.7.7.6.6.5.5.*.*.*.*.*.*.o.o.*.~.nXAXAXAXAXtX8......... . . . . . .R R R R R R R R P P P P P P P P L L L L L L L L L K K K S S S S S S S S S S S A C C A S 0.;XtX+XkXAXAXAXAXAXAXVXW.u u u l l h h u u u u u u t t t t t t t e e e e e w w e e e w w w w 9 9 9 9 9 2 2 2 2 2 2 2 2 2 2 2 2 2 < - / *XvXVXAXZXZXVXVXVXZXZXZXZXZXZXCX<.+ # # # # # # # # # # # # # # # # # - ; 5 J 9X+X(.W.' b * SXSXSX",
"SXSXSX_ l.(.rXsXNX Xh R X.*.6.7.7.7.7.7.t.t.y.y.y.u.u.u.u.u.u.u.u.u.i.i.i.i.u.u.u.u.u.u.u.y.u.u.u.u.u.y.y.t.t.7.7.7.7.7.7.7.7.7.6.6.5.5.*.*.*.*.*.*.o.5.+XVXAXAXAXAXnXm. ....... . . . . . . .R R R R R R R R Y P P P P P P P L L L L L L L L L L K K K S S S S S S A A S A U 4.4._ x.0XAXAXAXAXAXAXAXAXAXAXyXE u u u l l l h u u u u u u t t t t e w w t e w e e w w w w w w w w w 9 9 9 9 2 2 2 2 2 2 2 2 2 2 2 2 2 2 d d /.nXmXBXVXZXVXVXVXZXAXAXAXZXZXAXAXT.+ # # # # # # # # # # # # # # # # # # ; 2 u -X;X`.^.' b * SXSXSX",
"SXSXSX) m. XuXdXmXN.h R o.5.7.7.t.t.t.t.t.y.y.y.u.u.u.u.u.u.u.u.u.i.i.i.i.i.i.i.u.u.u.u.u.u.u.u.u.u.u.u.u.y.t.t.7.7.7.7.7.7.7.7.7.6.5.5.*.*.*.*.*.*.5.+XAXAXAXAXAXCX(............. . . . . . .R R R R R R Y R P P P P P P P P L P L L L L L L L L K K K S S S S S A E U l ,.~.6XiXpXBXCXAXAXAXAXAXAXAXAXAX*X1.l u s s s l h h u u u u u t t t t t s _ w.Q.[.F w e w w w w w w w w w 9 9 9 9 2 2 2 2 2 2 2 2 2 2 2 < a z.7X7XVXVXmXmXmXBXlXtXwXiX5X*XnXVXZXZXvX[ # # # # # # # # # # # # # # # # # # # ; 2 r .X;X`.(.[ b p SXSXSX",
"SXSXSX' m..XdXdXmXm.h R o.5.7.t.t.t.t.y.y.y.y.u.u.u.u.u.i.i.i.i.i.i.i.i.i.i.i.i.u.u.u.u.u.u.u.u.u.u.u.u.u.y.y.t.7.7.7.7.7.7.7.7.7.6.5.5.*.*.*.*.*.*.n.tX8XvXZXAXvX(.o......... . . . . . . .R R R R R R Y Y P P P P P P P P L L P L L L L L L L L K K K S S S S S E ;X;X^.tXZXAXAXAXAXAXAXAXAXAXAXAXAXtXE.U u u s s s u u u u u u u u u t e t s 1.=XlXBXVXBX<.2 w e 9 9 w w w w w w 9 9 9 2 2 2 2 2 2 2 2 2 2 2 2 2 E.BXZXZXZXZXVXmXmX#X[ d d F 6 p ` z.5XvXT.< - # # # # # # # # # # # # # # # # # # ; 2 w (.rX`.`.[ G p SXSXSX",
"SXSXSX] m.+XdXfXmXl.z R o.5.7.t.y.y.y.y.y.y.u.u.u.u.i.i.i.i.i.i.i.i.i.i.a.i.i.i.u.u.u.i.i.i.i.i.i.i.i.i.u.u.y.t.t.7.7.7.7.7.7.7.7.6.5.=.=.*.*.*.9.d. XN.d.(.cXnX!. ............. . . . . . .R R R R R R Y Y P P P P P P P P L L P L L L L L L L L K K K S S S S e.6XVXAXAXAXAXAXAXAXAXAXAXAXAXAXAXAXAX@XS h l l l s u u u u u u u u u u G m.OX=XlXZXZXVXVXBX[.x.^.^.Z 2 9 w w w 9 9 9 9 9 2 2 2 2 2 2 2 2 2 2 2 < G tXVXVXBXVXAXAXlX{.' 6 - ; - - # # # a ) a - , # # # # # # # # # # # # # # # # # # ; 2 w (.rX X`.<.H p SXSXSX",
"SXSXSX[ M.$XdXfXmXe.A R o.6.7.y.y.y.y.u.y.u.u.u.i.i.i.i.i.i.i.i.i.i.a.i.i.i.i.i.i.i.i.i.i.i.i.i.i.i.i.i.u.u.y.y.t.t.t.7.7.7.7.7.7.6.=.=.=.*.+.N.rXrXrX;XrX;XtX`... . ........... . . . . . .R R R R R P P P P P P P P P P P L L P L L L L L L K K K K S S S A E 0XAXAXAXAXAXAXAXAXCXiXOXtXAXCXCXCXkX9Xx.C l l l l u u u u u u u u u s 4.0XVXAXAXZXVXZXZXVXmXVXVXZXZXOXs 9 w w w 9 9 9 9 3 2 2 2 2 2 2 2 2 2 2 5 r.7XVXVXVXmXVX0XE.) 2 # # , - - % # # , , # # , - - - - - - # # # # # # # # # # # # # - 2 w M.rX X`.<.H p SXSXSX",
"SXSXSX[ W.$XdXfXmXe.A  .o.6.t.y.y.y.u.u.u.u.u.u.i.i.i.i.i.i.i.i.a.a.a.a.a.i.a.i.i.i.i.i.i.i.i.i.i.i.i.i.u.u.y.t.t.t.t.7.7.7.7.7.6.6.=.=.*.*.n.iXAXAXAXAXvXM.9.*..... . .e.q.,.O. . . . . . .R R R R P P P P P P P P P P P P P L L L L L L L L K K K S S S S U '.AXZXZXAXAXAXAXAX0Xm._ Z ^.*Xm.m.x._ S h u u l l l h u u u u t s ' H e.pXVXVXZXZXZXVXVXZXVXnXVXZXZXZXvX1.Z Z 2 w w 9 9 9 5 2 2 2 2 2 2 2 2 2 2 r.vXZXVXVXVXlX/.b - - - - - - - - - - - % % # % - - - - - - - # # # # # # # # # # # # # - 2 5 M.rX X`.3.H p SXSXSX",
"SXSXSX1.!.$XfXfXmXe.A  .o.7.y.y.y.u.u.u.u.u.u.u.i.i.i.i.i.i.i.a.a.a.a.a.a.a.a.a.i.i.i.i.i.i.i.i.i.i.i.u.u.u.y.t.t.t.t.7.7.7.7.7.6.6.=.*.6.!.cXAXAXCXAXCX!.o.o.o.X...,. XlX0X+XO. . . . . . .R R R R P Y Y P P P P P P P P P L L L L L L L L L K K K S S S A m.VXAXZXVXnXlXtXOXx.E C C l Z S l l h l l l l h l l h u u u u u u z.kXtXpXVXVXVXZXZXVXvXvXkXkXVXZXZXZXZXZX@X*X}.e w w 9 9 3 3 3 2 2 2 2 2 2 2 < _ yXZXVXZXZXvXr., # - , - - - - - - - - - - # # # - - - - - - - # # # # # # # # # # # # # - < 2 M.rX.X`.3./ p SXSXSX",
"SXSXSX<.!.$XfXfXVXe.A ..*.7.y.u.u.u.u.u.u.u.u.u.i.i.i.i.i.i.i.a.a.a.a.s.s.a.a.a.a.a.i.i.i.i.i.i.i.i.u.u.u.u.y.t.t.t.7.7.7.7.7.6.6.5.*.9.$XVXAXAXAXAXBX+X5.X.X.X.X.X.n.VXAXkXe.R  . . . . . .R R R R Y Y P P P P P P P P P L L L L L L L L L L K K S S S A E wXAXAXAXZX^.' E Z u l C C l l l l l l l l l l l l u u u u u u s x.vXAXVXcXVXVXZXAXAXVX~.1.' OXZXZXAXAXCXCXCXAX*Xt 9 w 9 9 3 2 2 2 2 2 2 2 2 2 d *XmXVXVXAXvXx., # - , , - - - - - - - - - - # # # - - - - - - # # # # # # # # # # # # # # ; < 2 M.rX.X`.w./ p SXSXSX",
"SXSXSX<.!.$XfXbXVXe.A  .*.7.y.u.u.u.u.u.u.u.u.i.i.i.i.i.i.a.a.a.a.a.a.a.s.s.a.a.a.a.a.a.a.i.i.i.i.i.u.u.u.u.y.t.t.t.7.7.7.7.7.6.6.=.9.;XAXAXAXAXAXBX+X5.o.o.X.X.X.X.`.AXAX+X .O. . . . . .R R R R R Y Y Y P P P Y P P P P L L L L L L L L L K K S S S A E @XZXAXAXAX7XU C C C l l l l l l l l l l l l l l l h u u u u u u x.nXAXAXAXVXVXBXZXiXtXyXw.r u E.iXAXAXAXAXAXAXAXxX] w 3 9 9 3 2 2 2 2 2 2 2 2 3 W.mXmXmXmXlXr.2 - - - , , , , , , , - - # - - # # # - - - - - # # # # # # # # # # # # # # # - < 2 M.rX.X`.w./ p SXSXSX",
"SXSXSX3.!.$XfXNXVXe.A ..*.7.y.u.u.u.u.u.u.i.i.i.i.i.a.a.a.a.a.a.a.a.a.a.a.s.s.a.a.a.a.a.a.i.i.i.i.u.u.u.y.y.y.t.t.7.7.7.7.7.6.6.7.u.$XAXAXAXAXAXcXN.5.o.o.o.X.X...0.lXAXAX`.~.q. . . .R R R R R R R Y R Y Y P P P P P P L L L L L L L L L K K K S S S C m.ZXZXAXAXlX4.l C A C l l l l l l l l l l l l l l l u u u u u t 4.kXAXAXAX*X).VXBX*X_ G G t t e w / }.lXZXZXAXAXAXAXyXH 3 w 9 2 2 2 2 2 2 2 2 < [ zXZXVXmXcXz.< < < - , , , , - , , , , - # # - # # # - - - - - # # # # # # # # # # # # # # # - < 2 M.uX.X'.w.( p SXSXSX",
"SXSXSX3.!.$XfXNXVXl.S ..*.7.y.u.u.u.u.u.u.i.i.i.i.i.a.a.a.s.s.s.a.a.a.a.s.s.s.s.a.a.a.a.a.i.i.i.u.u.u.y.y.y.y.t.t.7.7.7.7.6.6.7.+X8XvXAXAXAXAXAX X*.o.o.o.o.o.X. .!.AXAXAXkXiXq.R  . . . .R R R R R R R Y Y P P P P P L L L L L L L L L K K K S S S A S oXZXZXZXAX'.C l C A C C l C C C l l l l l l l l l u u u u u t ' yXAXAXAX0X_ z.yX).Z e e e e e e e w e / ).VXAXAXAXAXVXe.9 w 3 2 2 2 2 2 2 2 < 6 @XAXZXZXZX@X6 - - - ; - - - - - # - - - # # - - - # # - - - - # # # # # # # # # # # # # # # # - ; 2 ^.jX.X Xw.( p SXSXSX",
"SXSXSX<.!.$XfXNXVXl.S ..*.7.y.u.u.u.u.i.i.i.i.i.i.i.a.a.s.s.s.s.s.a.a.s.s.s.s.s.s.a.a.i.i.i.i.i.u.u.u.y.y.y.t.t.t.7.7.6.6.6.7..XVXAXAXAXAXAXZX+X9.*.o.o.o.o.o.o...n.BXAXAXAXtX,.R R  . . .R R R R R R R Y Y P P P P P L L L L L L L K K K K K S S S A l.BXAXAXCX@XU z A S C l l l C C C l l l l l l l l l u u u u t H 7XAXAXAXAXzXOX/ G s e e e e e e e e w 3 2 c 6XAXAXAXCXAXE.w w 3 3 2 2 e v w 6 d <.lXZXZXVXVXz.6 < a G G F ' ' 1 3 ) r.r.d , - - - - # # - - , - - # # # # # # # # # # # # # # # - ; : ^.jX.X X3.( p SXSXSX",
"SXSXSX<.!.$XbXNXZXl.J ..*.7.y.u.u.u.u.i.i.i.i.i.i.i.a.s.s.s.s.s.s.s.s.s.s.s.s.s.s.a.a.i.i.i.i.i.u.u.u.y.y.y.t.t.t.7.7.6.=.u.$XZXAXAXZXZXVXVX+X6.*.+.o.o.o.o.o.o.8.!.nXAXAXAX.X . .R  . . . .R R R R R R Y P P P P P P L L L L L L L K K K K K S A S e.yXAXAXAXvXe.,.m.'.*Xm.e.W.e._ A C l l l l l l l l l u u t t s }.AXAXAXAXAXAX{.e e t t e e e e e e e w 5 3 2 / iXAXCXCXBX4.w 5 3 3 w _ `.OXz.OXtXlXBXVXZXVXVXiX6XOX9XkXkXxXBXeXr.).vXAXCXeXT.< - - # # - - - - , - - # # # # # # # # # # # # # # - ; : ^.jX.X X3./ p SXSXSX",
"SXSXSX<.!.-XNXNXZXl.J ..*.7.y.u.u.u.u.i.i.i.i.a.a.a.a.a.s.s.s.s.s.s.s.s.s.s.s.s.s.s.a.i.i.i.i.u.u.u.y.y.y.t.t.t.t.7.7.=.9.$XAXAXAXvX X XrX X5.+.+.o.o.o.o.o.o.X.!.vXCXCXAXCXm. . . . . . . .R R R R R R Y P P P P P P L L L L L L L K K K K K S C 1.kXAXAXAXAXCXkXvXAXAXAXCXBXCXiXOX4.l C l l l l l l l s u u u e x.VXAXAXAXAXCX7XH e e e e e e e e e e e w w w w t OXAXCXZXBX)./ w 5 w 1.;XcXnXVXAXZXZXVXVXZXVXVXZXAXZXVXZXAXAXAXAXVXAXAXAXAXAXBXR.p # - - - - - - - - - # - # # # # # # # # # # # # - ; : ^.jX.X.X4./ p SXSXSX",
"SXSXSX3.!.-XNXNXZXl.J ..*.7.t.u.u.u.u.u.i.i.i.a.a.a.a.a.a.s.s.s.s.s.s.s.s.s.s.s.s.s.a.i.i.i.i.u.u.u.y.y.t.t.t.7.7.7.7.u.;XCXCXAXAXpXd.N.B.5.+.+.o.o.o.o.o.o.o.5.8XAXAXvXvXtX8. . . . .R R R R R R R R Y P P P P P P L L L L L L L L K L K K S S E 6XAXAXAXAXAXAXAXAXAXAXAXAXAXlX;X~.m.U A A l l l l l l s u u u E tXAXAXAXAX=X)./ e e e e e t t t e e e w w w w w w w.VXAXAXAXBXw.2 5 w ].AXVXVXVXZXZXZXVXVXVXZXVXVXVXZXZXCXAXAXVXVXVXCXAXAXAXAXAX#X3 # - - , , - - - - - - - - # # # # # # # # # # # - ; : M.jX.X.Xw.( p SXSXSX",
"SXSXSX3.!.-XNXNXZXn.J ..*.7.t.u.u.u.i.i.i.i.i.a.a.a.a.a.a.s.s.s.s.s.f.s.s.s.s.s.s.s.a.i.i.i.i.u.u.y.y.t.t.t.7.7.7.6.y.;XVX$X-XAXAXrXd.8.*.*.*.+.o.o.o.o.o.X...e.nXAXAXvXBX+XY  . . . . .R R R R R R R P P P P P P L L L L L L L L L L L K S S S oXAXAXAXAXAXAXAXAXAXAXAXAXAXAXZXcXaXcX6XOXe.l l l l l l s s s l 1.pXZXZXAXOXG s t t t e e e e t e e e e e w w w w 2 ] BXAXAXAXvX) 2 2 2 r.ZXZXBXVXZXZXVXVXVXVXZXVXVXVXZXAXAXCXCXnXvXnXnXAXAXCXBX6X) - - - - - , - - - - - - - # # # # # # # # # # # # - : : M.jX$X.Xw.( p SXSXSX",
"SXSXSX3.!.-XNXNXZXn.J ..*.7.y.u.u.i.i.i.i.i.a.a.a.a.a.a.s.s.s.s.s.s.s.s.s.s.s.s.s.s.a.i.i.i.u.u.u.y.y.t.t.7.7.7.6.7.+XAXAX;X;XnX$Xd.*.*.*.*.*.+.+.o.o.o.o.X. .m.CXAXAXtX0X~.P  . . . . . .R R R R R Y P P P P P L L L L L L L L L L L K S S A E yXAXAXAXAXAXAXAXlXxXAXAXAXAXAXAXBXcXZXAXAXtXE u l l l l l s s s S 6XZXVXlX_ w t t t e e t t t t e e e e e w w w w 2 [ BXAXAXAX*Xa 2 2 2 a T.0XyXyXzXnXVXVXVXVXCXCXBXBXBXBXAXBXzXVXZXyXw.E.).x.[ a - - - - - - - - - - # - - - % # # # # # # # # # # # - : 4 M.sX-X.Xw.( p SXSXSX",
"SXSXSX3.!.-XNXMXZXn.I ..*.7.t.u.u.u.i.i.i.i.a.a.a.a.a.a.s.s.s.s.s.s.s.s.s.s.s.s.s.a.a.i.i.i.u.u.u.y.t.t.t.7.7.t.t. XBXAXAXvX X XB.7.5.*.*.*.*.*.+.o.o.o.o.X.O.;XAXAXAXtX!.,.L P  .O.,.o...O.O.R R R Y P P P P L L L L L L L L L L L K K S S A S ~.CXAXAXAXAXlX^._ w.lXAXBXvXnXxXvXAXAXAXAXCX`.s l l l l s u u Z _.VXZXVXkX_ e t t t e e e e e t e e e e w w w w w 2 ( lXAXAXCXz.< 2 2 2 2 < a F b / |.ZXZXVXvXE.r.w.w.' [ W.x.` W.].x.6 - , # + # # - - - - , - - - # # # # # # % # # # # # # # # # # ; : 0 N.sX-X.Xw.( p SXSXSX",
"SXSXSX3.!.$XNXMXZXn.I O.*.7.t.y.u.u.i.i.i.i.i.a.a.a.a.a.s.s.s.s.s.s.s.s.s.s.s.s.s.a.a.i.i.i.i.u.u.y.t.t.t.7.7.t. XnXAXAXAXpXN.N.9.*.6.=.+.o.*.5.5.o.o.*.o.*.e.lXAXAXAXVX~.e.W.M.`.;XrX0X;X8X'.M.;X;Xn.P P P L L L L L L L L L L L L K S S S A A L ~.tXvXpX[.1.A l S 4.x.4.1.1.' +XAXAXAXAXAXxX_ h l l s u u t x.CXAXZXZX0XZ e t t t t e e e e t e e e e e w w w w 2 ] BXAXCXCXE.< 2 2 2 2 < < < < # /.AXAXAXeXa @ ; ; # # ; 2 - # # # - # - - # # # - - - - - - - - # # # # # # - - - # # # # # # # # ; : 0 N.sX-X.Xw.( p SXSXSX",
"SXSXSX3.^.$XmXMXZXn.I ..*.7.y.y.u.u.u.i.i.i.i.i.a.a.a.a.s.s.s.s.s.s.s.s.s.s.s.s.a.a.i.i.i.i.i.u.u.y.t.t.t.t.B. XvXAXAXAXAXnX Xd.d.u.=.d.!..X;X8X;X X+X8X$X8XkXAXAXAXAXAXnXvXZXCXAXAXAXAXAXAXBXBXAXAX8XE P P P L L L L L L L L L L K K K S S A A C A E 1._ C z A C z h h l h u l O.'.BXAXAXAXCXx.h l s u u u s *XAXZXAXAX@Xs e t t t t t e e e e t e e e e w w w w e Q.AXAXAXkX' < 2 2 2 2 < - < 6 a |.AXAXAXeXb p a c b / a a ' r.' % # , 3 6 6 d # , - - - - - - - - - # # % - - - - - # # # # # # # ; : 0 N.sX-X.X0.( p SXSXSX",
"SXSXSX3.!.$XmXMXZXl.J ..*.7.t.y.u.u.u.i.i.i.i.i.a.a.a.a.s.s.s.s.s.s.s.s.s.s.s.a.a.a.i.i.i.i.i.u.u.y.t.7.y. XvXZXAXAXAXAXAXZXcXcXvX$Xu.$XAXAXAXAXAXAXAXAXAXAXAXAXAXAXAXAXAXAXAXAXAXAXAXAXAXAXAXAXAXAX'.L P L L L L L L L L L L L L K K K S S A A A A A C C z z C C C l l l l l C l A ^.BXAXAXAX[.C l u u u u U yXZXZXZXZXz.e e e t t t t t t t t e e e e e w w w w E tXZXAXkXw.3 2 2 2 2 s ) w.z.#XqXvXAXAXAXCX7XwXqXeXiXlXE._.BXVX#XQ.).{.#X<.[ z., - - - - - - - - - - - - - # # # - # # # # # # # - ; : 0 N.sX-X.Xw.( p SXSXSX",
"SXSXSXw.!.$XMXMXZXl.J ..*.7.y.y.y.u.u.i.i.i.i.i.a.a.a.a.a.a.s.s.s.s.s.s.s.a.a.a.a.i.i.i.i.u.u.u.y.y.t.7.N.BXAXAXAXAXAXAXAXAXAXAXAXVXtXBXAXAXAXAXAXAXAXAXAXAXAXAXAXAXAXAXAXAXAXAXAXAXAXAXAXAXAXAXAXyX,.P P L L L L L L L L L K K K K K K S S A A A A A A C C C C C C C l l l l l l s C {.AXAX=X,.l l u h l u _ pXVXVXVXvX1.t t t t t t t t t e t e e e e e w w w e _.ZXVXlXw.2 2 2 2 2 w.6XvXVXVXAXAXAXAXAXAXAXAXAXZXCXAXAXBXAXAXAXAXAXAXAXAXOXx.6 , - - - - - - - - - - - - # # # # # # # # # # # # - ; 2 0 V.sX-X.Xe.( p SXSXSX",
"SXSXSXw.!.+XMXZXZXl.J ..*.7.y.y.y.u.u.i.i.i.i.i.i.a.a.a.a.s.a.a.s.s.s.a.a.a.a.a.i.i.i.i.u.u.u.u.y.t.t.t.+XAXAXAXAXAXAXAXAXAXAXAXAXAXAXAXAXAXAXAXAXAXAXAXAXAXAXAXAXAXAXAXAXCXzX@X;XCXAXAXAXAXAXCXAX0X,.P P L L L L L L L L L K K K K K S S A A A A A A A A C C C C C C l l l l l l l u 1.vXvX1.h s s s h h u Z z.pXVXVXZXm.u t t t t t t t e e e e t e e e w 9 6 e.lXmXVXQ.a 2 2 2 2 F yXAXAXZXZXAXAXAXAXAXAXAXAXAXAXCXCXBXAXAXAXAXAXAXCXCXwXT.' - , - - - - - - - - - # - # # # # # # # # # # # # # - ; 2 0 N.sX-X$Xe.( p SXSXSX",
"SXSXSXw.!.$XMXZXZXl.J ..*.7.y.y.y.u.u.i.i.i.i.i.i.a.a.a.a.a.a.a.a.s.s.a.a.i.i.i.i.i.i.i.u.u.u.y.y.t.t.n.vXAXAXAXAXAXAXAXAXAXAXAXAXAXAXAXAXAXZXrXrXCXAXAXAXAXAXAXAXAXAXpX+X'.m.n.~.yX6XkXtXoX X9XBX;X,.P P L L L L L L L K K K K K K S S S A A A A A A A A C C C C C C l l l l l l l s 3.nXAX`.s u u s u u u e F tXZXZXAX'.Z t t t t t t t e e e e e e e e w s z.zXCXVXVXOX] 2 2 2 2 F 0XAXZXCXAXAXAXAXAXAXAXAXAXAXAXVX].w.lXAXzX5X{.*XBXeX/ # - , , , , , - - - - - - # # # # # # # - # # # # # # - - ; 2 0 V.sX-X$Xl.( p SXSXSX",
"SXSXSXw.~.-XMXZXZXl.J X.5.7.t.y.y.y.u.u.i.i.i.i.i.i.i.i.i.a.a.i.a.a.a.a.a.i.i.i.i.i.i.i.u.u.u.y.y.t.7.B.nXAXAXAXAXAXAXAXAXAXAXAXAXAXAXCXAXAXtX0.!.nXAXAXAXAXAXAXAXCXtXm.!.+Xm.W.8XkXyX;Xn.P L O.e.,.L L L L L L L L L K K K K K K S S S S A A A A A A A A C C C C C C l l l l l l l _ wXAXAX[.l s u u u u u t / kXAXAXAXnX*X/ w e t t t t e e e e e e w t _ OXVXAXAXAXnX^.a 2 2 2 2 a @XvXZXAXAXAXZXAXAXAXAXAXAXAXAXyX] W.vX#X/ a 3 c 7XW.- - - - , , , , - - - - - - # # - - # - - # - # # # # # # - ; 2 0 V.sX>X-Xl.( p SXSXSX",
"SXSXSXw.~.;XMXZXZXl.J ..*.7.t.y.y.y.u.u.i.u.u.u.i.i.i.i.i.i.i.i.a.a.a.a.i.i.i.i.i.i.u.u.u.u.y.y.t.t.t.y.$XnXVXaX$XrXAXAXAXAXAXAXAXvX;X!.;XlXtXn.*.n.oX@X+XBXAXAXAX;X,.O.,.O.R R O.0.0...Y Y P L L L L L L L L L L L L K K K K K S S S S S A A A A A A A A C C C C C l l l l l l l C [.AXAXiXe.l s s u u u u u G [.nXAXAXAXAX7X] e t t t t t e e e w 2 c W.kXAXAXAXAXAX^.e 2 2 2 2 2 2 ' 6XAXCXzXtX7XwXBXAXAXAXAXOXe.w.H ` ` b # < < 6 / a # # - - - , , - - - - - - - # # # # - - - - - - # # # # # - ; : 0 V.sX>X-Xl.( p SXSXSX",
"SXSXSXw.!.;XVXZXZXl.J ..*.7.t.y.y.y.u.u.u.u.u.u.i.i.i.i.i.i.i.a.a.a.i.i.i.i.i.i.i.i.u.u.u.u.y.y.t.t.7.7.y.B.B.i.6.N.$X$X$X$X$X+X Xn.5.+.5.0.8.o.X.o.X...0.vXAXAXAX!.P R R R R R R P P P P P P P P L L L L L L L L L L K K K S S S S S S S A A C C A A A A A C C C C l l l l l Z Z 4.vXAXzXx.l l s s u u u u u u E iXAXAXAXAXAXxX^._ u e e e w e u F x.6XVXAXAXAXAXAXlX/ 2 3 2 2 2 2 2 2 / e.w._ Z a c 5XAXAXAXAX{.2 - ; - # # - , < < - - - - - - - - , , - - - - - # # # - - - - - - - - # # # # # - ; : 0 N.sX>X-Xe.( p SXSXSX",
"SXSXSXw.!.;XZXZXZXl.J ..5.7.t.t.t.y.u.u.u.u.u.u.u.u.i.i.i.i.i.i.i.i.i.i.u.i.i.u.u.u.u.u.u.u.y.y.t.7.7.7.7.6.=.=.=.*.=.6.6.5.*.*.+.+.+.*.o.o.X...X.X.X. .n.VXAXAXAX XP R R R R R R P P P P L P P P L L L L L K K L Y K K S S S S S S S S S A A S C A A A A A A C C C C l l s _ OX6XyXAXAXBX`.l u s u u u u u u u Z *XAXAXAXAXAXAXAXyXz.Z G c z.OX@XwXCXZXVXZXAXAXAXkXz.5 2 2 2 2 2 2 2 2 2 < < 2 2 2 < r.vXAXAXAXBXw.# , , , , , , , , , - - - - - - - - , - - - # % % - - - - - - - # # # # # # # # - ; : 0 V.gX>X-Xe.( p SXSXSX",
"SXSXSXw.!.;XZXZXZXn.J ..5.7.t.t.t.y.y.u.u.u.u.u.u.u.u.u.i.i.i.i.u.u.u.u.u.u.u.u.u.u.u.u.u.y.y.t.t.7.7.7.7.6.6.=.=.=.=.5.=.=.*.*.*.*.+.+.o.o.X.X....... .`.AXAXAXAX6XE P R R R Y Y P P P P P P L L L L L L L U m.=X+X1.S S S S S S S S A A U W.@X,.l C C A A C C C C C z G ^.iXAXAXAXAXAXlX1.u u l u u u u u u u t E.AXAXAXAXAXAXAXAXnXwXyX0XVXAXAXAXAXAXZXZXBXBXwX1.2 2 2 3 3 3 3 2 2 2 2 2 2 2 2 < - 6 7XAXAXAXAXeXG - < < < < , , - - - - - - - - - , - - - - - - - - - - - - - - # # - # # # # # - ; : 0 V.hX>X-Xe.( p SXSXSX",
"SXSXSXw.!.;XZXZXZXn.J ..*.7.7.t.t.y.y.u.u.u.u.u.u.u.u.u.u.i.u.u.u.u.u.u.u.u.u.u.u.u.u.y.u.y.y.t.7.7.7.7.7.6.6.=.=.=.=.=.*.*.*.*.*.*.+.o.o.o.X.X.X.....o.;XAXAXAXAXkX,.Y R R R Y Y P P P P P P L L L L L L U '.ZXAXZXiXe.A S A S S S A A E #XCXAX^.l C A A C C C l l A _ @XCXAXAXAXAXAXAX`.u u l l h u u u u u u t _ *XnXAXAXAXAXAXAXAXAXAXAXAXAXAXAXAXAXCX7Xe.1.G w 3 2 3 w w 3 3 2 2 2 2 2 2 2 2 2 < , T.CXAXAXAXAX5Xb < < < < , , - - , , - - - - - , - - - - - - - , , - - - - - # - - - - # # # - ; : 0 V.hX>X-X0.( p SXSXSX",
"SXSXSXw.~.;XZXZXZXn.J ..*.6.7.t.t.y.y.y.u.u.u.u.u.u.y.u.u.u.u.u.u.u.u.u.u.u.u.u.u.y.y.y.y.y.t.t.7.7.7.7.7.6.6.=.=.=.=.*.*.*.*.*.*.*.+.o.o.o.X.X.X.....8.yXAXAXAXAX X.. .R R Y Y Y P P P P P P P L L L L K e.BXAXAXAXAX@XL S S S S A A S _.AXAXVXm.l C A A C l l U e.@XtXAXAXAXAXAXAXAX6XE u s l l h u u u u t t t t C e.).#XVXAXAXAXAXAXAXAXCXCXAXCXAXAX#XZ w e w w 9 9 w w w 3 3 3 2 2 2 2 2 2 2 2 < < a 7XAXAXAXAXAX{.F < , , , , , , , , - , , , , , - - - , , , - , , , , - - - - - - - - # # - - ; : 0 V.hX1X-X0.( p SXSXSX",
"SXSXSX3.~.;XZXZXZXn.J ..*.6.7.t.t.y.y.y.y.y.y.y.u.u.u.u.u.u.u.u.u.u.u.u.u.u.u.u.y.y.y.y.t.t.t.t.7.7.7.7.7.6.6.=.=.=.=.*.*.*.*.*.*.+.o.o.o.o.X.X..... .0.vXAXAXAXkX8. .R R Y Y Y Y Y P P P P P L L L L S ,.0XAXAXAXAXAX0XU A A A A A C 1.zXAXAXiXE z C l C C S z.0XBXAXAXAXAXAXAXAXAX;XE u l s l h h u u u u u t t t e e e C x.kXAXAXAXAXAXAXAXzX#X7XBX@X_ 9 w w w w w w w w w w w w 2 2 2 2 2 2 2 2 2 2 < ] 7XCXAXAXAXAXeX) # # # - ; < , , , - - - # # # 3 3 , , , , , , , , - - - - - - - - - # - - ; : 0 V.hX1X-X0.( p SXSXSX",
"SXSXSX3.!.;XZXZXZXn.J ..*.6.7.7.t.t.y.y.y.y.y.y.y.u.u.u.y.u.u.u.u.u.y.y.u.u.u.y.y.y.y.t.t.t.t.t.7.7.7.7.6.6.6.6.=.=.=.*.*.*.*.*.*.+.+.o.o.o.X.X..... .M.AXAXAXAXpX,.R R R Y Y Y P P P P P P P L L L K A ^.AXAXAXAXAXAX`.A A A A A A C W.AXAXAXvX1.z S 4.m.1.oXVXAXAXAXAXAXAXAXAXAX*XE t s l l l h h u u u u u u t t t t t e t ' W.6XAXAXAXBX6Xw.s ] <.s 9 w w w w w w w w w w w w w 2 2 2 2 2 2 2 2 2 2 < - b 7XAXAXAXCXZX=Xr.z.[ [ / e - - < a c H ` / w.@XQ.3 , , , , , , , - - - - - - - - - # - - ; : 0 V.hX1X-X0.( p SXSXSX",
"SXSXSX3.!.;XZXZXZXn.J ..*.6.7.7.7.7.t.t.t.y.y.y.y.y.u.u.y.y.y.u.u.y.y.y.y.y.y.y.y.y.t.t.t.t.t.7.7.7.7.7.6.6.6.6.=.=.=.*.*.*.*.*.*.+.o.o.o.o.X.X..... . XAXAXAXAXkX,.P R R Y Y Y Y Y P P P P L L L L L K OXAXAXAXAXAX6XU C A A S A A S @XAXAXAXAX`.l.W.m.yXvXAXAXAXAXAXvXzXAXkXoX^.G u s s l l h h h u u u u u t t t t t e e e e 9 F Q.^.x.x.d w e w 9 w w w w w w w w w w w w w w w w 9 2 2 2 2 2 2 2 2 < < ; x.vXAXAXCXCXVXBXZXBXvXkX{.] <.{.0XyXzXBXzXBXAX].e , , , , , , , - - - # # - - - - - - - ; : q V.hX1X-X0.( p SXSXSX",
"SXSXSX3.!.;XZXZXZXn.J ..*.6.7.7.7.7.7.t.t.t.t.t.y.y.y.y.y.y.y.y.y.y.y.y.y.y.t.t.t.t.t.t.t.7.7.7.7.7.7.6.6.6.6.=.=.=.=.=.*.*.*.*.+.+.o.o.o.o.X.X.......;XAXAXAXAX;X..P R R Y Y Y Y Y P P P L L L L L L K ~.AXAXAXAXAXeX1.A A A A A A U wXAXAXAXAXpXvXiXtXCXAXAXAXAXAXvXm.#XtX1.C l u s s s s h u u u u u u u u t t t t t e e e e e w e e w w 2 w w w w w w w w w w w w w w w w w w w 9 9 2 2 2 2 2 2 2 2 2 < < e ) 6XAXZXAXCXCXAXZXVXVXVXvXnXAXZXZXAXAXCXCXAXkX) - , , , , - , , - - - - # - - - - - - ; : q V.hX1X-X0.( p SXSXSX",
"SXSXSX3.!.;XZXZXZXl.J ..*.5.7.7.7.7.7.7.t.t.t.t.t.t.y.y.y.y.y.y.y.y.y.y.y.t.t.t.t.t.7.7.7.7.7.7.7.7.6.6.6.=.=.=.=.*.=.=.*.*.*.*.+.+.o.o.o.o.X.X... .O.0XAXAXAXkX0.P P Y R Y Y Y P P P P L L L L K K K S E 6XAXAXAXAXZXm.A A A A A C S ;XAXAXAXAXAXAXCXAXAXAXAXAXAXlXm.W._.' h l u u s s u u h u u u u u u u u u t t t t t e e e e e e e w w w w w w w w w w w w w w w w w w w w w w 9 9 9 2 2 2 2 2 2 2 2 2 2 2 - / #XyXeXVXAXAXAXCXZXCXVXVXVXVXBXVXAXCXCXkXr.3 , , , , - - , , , - - - - - - - - - - ; : 0 V.hX1X-X0.( p SXSXSX",
"SXSXSX3.!.;XZXZXZXn.J ..*.5.6.7.7.7.7.7.t.t.t.t.t.t.t.t.t.y.t.t.y.y.y.y.t.t.t.t.t.7.7.7.7.7.7.7.6.6.6.6.=.=.=.=.*.*.*.*.*.*.*.+.+.+.o.o.o.o.X..... .0.vXAXAXAXBXW.P P Y R Y Y Y P P P P L L L L K K K S A oXAXAXAXAXpX_ A A A A A C C '.AXAXAXAXAXAXAXAXAXAXCXyX@Xe.S E C u u s s u u u u u u u u u u u u u u t t t t t t t e e e e e w w w w w w w w w w w w w w w w w w w w w w 9 9 9 9 2 2 2 2 2 2 2 2 2 2 < < - 6 F F [ W.zXAXAXVXZXBXVXVXVXVXyX6XAXAXOX3 - - , , , , , , , , - - - - - - - - - ; ; : 0 V.hX1X>X0.( p SXSXSX",
"SXSXSX3.!.;XZXZXZXn.J ..o.5.6.6.6.7.7.7.t.7.t.t.7.7.t.t.t.t.t.t.t.t.t.t.t.7.7.7.7.7.7.7.7.7.7.6.6.6.6.=.=.=.=.=.*.*.*.*.*.*.+.+.+.+.o.o.o.X.X..... .n.VXAXAXAXvXn.P R R R Y Y P P P P P L L L L K K K S O.yXAXAXAXAX`.A A A A A A C l ,.iXAXAXAXAXAXAXAXAXAXyX4.C l l h l l l s s s u u u u u u u u u u u u u u u u t t t t t e e e e e w w w w w w w w w w w w w w w w w w w w w 9 9 9 9 9 2 2 2 2 2 2 2 2 2 < < , , , ; - , ' x.W.<.W.iXVXVXkX]./ z.0XE.c # - - - , , , , , , , , - - - - - - - - ; ; : q V.hX1X>X0.( p SXSXSX",
"SXSXSX3.(.;XZXZXAXn.J ..o.*.6.6.6.6.7.7.7.7.7.7.7.7.7.7.7.7.t.t.t.t.t.t.t.7.7.7.7.7.7.7.7.7.6.6.6.6.6.=.=.=.=.=.*.*.*.*.*.*.+.+.+.o.o.o.o.X..... . .0.vXAXAXAXtX,.Y R R Y Y P P P P P L L L L L L K K K W.CXAXAXAXiXO.A A A A A A C z l 1.6XBXCXAXAXlX6XpXOX) l l l l l l l l l s u u u u u u u u u u u u u u u u u t t t t t t e e e e e w e w w w w w w w w w w w w w w w w w w 9 9 9 9 9 2 2 2 2 2 2 2 2 2 < < < < < , , - # ; 2 - 3 w.x.x.r.b , G a ; - - , , , , , , , - - , , , - - - # # # - ; ; : q V.hX1X>X0.( p SXSXSX",
"SXSXSX3.(.;XZXZXZXn.J  .o.*.5.6.6.6.7.7.7.7.7.7.7.7.7.7.7.7.7.7.t.7.7.t.7.7.7.7.7.6.6.7.7.6.6.6.6.=.=.=.=.=.=.=.*.*.*.*.*.+.+.+.o.o.o.o.o.X..... . .O.8XAXAXnX@XO.R R R Y P P P P P P L L L L L L K A e.lXAXAXAXAX'.S S A A A A A C C l h U 4.E.6X'.1.S E C h l l l l l l l l l s u u u u u u u u u u u u u u u u u t t t t t t e e e e e e e w w w w w w w w w w w w w w w w w 9 9 9 9 9 2 2 2 2 2 2 2 2 2 2 < < < < < , , , , , < , - # # # # , , # - - - - , , , , , , , - - , , - - - - # # # - ; : 4 q V.hX1X>X0.( p SXSXSX",
"SXSXSX3.(.;XZXZXZXn.J  .o.*.5.6.6.6.6.7.7.7.7.7.7.7.7.7.7.7.7.7.7.7.7.7.7.7.7.7.6.6.6.6.6.6.=.6.6.=.=.=.=.*.*.*.*.*.*.*.*.+.+.o.o.o.o.o.X..... . . . .n.rX+X0.O.P R R Y P P P P P P P L L L L L K A _ 0XAXAXAXAXiX,.A A A A A A A A C C C C z C S A C l u l l l l l l l l l l l s u u u u u u u u u u u u t t u u u t t t t t t e e e e e e e e w w w w w w w w w w w w w w w w 9 9 9 9 9 2 2 2 2 2 2 2 2 2 2 < < < < < < < < , , , , , , , , , , , - - - - - , , , , , , , - , , , , , - - - # - - ; : 4 q V.hX4X>X0.( p SXSXSX",
"SXSXSX4.(.;XZXZXZXn.J  .o.*.=.5.6.6.6.6.7.7.7.7.7.7.6.6.6.6.6.7.7.7.6.6.7.6.6.6.6.6.6.6.=.=.=.=.=.=.=.*.*.*.*.*.*.*.*.+.+.+.o.o.o.o.o.o.X....... . . . .,.O.P P P R R Y P P P P P P L L L L L L K E @XAXAXAXAXvXl.A A A A A A A A C C C C C C z l z l l l l l l l l l l l l l l l u u u u u u u u u u u u u u u u t t t t t t t e e e e e e e e w e e e w w w w w w w w w w w w 9 9 9 9 9 2 2 2 2 2 2 2 2 2 2 2 2 < < < < < < , < , , , , , , , , , - - - - - , , , , , , , , , , , , , , - - - - - ; : 4 q V.hX4X>X0.( p SXSXSX",
"SXSXSXw.(.;XZXZXZXn.J  .o.*.*.=.5.=.=.5.6.6.6.6.6.6.6.6.6.6.6.6.6.6.6.6.6.6.6.6.=.=.=.=.=.*.*.*.*.*.*.*.*.*.*.*.+.+.+.+.o.o.o.o.o.X.X.X.X....... . . . . . .R R R R R P P P P P P L L L L L K K E +XAXAXAXAXyXE.S A A A A A A A A A C C C C C l l l l l l l l l l l l l l l l l h u u u u u u u u u u u u t t u t t t t t t e e e e e e e e e e e e e e w w w w w w w w w w w w 9 9 9 9 9 2 2 2 2 2 2 2 2 2 2 2 2 2 < < < < < < < < , < , , , , - - - - - , , , , , , - , , , - , , , - - - - - - - ; : 4 q V.hX3X>X0.( p SXSXSX",
"SXSXSX4.(.;XZXZXZXn.J  .o.*.*.*.=.=.=.=.=.=.6.6.6.6.6.6.5.5.=.=.=.=.=.=.5.5.5.=.=.=.*.*.*.*.*.*.*.*.*.*.*.*.*.*.+.+.+.o.o.o.o.o.X.X.X.X....... . . . . .R R R R R R P P P P P P L L L L L L K K `.AXAXAXAX6X_ S A A A A A A A A A A C C C C C C l l l l l l l l l l l l l l l l u u u u u u u u u u u u t t t t t t t t t t e e e e e e e e e e e e e w w w w w w 9 9 9 9 9 9 9 9 9 9 9 2 2 2 2 2 2 2 2 2 2 2 2 2 2 < < < < < < < < < < < < , , - - - - - , , , , , , , , , , , , , , - - - - - - - ; : 0 q V.hX3X>X0.( p SXSXSX",
"SXSXSX3.(.;XZXZXZXn.J  .X.+.*.*.*.*.*.*.*.*.=.=.=.=.=.=.=.=.*.*.=.=.=.=.=.=.=.=.*.*.*.*.*.*.*.*.*.*.*.*.*.*.*.+.+.+.o.o.o.o.o.o.X.X......... . . . . . .R R R R R R P P P P P P L L L L K K K W.nXAXAXCX;X,.A A A A A A A A A A A A A A C C C C z l l l l l l l l l l l l l l h u u u u u u u u u u u t t t t t t t t t t t e e e e e e e e e e e e e w w w w w 9 9 9 9 9 9 9 9 9 9 9 9 2 2 2 2 2 2 2 2 2 2 2 2 2 2 < < < < < < < < < < < < , , , - - - - , , , , , , , , , , , , , , - - - - - - - ; : 0 q V.hX3X>X0.( p SXSXSX",
"SXSXSX3.(.;XZXZXAXn.J  .X.o.*.*.*.*.*.*.*.*.*.*.*.*.*.*.*.*.*.*.*.*.*.=.=.=.=.*.*.*.*.*.*.*.*.*.*.*.+.*.*.+.+.+.o.o.o.o.o.X.X.X.X.X......... . . . . . .R R R R R Y Y P P P P P L L L K K K m.nXAXBXOXm.U C A A A A A A A A A A A A A A A C C C C z l l l l l l l l l l l l l h h u u u u u u u u u u t t t t t t t t t t t t e e e e e e e e e e e w w w w w w w 9 9 9 2 2 2 2 9 9 9 2 3 2 2 2 2 2 2 2 2 2 2 2 2 < < < < < < < < < < < < < , , , , - , , , , , , , , , , , , , , , , , - - - - - - ; : 0 q V.hX3X>X0.( p SXSXSX",
"SXSXSX3.(.;XZXZXAXn.J  .X.o.*.*.*.*.*.*.*.*.*.*.*.*.*.*.*.*.*.*.*.*.*.*.*.*.*.*.*.*.*.*.*.*.*.*.+.+.+.+.o.o.o.o.o.o.o.o.X.X.X.X.X......... . . . . .R R R R R R R Y Y P P P P L L L L L K Y ;XiXpXm.S A A A A A A A A A A A A A A A A A A C C C C C z l l l l l l l l l l l l h h u u u u u u u u u t t t t t t t t t t t t t e e e w w e e e e e w w w w w w w w 9 9 9 2 2 2 2 9 9 9 2 2 2 2 2 2 2 2 2 2 2 2 2 2 < < < < 2 2 < < < < < < < < , , , - , , , , , , , < < , , , , , , , , , - - - - ; ; : 0 q V.NX3X>X0.( p SXSXSX",
"SXSXSX3.(.;XZXZXAXn.M Y X.o.*.+.+.+.+.*.*.*.*.*.*.*.*.*.*.*.*.*.*.*.*.*.*.*.*.*.*.*.*.+.+.+.+.+.+.o.o.o.o.o.o.o.o.o.X.X.X.X.X.X........... . . . . .R Y R R R Y R Y P P P P L L L L L L L L ,.4.~.L A S A A A A A A A A A A A A A A A A A C C C C C l l l l l l l l l l l l l l h h u u u u u u u t t t t t t t t t t t t t t e e e w w w e e e e w w w w w w w w 9 9 9 9 9 2 2 2 9 9 2 2 2 2 2 2 2 2 2 2 2 2 2 2 2 < < < < 2 < < < < < < < < < , , , , , , , < , , < < , < , , , , , , , - - - - ; ; : 0 q G.NX3X>X0.( p SXSXSX",
"SXSXSX3.(.;XZXZXAXn.M Y X.o.+.+.+.+.+.+.*.+.+.+.+.+.*.*.*.*.*.+.*.*.*.*.*.*.*.*.*.+.+.+.+.+.+.+.o.o.o.o.o.o.o.o.o.X.X.X.X.X........... . . . . . .Y Y Y Y Y Y Y Y Y P P P P P P L L L L L K S S K S S S A A A A A A A A A A A A A A A A A C C C C C l l l l l l l l l l l l l l h u u u u u u u u t t t t t e t t t t t t t e e e e w w e e e e e w w w w w w w w 9 9 9 9 2 2 2 9 9 9 2 2 2 2 2 2 2 2 2 2 2 2 2 2 2 2 2 < 2 < < < < < < < < < < , , , , , , , , , , , < < , < < < , < , , , - - - ; ; : w q G.NX3X>X0.( p SXSXSX",
"SXSXSX3.(.;XZXZXAXn.M Y ..o.o.+.+.+.+.+.+.+.+.+.+.+.+.*.+.+.+.+.+.+.+.+.+.+.+.+.+.+.o.o.o.o.o.o.o.o.o.o.o.o.o.X.X.X.X.X.X....... . . . . . . . . .R Y Y Y Y Y Y Y P P P P P P P L L L L K S S S S S S S S S S A A A A A A A A A A A A C A C C z z z l l l l l l l l l l l l l h h u u u u u u t t t t t t t e t e e e e t e e e e e w w w e e e e w w w w w w w w w w 9 9 2 2 2 9 9 9 2 2 2 2 2 2 2 2 2 2 2 2 2 2 2 2 2 2 < < < < < < < < < < < , , , , , , , , , , < < , , , < , , , , , , - - - ; ; : w q G.NX3X>X0.( p SXSXSX",
"SXSXSX4.(.;XZXAXAXn.M Y ..X.o.o.o.o.o.o.o.+.+.+.o.o.o.o.o.o.o.o.o.o.o.+.+.o.o.o.o.o.o.o.o.o.o.o.o.X.X.X.X.X.X.X.X.X.X.X..... . . . . . . . . . .R Y Y Y Y Y Y Y P P P P P L L L L L L K K K S S S S S S S S S A A A A A A A A A A A A A C C z l l l l l l l l l l l h h h h h h u u u u u t t t t t t t t t e t t t e e e e e e e e w w w w w e e w w w w w w w w w 9 9 9 9 9 9 9 9 2 2 2 2 2 2 2 2 2 2 2 2 2 2 2 2 2 2 2 < < < < < < < < < < < , , , , , , , , , < < < , , , , , , , , , ; ; - - ; ; : 0 q G.NX3X>X0.( p SXSXSX",
"SXSXSXw.(.;XZXAXAXn.M Y  .X.o.o.o.o.o.o.o.o.o.o.o.o.o.o.o.o.o.o.o.o.o.o.o.o.o.o.o.o.o.o.o.o.o.o.o.X.X.X.X.X.X.X............. . . . . . . . .R R Y Y Y Y Y Y Y P P P P P P L L L L L L K K K S S S S S S S S S A A A A A A A C A A C C C C z z z l l l l l l l l l h h h h h u u u u u u u t t t t t t t t t t t e e e e e e e e e e w w w w w w w w w w w w w w w w 9 9 9 9 9 9 9 9 2 2 2 2 2 2 2 2 2 2 2 2 2 2 2 2 2 2 2 < < < < < < < < < < < < , , , , , , , < < < , , , , , ; < < < ; ; ; - ; ; : : 0 q G.NX3X>X0._ p SXSXSX",
"SXSXSX4.(.;XZXAXAXn.M P  .X.o.o.X.o.o.o.o.o.o.o.o.o.o.o.o.o.o.o.o.o.o.o.o.o.o.o.o.o.o.o.X.X.X.X.X.X.....X.X................. . . . . . . .R Y Y Y Y Y P P P P P P P P P L L L L L L L K K K S S S S S S S S A A A A A A A C C C C C C z C z l l l l l l l l l l l l h h h h u u u u u t u t t t t t t t t t t e e e e e e e e e e e w w w w w w w w w w w w w 9 9 9 9 9 2 2 9 2 9 2 2 2 2 2 2 2 2 2 2 2 2 2 2 2 2 2 2 2 2 2 < < < < < < < < < < , , , , , , , , , , , , , , , , , , , < , ; ; ; ; ; : : 0 q G.NX3X>X0.( p SXSXSX",
"SXSXSX4.(.;XZXZXZXn.M P  ...X.X.X.X.X.o.o.o.X.o.o.o.o.o.o.o.o.o.X.X.X.X.X.X.X.X.X.X.X.X.X.X.X.X.X............. . . . . ... . . . . . .R R Y Y Y Y Y P P P P P P P P P P L L L L L L L K K K S S S S S S S A A A A A A A A C C C C C C z z l l l l l l l l l l l l l h h u u u u u u t t t t t t t t t t t t t e e e e e e e e e e w w w w w w w w 9 w w w w w 9 9 9 2 2 2 2 2 2 2 2 2 2 2 2 2 2 2 2 2 2 2 2 2 2 2 2 2 2 2 2 < < < < < < < , < < < , , ; , , , , , , , ; - , , , , , < < , ; ; - ; ; : : 0 q G.NX3X>X0.H p SXSXSX",
"SXSXSX4.(.;XMXZXZXn.M P  ...X.X.X.X.X.X.X.X.X.X.X.o.o.o.X.X.X.o.X.X.X.X.X.X.X.X.X.X.X.X.X...X............. . . . . . . . . . . . . .R Y Y Y Y Y Y P P P P P P P P P P L L L L L L L L K K K S S S S S S S A A A A A A A A C C C C C C z l l l l l l l h h h h h h h h h u u u u t t t t t t t t t t t t t t t e e e e e e e e e e w w w 9 w w w w w w w w w w 9 2 2 2 2 2 2 2 2 2 2 2 2 2 2 2 2 2 2 2 2 2 2 2 2 2 2 2 2 2 < < < < < < < < < , < < ; ; , , , , , , , , , , ; - , , < < ; ; ; ; ; ; ; : 4 0 f G.NX3X>X0.H p SXSXSX",
"SXSXSXw.(.;XMXZXZXn.M P  ...X.X.X.X.X.X.X.X.X.X.X.X.X.X.X.X.X.X.X.X.X.X.X.X.X.X.X.X............... . . . . . . . . . . . . . . . .R R Y Y Y P P P P P P P P P P P P P L L L L L L L K K K K K S S S S S A A A A A A A A A C C C C C C z l l l l l l l h h h h h h h u u u u u u t t t t t t t t t t t t t t t e e e t e e e e e e w w w w w w w w w 9 w w w w 9 2 2 2 2 2 2 2 2 2 2 2 2 2 2 2 2 2 2 2 2 2 2 2 2 2 2 2 2 2 < < < < < < < < < < < ; ; ; , , , , , , < , , , , ; , < < ; ; ; ; ; ; ; ; : 4 r m G.NX3X>X0.H p SXSXSX",
"SXSXSXw.(.;XMXZXZXn.M Y  .........X.X.X.X.X.X.X.X.X.X.X.X.X.X.X.X.X.X.X............... . . . . . . . . . . . . . . . . . . .R Y Y Y Y Y P P P P P P P P P P P P P L L L L L L K K K K K K K K S S S S A A A A A A A A A A C C C C C C z l l l l l h h h h h h u u u u u u u u u t t t t t t t t t t t t t t e e e e e e e e e e w w w w w w 9 w w w 9 9 9 w w 2 2 2 2 2 2 2 2 2 2 2 2 2 2 2 2 2 2 2 2 2 2 2 2 2 2 2 2 2 2 2 2 < < < < < < < < , , , , , , - , , < < < < , , < < , < < < < < ; ; ; ; : 0 r m G.NX3X>X0.H p SXSXSX",
"SXSXSXw.!.;XMXZXZXn.M P  .............X.X.X.X.X.X.X.........X.X.X.X........... . . . . . . . . . . . . . . . . . . . .R R R Y Y Y Y Y Y P P P P P P P L L P P L L L L L L L K K K K K K K K S S S S A A A A A A A A A A A C C C C C z l l l l l l h h h h h h u u u u u u u u u t t t t t t t t t t e t t t t e e e e e e e e e w w w w w w 9 w w 9 9 9 9 3 2 2 2 2 2 2 2 2 2 2 2 2 2 2 2 2 2 2 2 2 2 2 2 2 2 2 2 2 2 2 2 2 < < < < < < < < < , , , , , , - , , < < < < , < < < < < < < < < < < ; ; : 0 r m G.NX3X>X0.H p SXSXSX",
"SXSXSX4.!.-XMXMXZXv.M P  . . .................................X........... . . . . . . . . . . . . . . . . . . .R Y Y Y R R Y Y Y Y Y P P P P P P P L L L L L L L L L L L L K K K K K K K K S S S S S A A A A A A A A A A C C C C z z l l l l l l h h h u u u u u u u u t u u t t t t t t t t t t t e e e e e e e e e e e e e e w w w w w w w 9 9 9 9 9 2 2 2 2 2 2 2 2 2 2 2 2 2 2 2 2 2 2 2 2 2 2 2 2 2 2 2 2 2 2 2 2 2 < < < < < < < < < < , , , , - , - , , < < < < < < < < < < < < < < < < ; : : 0 r m G.NX3X&X4.H p SXSXSX",
"SXSXSX4.!.;XMXMXZXv.g P R  . . . . ................................. . . . . . . . . . . . . . . . . . .R R R R Y Y Y Y Y R P P P P P P P P P P L L L L L L L L L L L L L K K K S S S S S S S S S S A A A A A A A A A A C C z z z z l l l l l l l l l h u u u u u u u t t t t t t t t t t e t t t t e e e e e e e e e e e e w e w w w w w w 9 9 w 9 9 9 2 2 2 2 2 2 2 2 2 2 2 2 2 2 2 2 2 2 2 2 2 2 2 2 < 2 2 2 2 2 2 2 < < < < < < < < < < , , , , , , , - , , < < < < < < < < < < < < < < < < ; : : w r m G.NX3X&X4.H p SXSXSX",
"SXSXSX4.!.;XMXMXZXv.g L R  . . . . . . ... . . . . . . . . . . . . . . . . . . . . . . . . . . . . .R R Y R R P P Y Y Y Y P P P P P P P L L L L L L L L L L L L L L K K K K K K S S S S S S S S A A A A A A C A A A C C C z z l l l l l l l l l l l l u u u u u u u u t t t t t t t t t t t e e t t e e e e e e e e e w w w w w w w w w 9 9 9 w w 9 9 2 2 2 2 2 2 2 2 2 2 2 2 2 2 2 2 2 2 2 2 2 2 2 2 2 < < 2 2 2 2 2 2 2 < < < < < < < < , , , , , , , , , , , , < < < < < , , , , < < < < < < < : : w y m G.NX4X&X4.H p SXSXSX",
"SXSXSXw.!.;XMXMXZXv.g L Y  . . . . . . . . . . . . . . . . . . . . . . . . . . . . . . . . .R R  .R R Y R R P P P P P P P P P P P P L L L L L L L L L L L L L L L K K K K K K K S S S S S S S A A A A A A C C C C C C C z l l l l l l l h h h l l h h h u u u u u t t t t t t t t t t e e e e e e e e e e e e e e w w w w w w w w w 9 w 9 9 9 w w 9 2 2 2 2 2 2 2 2 2 2 2 2 2 2 2 2 2 2 2 2 2 2 2 2 2 2 2 2 2 2 2 < < < < 2 < < < < < < < , , , , , , , , , , , , < < < < < < , < < < < < < < < < : : 0 r m G.NX4X&X4.H p SXSXSX",
"SXSXSX4.!.;XMXMXZXv.g L P R  . . . . . . . . . . . . . . . . . . . . . . . . . .R R R R R R R R Y Y Y R R P P P P P P P P P P P L L L L L L L L L L L K L L K L L K K K K K K S S S S S A A A A A A A A C C C C C C C C z l l l l l l l h h h h u u u u u u u t t t t t t t t e e e t e e e e e e e e e e e e e e e w w w w w w w 9 9 9 9 9 9 w 9 2 2 2 2 2 2 2 2 2 2 2 2 2 2 2 2 2 2 2 2 2 < 2 2 2 2 2 2 2 2 < 2 2 < < < 2 < < 2 < < < < , , , , < < < , , , , , < < < < < < < < < < < < < < < : : : 0 y m G.hX4X&X4.H p SXSXSX",
"SXSXSX4.!.;XMXMXZXv.g L P R R  . . . . . .R  .R  .R R R R R R  . . . . . . . .R R R Y Y Y R R Y Y Y P P P P P P P P P P P P P P L L L L L L L L L L L K K L L K K K K K S S S S S S S A A A A A A A A A C C C C z z C C z l l l l l h h h u u u u u u u u u u t t t t t t t t w c Z e e e e e e e e e w w w w e e e w w w w w 9 9 9 9 9 9 9 9 9 9 2 2 2 2 2 2 2 2 2 2 2 2 2 2 2 2 2 2 2 2 2 2 2 2 2 2 2 < < < < < < < < < < < < 2 2 < < - - - - < 2 < , , , < , , < < < < < < < < < < < < < < < ; : : 0 y m G.hX4X&X4.H p SXSXSX",
"SXSXSX3.!.-XMXMXZXv.g L P Y R  . . . . .R R R R R R R R R R R R R R R Y Y R R Y P Y Y Y Y P Y P P P P P P P P P L P P P P L L L L L L L L L L L L L L K K K K K K K K S S S S S S A A A A A A A A A A A C C C z z z z z z l l l l l h h h u u u u u u u u u t t t t t t e e e _ *X^.e e e e e e e e w w w w w e e e w w w w w w 9 9 9 9 9 9 9 9 2 2 2 2 2 2 2 2 2 2 2 ; < a s 2 2 w e 2 2 2 2 2 2 2 2 2 < < < < < < < < < < < < 2 2 < ; a [ x.W.OX_.w.F 6 - , < < < < < < < < < < < < < < < < < ; : : 0 r m G.hX4X&X2.H p SXSXSX",
"SXSXSX3.!.-XMXMXZXv.g L P Y Y Y R  .R R R R R R R R R R R R R R R R R Y Y Y Y Y P P Y Y P Y P P P P P P P P P L L L L L L L L L L L L L L L L L L L K A S O.1.U E E S S S S A A A A A A A A A A A A A A C C C z l l l l z l l l l l h h h h h u u u u u u t t t t t t t e w ' wXAXeX`.Z e e e e e e w w w w w w w w w w w w 9 9 9 9 2 2 2 2 2 2 2 2 2 2 2 2 2 2 9 s ' x.).6X@Xw.z.{.W.2 2 2 2 2 2 2 < < 2 < < < < < < < < < , - 2 c w.<.W.BXVXAXAXAXBXxX*Xz.a , < , < < < < < < < < < < < < < < < : : 0 r m G.hX4X&X2.H p SXSXSX",
"SXSXSX<.!.-XMXMXZXv.g K P Y Y Y Y R R R R R R Y P Y P Y Y R R R Y Y Y Y Y Y P P P P P P P P P P P P P P P P P L L L L L L L L L L K K K L L K K K K K ,.`.yXlX8XtXm.S K A A A A A A A A A A A A A A A C C C z z z l l l l l l l l l h h h h u u u u u u u u t t t e e e e 1.tXZXVXZXwXE e e w w w e w w w w w w w w w w w w w w 9 2 2 2 2 2 2 2 2 2 2 2 2 2 2 F z.'.@XCXAXAXZXBXAXCX].a 2 2 2 2 2 2 2 2 < < < < < < < 2 < - 6 r.[.0XCXBXVXZXVXAXAXAXAXAXAXAX_.3 < < < < < < < < < 2 < < < < < < < 2 : 0 r m G.hX4X&X2.H p SXSXSX",
"SXSXSX<.N.;XMXMXZXv.g K P Y Y Y Y Y Y Y Y P P P P P P P P P Y Y P P P P Y P P P P P P P P P P P P P P P P P P L L L L L L L L L L K K K L K S S 1.e.`.pXAXAXZXZXAXoXY L 1.U C A A A A A A A A A A C C C C C z z z l l l l l l l l l h h h h u u u u u u u u t t t e e e w.yXAXZXZXvX1.w e w w w w w w w w w w w w w w w w w w w 9 2 2 2 2 2 2 2 w 2 a / a / /.yXCXnXpXAXAXAXCXZXCXlX<.2 2 2 2 2 2 2 2 2 2 < < < < < 2 < ; b |.CXAXAXAXAXAXZXZXAXAXAXAXAXAXAXkXF - < < < < < < < < < < < < < < < < : : 4 r m G.hX4X&X2.H p SXSXSX",
"SXSXSX<.!.;XMXMXZXv.g I L P Y Y Y P P P P P P P P P P P P P P P P P P P P P P E O.P L L P P L L P P P P L P L L L L L L L L L K K S S K L K E '.kXBXCXAXAXAXCXZX;XoX+X'.tX@XU A A C C C A A A A A C C C C z z z l z l l l l l l h h h h h u u u u u u u u u t t t t Z W.vXZXVXZXCXQ.e w w w w e e w w 9 9 9 w w w w w w w 9 9 w w 2 2 2 2 2 c s 2 F z.z._.xXAXAXAXVXVXZXAXAXAXAXCXwX<.< 2 2 2 2 2 2 2 2 < < < < < - 6 _ ' 5XAXAXAXCXCXZXVXBXVXCXvXBXAXAXAXAXzX/ - < < < < < < < < < < < < < < < < : : 0 r m G.hX4XXX2.H p SXSXSX",
"SXSXSX3.!.;XNXMXZXv.g J L P Y P P P P P P P P P P P P P P P P P P P P P P L E oXoXY L L L L L L L L L L L L L L K K L L K K K K S A A K L ,.;XAXAXCXZXAXAXAXAXAX8XaXAXAXAXAX`.A l z C C C A A A C C C C C z l l l l l l l l l l h h h h h u u u u t t t t t t t t Z }.CXAXZXZXVX[.l w w w w e e e e w 9 9 9 w w w w w 9 9 9 9 w 2 2 2 2 2 ' 7X{.z.7XkXkXAXAXAXAXAXCXCXCXAXAXVX6XE.F 2 2 2 2 2 2 2 2 2 < < < < < ; a _.zXvXAXAXAXAXAXAXBX6XE.w.e.) [ |.iXBXAX].3 < < < < < < < < < < < < < 2 2 2 2 2 : 0 r m G.hX:XXX2.H p SXSXSX",
"SXSXSX3.!.;XNXMXZXv.g J L P P P P P P P P P P P P P P P P P P P P P P P L L m.AXoXS L L L L L L L L L L L L L L K K K K S S S S A A S `.`.oXAXAXAXAXCXAXAXAXAXAXAXZXZXAXAXAXiX_ e.1.z C C C A C C C C C l l l l l l l l l l l l h h u u u u u u t t t t t t t t w / yXvXAXAXZX@XZ w e w w e e e w w w w w w w w w w w 9 9 9 9 3 2 2 2 2 F 0XAXAXAXAXAXAXAXAXAXAXAXAXAXCXZXAXiXE 2 2 2 2 2 2 2 2 2 2 2 < < < < < ; r.vXAXAXAXAXAXAXAXyXW.d < : : ; - < b [ W.F ; < < < < < < 2 < < < < < < 2 2 2 2 2 2 0 r m G.hX:XXX2.H 7 SXSXSX",
"SXSXSX3.!.-XNXMXZXv.g J L P P P P P P P P L L P P P P P P P L L L L L P L U ^.AX'.U L L L L L L L L L L L K K K K K S S S S S S A U [.VXVXVXAXAXAXAXAXAXnX9X0XnXZXZXAXAXAXZXvX~.8X1.l C C C C C C C C l l l l l l l l h h l h h h h u u u u u u t t t t t t e e _ OX[.m.BXzXm.S w w w w e e e w w w w w w w w w 9 9 9 9 9 2 2 2 2 2 2 e ).AXAXAXAXAXAXAXAXAXtX#XCXAXAXBXvXyX[.c 2 2 2 2 2 2 2 2 2 2 < < < < < < _ 6XCXAXAXAXAXnX7Xz.b , - < < < < < < - - , < < < < < < < < 2 2 2 < < < < 2 2 2 2 2 : w r m G.hX:XXX2.H p SXSXSX",
"SXSXSX3.N.-XNXMXZXv.g J I L P P P P P P P L L P P P P P P L L L L L L L ,.;XkXZXvXM.L L K L L L L L L L L K K K K K S S S A A A U OXAXAXZXZXZXAXAXBXtX6Xx.U U @XAXAXAXAXZXVXBXvXVX+XU l C C C C C C z l l l l l l h h h h h h h h u u u u u u t u t t t t s e.^.tXZXtX8XpXx.t e e w w e e e e w w w 9 w w w w w 9 9 9 9 2 2 2 2 2 2 3 E.BXAXCXAXAXAXAXCXkX}.H G W._.z.w.] c 3 2 2 2 2 2 2 2 2 2 2 2 < < < < ; <.iXAXAXAXAXVX#X[ a 2 - , , < < < < < < < < < < < < < < < < < 2 2 2 2 2 2 2 2 2 2 2 2 5 w y m G.hX:XXX2.H p SXSXSX",
"SXSXSX1.N.-XNXMXZXv.g J I L P P P P P P L L L L L L P P L L L L L L L J W.AXAXVXZX'.K K K K K K K L K K K K K K K K S S S A A S `.CXAXAXVXlXBXVXtXW.e.^.E A C ,.@XVXAXZXZXZXZXAXZXVX~.C C C C C C z l l l l l h h h h h h h h h u u u u u u u t t t t e w x.BXZXVXVXBX`.1.w w e w Z x.Z e e e w w 9 9 9 w w w 9 9 9 9 3 2 2 2 2 2 ; ] vXAXCXCXyX6X6XW.w.F e 2 < 2 2 2 2 : < < 2 2 2 2 2 2 2 2 2 2 < < < , - ( iXAXAXCXAXBXE.6 - < < , , < < < < < < < < < < < < < 2 < < 2 2 2 2 2 2 2 2 2 2 2 2 2 2 5 w y m G.hX:XXX2.H p SXSXSX",
"SXSXSX1.N.$XNXMXZXv.g J I L L L L L P L L L L L L L L L L L L L L L L S ~.nXAXAXZXM.A K K K K K K K K K K K K K K K S S A A S ~.VXAXAXkXM.l.vXlX`._ U L S A C l S l.;XBXZXZXZXZXZXAXtXU l l C C C z l l l l l h h h h h h h u u u u u u u u t t t t e c z.yXZXVXVXBX`.l e w w e ) #XnX[.w.w w w w 9 9 9 w 9 9 9 9 w 3 9 9 2 2 2 2 F 6XAXAXAXBXw.e a 2 : < 2 2 2 2 2 2 2 2 2 2 2 2 2 2 2 2 2 < < < < < < - a *XZXZXAXAXzXx.3 ; < < , , , < < < < < < < < < < < < < < 2 2 2 2 2 2 2 2 2 2 2 2 2 2 2 2 5 w y m G.hX:XXX2.H p SXSXSX",
"SXSXSX1.M.$XNXNXZXv.g J J I L L L L L L L L L L L L L L L L L L K K K S E ~.AXAXlXe.C S K K K K K K K K K K S S S S S S A A m.BXAXAXAXtXm.'.'.4.A z A A A A A C z z S W.vXAXAXZXAXAXvX,.h l z z z l l l l l h l h h h h h u u u u u u u u t t t t t v [.VXVXVXVXAX6XZ e e w w w r.CXAX=Xc 2 w w w w w w w w 9 9 9 3 2 9 9 2 2 2 a OXCXCXCXAX#Xs < 2 2 2 2 2 2 2 2 2 2 2 2 2 2 2 2 2 2 2 < < < < < < < < 2 /.nXBXVXVXkXw., - < < < , , , < < < < < < < < < < < < < < 2 2 2 2 2 2 2 2 2 2 2 2 2 2 2 2 w 0 y m G.hX:XXX2.G 7 SXSXSX",
"SXSXSX1.M.$XNXNXZXv.j M J I L L L L L L L L L L L L L L L K L K K K K L e. XAXkX X,.A S K S S K K K K K S S S S S S A A C ,.pXAXAXAXAXAXBXW.S l l C C C C C C C l l h l e.pXAXAXAXAXtXU l l l l l l l l l l l h h h h u u u u u u u u u t t e e t G }.VXVXVXVXBX6X_ e e e w w s ].AXAXE.' e w w w w w 9 w 9 9 9 9 9 2 2 2 2 2 ; <.VXAXCXCXvX<.2 2 2 2 2 2 2 2 2 2 2 2 2 2 2 2 2 2 2 2 2 2 < < < < < < 2 [ vXVXBXBXtX3.2 < < < < < < < < < < , < < < < < < < < 2 2 2 2 2 2 2 2 2 2 2 2 2 2 2 2 2 2 2 w 0 r m G.hX:XXX2.G 7 SXSXSX",
"SXSXSX3.N.-XNXNXZXv.j M J I L L L L L L L L L L L L L K K K K K K S S U 8XCXCXBX9XO.K S S A A S S S A A S S S S S A A A C '.AXAXAXAXAXVX`.L A C C C C C C C C z l l l l l m.AXAXAXAX6XS l l l l l l l l l l h h h h h u u u u u u u t t t t w w _ 6XAXAXZXVXvX^.F e e e w w 3 m.VXZXnX*XOXt w w w w w 9 9 9 9 9 9 2 2 2 2 2 2 6 Q.ZXAXAXBXE.e 2 2 < 2 2 2 2 2 2 2 2 2 2 2 2 2 2 2 2 2 2 2 2 2 , < < ; w @XAXZXVXBX].< < < < - - ; : 2 < - # - < < < < < < < < < 2 2 2 2 2 2 2 2 2 2 2 2 2 2 2 2 2 2 5 w r m G.hX:XXX2.G 7 SXSXSX",
"SXSXSX3.N.-XNXNXZXv.j M J I L L L L L K K K K K K K K K S K K K S S A U tXAXZXAX6XR K A A U L S U O.1.E C A A A A A A C e.lXAXAXAXAXVX`.S C A C C C C C C C C l l l l l z E yXAXAXAXOXG A z l l l l l l l h h h h h u u u u u u u u t t t e Z <.^.ZXVXZXAXZX`.e w e e e w 5 a ;XZXZXVXVXm.w w w w w 9 9 9 9 9 2 2 2 2 2 2 2 w x.nXZXZXAX*Xs 2 e a 3 2 2 2 < < 2 2 2 2 2 2 2 2 2 2 2 2 2 < < t F d a F <.zXAXZXZXvX<.# # 2 d F / H / e 6 b / / 2 2 2 2 < < < < < 2 2 2 2 2 2 2 2 2 2 2 2 2 2 2 2 2 2 5 w y M G.hX:XXX2.G p SXSXSX",
"SXSXSX3.!.-XNXNXZXv.j M J I L K L K K K K K K K K K S A A S S K L K U E tXAXZXAX=X1.l.^.oX0X'.U m.tXvX;XM.,.C A A A A U 0XAXAXAXCX;Xm.U l C C C C C C C C C z l l l l l C S =XAXCXAX7X*X4.h l l l l l l h h h h u h u u u u u u u t t t e G OXzX6XlXmXvXVX_.Z w w w e e e e v +XBXZXZXlX) w w w w 9 9 9 9 9 3 2 2 2 2 2 2 3 E.vXAXCXAXAXtX/.x.#X0X{.).Q.x.( 3 < < < 2 2 2 2 2 2 2 2 2 < 6 w.*XwXQ.*XkXzXCXCXCXCXBXwX/.r.].0XxXzXzXiX<.^.xXzXeXr.s 2 < < < < < 2 2 2 2 2 2 2 2 2 2 2 2 2 2 2 2 2 2 2 5 w y M G.hX:XXX2.H p SXSXSX",
"SXSXSX3.!.-XNXNXZXv.M M I I I K K K K K K K K K K U 1.e.,.S O.~.;X'.6X0XBXAXAXAXBXzXCXZXAXAX0X@XtXVXAXAXvXl.A A C C C U ;XAXAXZX;XU A A A C C C C C C C z C z l l l l l l l ^.AXAXAXAXzX' u l l l l l l h h h h u u u u u u u u u t t e G *XAXAX[.OX@X`.z.l t e w w w w e e x.;X@XZXAXeXZ w w w w 9 9 9 9 2 2 2 2 2 2 2 < ) zXAXAXAXAXAXAXAXCXCXCXAXAXZXtX@X' - < 2 2 2 2 2 2 2 2 2 2 < T.BXAXCXCXAXAXAXCXCXCXCXAXAXAXAXAXAXCXAXAXCXlXBXCXAXAXCX/.< ; < < < 2 2 2 2 2 2 2 2 2 2 2 2 2 2 2 2 2 2 2 2 w r y N G.hX:XXX2.H p SXSXSX",
"SXSXSX4.!.-XhXNXZXZ.M M I I K K K K K S J S K S ,.=X8X;XoXW.0XAXAXAXAXAXZXAXAXAXAXAXAXAXAXAXAXAXAXZXZXAXVXW.S A C C l E 8XAXAXZX~.h C C C C C C C C C C z z l l l l l l l u x.AXAXAXAXOXC l l l l l l h h h u u u u u u u u u t u u w / 6XAXAXAX@X4.`.' e e e e e w w w w v qXVXkXkXAX[.e 5 w w w 3 2 2 2 2 2 2 2 2 2 < F 5XAXAXAXAXAXCXAXAXAXCXAXAXZXVXvX6X' b c < 2 2 2 < < 2 2 < < a 7XAXCXAXAXAXAXAXAXAXAXAXAXAXAXAXAXAXAXAXAXZXVXCXAXAXAXAXlX<.< < < 2 2 2 2 2 2 2 2 2 2 2 2 2 2 2 2 2 2 2 2 2 w r y N G.hX:XXX2.H 7 SXSXSX",
"SXSXSX3.N.-XhXNXZXZ.M M I I I J K S S S S S S A O.x.+XtXzXAXAXCXAXAXAXAXAXAXAXAXCXCXAXAXAXCXVXZXAXAXAXBXyX^.S A A A z W.ZXAXZXVXm.h C C C C C C C C C C z l l l l l l l l t x.AXAXAXCXe.h l l l l l h h h h u u u u u u u u u t u t E 6XVXVXZXAXOXE H e e w w e e e w w 2 ) vXAXVXlXBXx.2 5 5 w 5 3 2 2 2 2 2 2 2 2 2 2 T.AXAXAXAXAXCXCXAXVXCXAXAXAXZXVXVXBXpXiX0X/ : 2 2 < < < < < < 3 Q.AXAXAXZXCXAXAXCXAXAXAXAXAXAXAXAXAXAXAXCXVXvXkXAXAXAXzXW.G 2 < 2 2 2 2 2 2 2 2 2 2 2 2 2 2 2 2 2 2 2 2 2 2 w r y N G.hX:XXX2.G 7 SXSXSX",
"SXSXSX3.N.-XNXNXZXZ.M M I I J J S J S S S S S S z e.CXAXAXAXAXAXAXAXAXAXAXAXAXAXAXBX@XOX~.[.CX8X#X;X@XOX`.e.C A A A 4.yXZXZXAXvX,.h z l l z C C C C C z z l l l l l l l l t E.AXAXAXCXl.h l l l l h h h u u u u u u u u u u t t e E 7XAXtX@XpXvXW.s 9 e e e w e e e e w 2 z.ZXAXAXZXkX/ 2 5 3 3 w 5 3 3 2 2 2 2 2 2 2 2 z.AXAXAXAXAXCX7XW.z.kXAXAXAXZXVXBXVXAXAXAX5XG 2 < < < < < < < , d ].eXxXkXzXCXAXAXCXCXBXBXBXvXzXxXBXvXtXCXAX*X) ].W.x.' 2 2 2 2 2 2 2 2 2 2 2 2 2 2 2 2 2 2 2 2 2 2 2 2 2 2 w r y N G.hX:XXX2.W 7 SXSXSX",
"SXSXSX3.!.-XNXNXZXZ.N M I J J S S J S S S A S A A e.BXAXAXAXAXAXZXtX=XtXAXAXAXVXiXoX,.l.E 4.oX1.C L E e.E C C C A L ;XAXZXZXAX0XS l l l l z C C C C C z z l l l l l l l l C @XAXAXAXvX1.h l l l h l h h h u u u u u u t t t t t E 6XZXAX'.`.0Xx.u t e w e e e e e e e 3 6 #XAXZXCXxX=Xi 2 2 2 < 2 2 9 2 2 2 2 2 2 2 2 2 Z ].lXAXAXvX@XG 2 F ].#X6X7XqXvXBXAXAXAXAXAX^.; < < < < < < < < < e c F G ^ {.AXAXAXvXr.) ) / / F <.<.G T.Q.] , 2 ; # - 2 2 2 2 2 2 2 2 2 2 2 2 2 2 2 2 2 2 2 2 2 2 2 2 2 5 w r y N G.hX:XG.2.W 7 SXSXSX",
"SXSXSX3.!.-XhXNXZXZ.N M I J J S S S S S S A A A K ,.`.vXCXiX8X;XW.E A `.AXAXAX0X,.L A C l C A A A A A A C C C C C E yXAXZXZXZX~.z l l l l z z C C C C z z z l l l h h l l 4.vXCXCXBXqXE u l l h h l l h u u u u u u t t t t e G *XZXVXZXnXtX3.3 e t w 3 3 e t u s t t s H yXAXCXnX'.^./ G Z ] w.z.W.w.G ) e._ 2 2 2 2 2 2 6 / E.T.' e 2 2 < 3 3 a a a ' x.kXAXAXAXAX@X6 ; 2 < < < < < < 2 2 2 ; - # {.AXAXAXiXc O # - - ; 2 ; # , < - < < , - < ; < 2 2 2 2 2 2 2 2 2 2 2 2 2 2 2 2 2 2 2 2 2 2 2 5 w r y N G.hX:XXX2.W 7 SXSXSX",
"SXSXSX3.N.-XhXNXZXZ.N M I J J S S S S S S A A A A A S 1.e.,.U S h h h ^.AXAXCX6XL A A C z C A A A A A A A A A C C U yXAXZXZXnXe.l z l l l z C C C z z z z l l l h u u u C OXAXAXVX^.G l h l h h h h u u u u u u u u t t e l 4.;XZXZXZXVXvXm._ _ u l e.W.Q.).OXOX@X}.}.6XeXVXCXAXVXcXzXzXtX0XnXCXAXAXBXiXzXAX#Xe 2 2 2 2 2 2 2 2 2 < < 2 2 2 2 2 2 < , ; 2 w.lXAXAXCXvXw.; 2 2 2 2 < < < ; ; , a F H *XAXAXAXnXw.) ) ' 3.r.[ b W.OX/.c F i / / / [ 3 2 2 2 2 2 2 2 2 2 2 2 2 2 2 2 2 2 2 2 2 2 2 2 w w r y N H.hX:XXX,.W 7 SXSXSX",
"SXSXSX3.!.-XhXNXZXZ.N M I J J S S S S S A A A A A A A z z C C z z z S OXAXCX`.m.S A C C C C A A A A A A A A A C l S *XVXAXZXBXW.h z l l l l C C z z l l l l l l h u u t ' iXAXAXtXG t h h h u u u u u u u u t t t t t e Z _.nXZXVXZXZXVXnXpXlXpXE.M.nXAXAXZXZXAXZXZXZXAXAXAXAXAXAXAXAXAXAXAXAXAXAXAXAXAXAXAX^.w 2 2 2 2 2 2 2 2 2 2 2 2 2 2 2 2 < < < 2 2 2 <.kXCXVXnXe.: 2 2 2 2 2 < < ' z.W.6XkXlXBXAXAXAXAXzXBXvXBXCXAX6X*XCXAXzX0XxX6X6Xr.w.z.w 2 2 2 2 2 2 2 2 2 2 2 2 2 2 2 2 2 2 2 2 2 2 2 w w r g N H.hX:XXX,.W 7 SXSXSX",
"SXSXSX3.(.-XhXNXZXZ.N M I J J J S A A A A A A A A A A C C C C z C h e.VXAXnX,.C A C C C A A A A A A A A A C C C z C 1.7XAXVXVX+XS C l l l l z l l l l l l l l l h u s e.yXVXAXvXl.l u u u h u u u u u u u t t t t t t s }.ZXAXZXZXZXAXAXZXZXVXVXVXCXAXAXAXZXVXVXZXAXAXAXAXAXAXAXAXAXAXCXAXAXAXAXAXAXAXCXAXAX).e 2 2 2 2 2 2 2 2 2 2 2 2 2 2 2 2 2 < < 2 2 2 < r.vXvXz.s 2 2 2 < < 2 < r.zXAXZXAXAXAXAXAXAXAXAXAXAXAXCXCXAXAXAXAXAXAXAXAXAXBX/.z.t 2 2 2 2 2 2 2 2 2 2 2 2 2 2 2 2 2 2 2 2 2 2 2 2 w w r g B H.hX:XXX2.W 7 SXSXSX",
"SXSXSX3.!.-XhXNXZXZ.N M J J J J J A A A A A A A A A C C A C z z C C `.AXAXCX`.U l C C C A A A A A A A A A C C C C C S 6XZXVXVXtX*Xe.u l l z l l l l l l l l h h h U ~.vXCXCXAX'.,.A u u u u u u u u u u u t t t t t e ) vXAXAXAXCXCXAXAXAXAXAXAXAXAXZXZXAXAXBXBXZXAXAXAXAXAXAXZXZXAXVXzX7X#XzXlXvXAXZXCXAX0XF 2 3 2 2 2 2 2 2 2 2 2 2 2 2 2 2 2 2 2 2 < < 2 2 / kXiX_ w 2 < < < 2 < F yXAXZXVXVXZXZXZXCXZXZXZXAXAXZXVXzX7XvXAXAXAXAXAXCXCX].e.) 2 2 2 2 2 2 2 2 2 2 2 2 2 2 2 2 2 2 2 2 2 2 2 2 5 w w r g B H.hX:XXX2.W 7 SXSXSX",
"SXSXSX3.!.-XhXNXZXZ.N M J J J J A A A A A A A A A A A A A C z z C A =XAXAXAXVXl.h C C C A A A A A A A A C C z z C C A m.tXAXAXAXAXiX4.h z l l l l l l l l u t C e.0XAXAXAXCXAX0X1.h u h u u u u u u u u t t t t t t e <.BXAXAXAXZXZXAXAXAXAXAXAXAXAXZXVXkXQ.w.#XAXAXAXAXAXAXAXAXiX).z.E.^.z.0X#X7X*XOXE.*XOXa 2 2 2 2 2 2 2 2 2 2 2 2 2 2 2 2 2 2 2 2 < < 2 c 6XAXCX/.2 < < < 2 2 2 d 6XAXZXVXVXVXVXZXCXZXZXZXAXAXAXBXx.` zXBX6X).z.).BX@Xd 2 2 2 < 2 2 2 2 2 2 2 2 2 2 2 2 2 2 2 2 2 2 2 2 2 2 2 w w r g B H.hX4X&X2.W 7 SXSXSX",
"SXSXSX4.(.-XhXNXZXZ.M M J J J J A A A A A A A A A A A A A C C z l C *XAXAXAXBX4.h z C C A C C A A A A A C C z l z z l l ^.CXAXAXAXAXkX^._ l u l l l h h h G e.@XnXAXAXAXAXCXvXz.l h u u u u u u u u u u t t t t t t t G 7XAXAXAXCXAXAXAXAXAXAXAXkX].;XlX6Xc : ) #XxXkXBXAXCXZX*X_ Z ) ] _ z.5X7XW.a e 9 t a < 2 2 2 2 2 2 2 2 2 2 2 2 2 2 2 2 2 2 2 2 < - < z.CXAXAXE.; < < < < 2 < F #XzXZXAXZXVXVXAXCXZXZXZXAXBXkXyXW.W.7X{.) 2 ; b @X] 2 2 2 < 2 2 2 2 2 2 2 2 2 2 2 2 2 2 2 2 2 2 2 2 2 2 2 2 w w r g B H.hX4X&X2.W 7 SXSXSX",
"SXSXSX4.(.-XhXNXZXZ.m M J J A A A A A A A A A A A A A A A C C z h S wXAXAXAXiXE l z z C C C C C A A C C C C C l l l l s ~.AXAXAXAXAXAXAXyX`._ l l U e.e.e.9XVXAXAXAXAXAXAXAX`.u u u u u u u u u u u u u t t t t t t t e / _.*XQ.x.#X6X6X*XOX).z.) e Z / F 3 2 2 t G H *XAXAXBX[ : 9 2 < 2 w t a 2 < 2 2 2 < < 2 2 2 2 2 2 2 2 2 2 2 2 2 2 2 2 2 2 2 2 - < G yXAXAX6XG < < < < < 2 2 3 a r.kXiX6XT.z./.eXAXAXAXAX{.G c d e 6 6 3 < < 2 t 2 2 < < < 2 2 2 2 2 2 2 2 2 2 2 2 2 2 2 2 2 2 2 2 2 2 2 5 w w r m B K.hX:X&X2.W 7 SXSXSX",
"SXSXSX4.N.-XhXNXZXZ.m M J J A A A A A A A A A A A A A A C C C z h E 7XCXAXAX;XA z l z z C C C C C C C C C C z l l l l u Q.AXAXAXAXAXAXAXAXAXqX'.`.0XVXCXCXAXAXAXAXAXAXAXAX@XG t u u u u u t t t t t l u e t t t t t e e e t s w 9 s s s s t w 2 2 e w 2 2 2 2 9 w 2 a 0XAXAXBX) : 2 2 2 2 2 2 2 2 2 2 2 2 2 2 2 2 2 2 2 2 2 2 2 2 2 2 2 2 2 2 2 2 2 s r.#XqXBXVXZXz.2 2 < < 2 2 2 < < < e H F e < < < R.AXAXAXAXeXb # ; < ; - - , < < < 2 < < 2 2 2 2 2 2 2 2 2 2 2 2 2 2 2 2 2 2 2 2 2 2 2 2 2 2 w w r g B H.hX:X&X2.W 7 SXSXSX",
"SXSXSX3.N.-XNXNXZXb.M M J J A A A A A A A A A A A A A C C z z z l S x.vXAXAX'.z z z z z C C C C C z z C C z z l l l l u / yXAXAXAXAXAXAXAXAXAXAXAXAXAXAXAXAXAXAXAXAX;X_.^.S u u u u u u t t t t G W.#X'.E t t t t t e e e e e e e e e e e e w w w w w w 2 2 9 2 2 2 H lXAXAXAXx.: 2 2 2 2 2 2 2 2 2 2 2 2 2 2 2 2 < a 3.H 2 2 2 2 2 2 2 2 2 2 2 2 G #XCXAXAXVXnXiXr.2 2 < 2 2 2 < < < < < ; ; < 2 < - G lXAXAXAXAX=Xc ; 2 < < < < < < < < < 2 2 2 2 2 2 2 2 2 2 2 2 2 2 2 2 2 2 2 2 2 2 2 2 2 2 2 w w r y N H.hX:XH.2.W 7 SXSXSX",
"SXSXSX3.N.-XNXNXZXv.j M J J A A A A A A A A A A A C C C z z z C A m.wXCXCXiXe.h l z C C C C C C C z z C C z l l l l l l l e.;X*XtXvXAXAXAXAXAXAXAXAXAXAXAXAXAXAXpX^.G u u h u u t u u t t t t E 6XAXAXAXtX' e t t t e e e e e e e e e e e e e w w w w w w w w 3 3 2 r.CXAXAXAX*Xe 2 2 2 2 2 2 2 2 2 2 2 2 2 2 2 < ) 7XBX].w 2 2 2 2 2 2 2 2 ; c W.eXAXAXAXZXVXnXr.2 2 2 2 2 2 2 2 < < < < < < < < < , 2 ].AXAXAXAXAX).e 2 < < < < < < < < < 2 2 2 2 2 2 2 2 2 2 2 2 2 2 2 2 2 2 2 2 2 2 2 2 2 2 2 w w r y N H.hX:XH.2.W 7 SXSXSX",
"SXSXSX3.N.-XNXNXZXv.j M J A A A A A A A A A A A C C C C z z l l U 0XAXAXvX4.l l l z z C C C C C C C z C z z l l l l l l l h Z A U e.xXAXAXAXAXAXAXAXAXAXBXyXCXVXm.u u t u u u u u u u t t t s #XAXAXAXAXAX[.t t t t t e e e e e e e e e e e e w w w w w w w w 3 3 3 _.AXAXAXCX}.e 2 2 2 2 2 2 2 2 2 2 2 2 2 2 2 c 7XAXAXyXc < 2 2 2 2 < e [ W.*XAXAXAXAXAXAXAXwXF ; 2 2 2 2 2 2 2 < < < < < < < < < < < ) lXCXAXAXAXBXx.a , < < < 2 < < < < 2 2 2 2 2 2 2 2 2 2 2 2 2 2 2 2 2 2 2 2 2 2 2 2 2 2 2 w w r y N H.hX:XH.2.W 7 SXSXSX",
"SXSXSX3.N.-XhXNXZXv.g M A A A A A A C A A A A A C C z z z z l h _ eXzXzX'.A l l z z z z C C C C C C z C z z l l l l l l l h h h h u ' @XvXAXAXAXAXAXBXOXe.m.}.e.S u u u u u u u u u u t u e 3.BXAXAXAXAXAX6Xl t t e e e e e e e e e e e e e e e e w w w 9 w w 5 2 e *XAXAXAXwXZ 2 2 2 2 2 2 2 2 2 2 2 2 2 2 2 2 x.CXAXAX#X3 , , 2 3 e <.OXvXAXAXAXAXAXCXAXAXkX[ < 2 2 2 2 2 2 2 2 2 < < < < < < < < < < < z.lXCXAXAXAXBX5X/ # ; 2 2 2 < < 2 2 2 2 2 2 2 2 ; < 2 2 2 2 2 2 2 2 2 2 2 2 2 2 2 2 2 2 w w r y N H.hX:XH.%.W i SXSXSX",
"SXSXSX3.N.-XhXNXZXv.g M C A A C C C C A A A A A C C z z z z l l G 4.M.,.A l l l z z z z z z z z z z z z z l l l l l l l h h h h h u u S ,.E.iXvX[.).m.l t Z t t u u u u u u u u u u u t u C #XAXAXAXAXAXtXe.t t t t t e e t e e e e e e e e e e e w w w 9 9 9 3 2 Z yXAXAXAX6Xa 2 2 2 2 2 2 2 2 2 2 2 2 2 2 2 6 #XAXAXAXqX/ 2 F z.] ] zXAXAXAXAXAXAXCXCXAXeX] 2 2 2 2 2 2 2 2 2 2 2 < < < < < < < < < < , < <.vXAXAXAXAXAX@X<.w.G s < - < 2 < < < 2 2 e H r./ 2 2 2 2 2 2 2 2 2 2 2 2 2 2 2 2 2 2 w w r y N J.gX:XH.%.W i SXSXSX",
"SXSXSX1.N.-XhXNXZXv.g M M A A C C C C A A C C C C C C z z z l l h h A h h l l z z z z z z z z z l l z z z l l l l l l l h h h h h h h h h u ) 1.C u u u u t t u u u u u u u u u u u u t t G iXAXAXAXAXBXm.e t t t t e e t t t e e e e e e e e e e w w w w 9 9 2 2 <.BXAXAXAXiXF < 2 2 2 2 2 2 2 2 2 2 2 2 2 < c yXAXAXAXyX[.F r.[.#XyXCXCXAXAXAXAXAXyX@X=XH 2 2 2 2 2 2 2 2 2 2 2 2 2 2 2 < < < < < < < < ; a {.CXAXAXAXCXVXBXCXxX7X_.w.6 F <.E.).{.E._.xXCX/.3 2 2 2 2 2 2 2 2 2 2 2 2 2 2 2 2 2 w w r g N J.gX:XH.%.W i SXSXSX",
"SXSXSX1.M.-XhXNXZXv.y h M A A C z C C C C C C C C C C z z z l l l l h h l l l z z z z z z z z l l l l z l l l l h l l l h h h h h u h h h u t t u u u u u u u u u u u u u u u u u u t t e Z qXAXAXAXAXAXyX) e t t e e e t t t e e e e e e e e e e w w w 9 9 9 2 2 E.AXAXAXAX).e 2 2 2 2 2 2 2 2 2 2 2 2 2 2 < G lXAXAXAXiXiXwXzXBXAXAXAXAXAXBX5XvXBXE.c a - 2 2 2 2 2 2 2 2 2 2 2 2 2 2 2 2 2 < < < < < < < < e /.vXAXAXAXCXZXZXZXVXZXiXOXyXBXAXAXAXAXAXAXVXz.s 2 2 2 2 2 2 2 2 2 2 2 2 2 2 2 2 2 w w r g N J.gX:XH.%.W 7 SXSXSX",
"SXSXSX[ M.-XhXNXZXv.y h M A C C z C C C C C C C C z z z z z l l l l h h h l l l l l l l z z z l l h h l l l l l l l h l h h h h h h h h h u u u u u u u u u u u u u u u u u u u t t t t e e <.lXAXAXAXAXBX] w e e e t t e e e e e t e e e e e e e e w w 9 9 9 9 e OXAXAXAX6XH 9 9 2 2 2 2 9 2 2 2 2 2 2 2 2 2 F xXAXAXAXAXAXAXCXCXAXAXAXAXvXW.z.#Xw.t < , < 2 2 2 2 2 2 2 2 2 2 2 2 2 2 2 2 2 2 < < < < < < < 2 w ) 0XBXlXCXAXVXVXVXVXZXAXZXZXVXVXZXAXAXCXCX6XF : 2 2 2 2 2 2 2 2 2 2 2 2 2 2 2 2 w w y g N J.gX:XH.%.W 6 SXSXSX",
"SXSXSX] M.-XhXNXZXv.y h M C C C z z z C C z z z z z z z z z l l l h h h h l l l l l l l l z l l l h h l l l l l l h h h h h h h h h h h h u u u u u u u u u u u u u u u u t t t t t t t t w Z tXAXAXAXAX0XZ e e e e t e e e e e e t t e e e e e e e e w 9 9 9 9 c wXAXAXCX7XW.w 2 2 2 2 2 2 2 2 2 2 2 2 2 2 2 e #XAXCXAXAXAXAXCXCXCXAXnXOX1.e d e : 2 2 < 2 2 2 2 2 2 2 2 2 2 2 2 2 2 2 2 2 2 2 2 < < < < < < < < - b x.' Q.*XiXVXZXAXAXVXVXVXZXAXAXAXAXAX*XF 2 2 2 2 2 2 2 2 2 2 2 2 2 2 2 2 2 2 w r r g N H.gX:XH.%.W 7 SXSXSX",
"SXSXSX] M.-XhXhXZXv.y h h C C z z z z z l l l z z z l l z z z l h h h h l l l l l l l l l l l l l h l l l l l l l h h h h h h h h h h h u u u u u u u u u u u u u u u u u u t t t t t t t w w.BXAXAXAXBXx.w e e e e e e e e e e e e e e e e e e e e w w w 9 9 2 a 0XAXAXAXzXw.2 2 2 2 9 9 9 9 9 2 2 2 2 2 2 2 2 [ kXAXAXAXAXAXCXCXAXvXr._ a 2 < < < 2 2 2 2 2 2 2 2 2 2 2 2 2 2 2 2 2 2 2 2 2 2 2 < 2 < < < < < < < ; < 2 , 3 ` *XwXOX@XBXZXAXVXeX{.#XAXzXz.< 2 2 2 2 2 2 2 2 2 2 2 2 2 2 2 2 2 2 w w r y N H.gX:XH.%.W 7 SXSXSX",
"SXSXSX' M.$XhXhXZXv.y h h C C z z z z l l l l l l l l l l z z z l l l l l l l l l l l l l l l l l h l l l l l l l h h h h h h h h h h h u u u u u u u u u u u u u u u t u t t t t t e e e G 7XAXAXAXAX@Xs e e e e e e e e e e e e e e e e e e e e w w w 9 9 9 9 t 6XAXAXAXiXG 2 2 2 2 9 9 9 9 2 2 2 2 2 2 2 2 2 2 r.yXCXAXAXlXBXBX0Xe.e < < 2 2 < < < 2 2 2 2 2 2 2 2 2 2 2 2 2 2 2 2 2 2 2 2 2 2 < < < < < < < < < < < < < , < a s e c ).*XqX*X] a z.z._ e 2 2 2 2 2 2 2 2 2 2 2 2 2 2 2 2 2 2 2 w w r y N H.gX:XH.%.W 7 SXSXSX",
"SXSXSX' m.$XhXhXZXv.q h h z z z l l l h h h l l l l l l l z l l l l l l l l l l l l l l l l l l l l l l l l l l l h h h h h h h h h h u u u u u u u u u u u u u u u t t t t t t e e e e s '.AXAXAXAXlX' 9 e e e e e e e e e e e e e e e e e w w w w w 9 9 9 9 9 2 z.CXzX7Xz._ 2 2 9 9 9 9 9 9 2 2 2 2 2 2 2 2 2 2 2 G w.].]._ r.<.c : 2 2 < < 2 2 2 2 2 2 2 2 2 2 2 2 2 2 2 2 2 2 2 2 2 2 2 2 2 2 < 2 < < < < < < < < < < < < < < 2 2 2 2 6 a a 6 < 2 ; < 2 2 2 2 2 2 2 2 2 2 2 2 2 2 2 2 2 2 2 2 w w r q N J.gX:XH.%.W 7 SXSXSX",
"SXSXSX] m.+XfXhXZXv.q h h z z l l l h h h h l l l h h h l l l h h l l l l l l l l l l l l l l l l h h h l l l l l h h h h h u h h h h u u u u u u u u u u u u u t t t t t t t t e e e t Q.CXAXAXAXVXE.e e e e e e e e e e e e e e e e e e w w w w w w 9 9 9 9 2 2 s W.<.s 9 e 2 2 9 2 2 2 2 2 2 2 2 2 2 2 2 2 2 2 2 2 < 2 2 - : 2 < < 2 2 < < 2 2 2 2 2 2 2 2 2 2 2 2 2 2 2 2 2 2 2 2 2 2 2 2 2 2 2 2 2 2 < 2 < < < < 2 < < 2 < < 2 2 2 < < < < < 2 2 2 2 2 2 2 2 2 2 2 2 2 2 2 2 2 2 2 2 2 2 2 2 w w r q N J.3XI.H.%.W 7 SXSXSX",
"SXSXSX[ m.+XfXhXZXv.q h h z z l h h h h h h h l l h l l l h h h h h l l l l l l h h h l l h h h h h h h h h h l h h h h h u u u u u u u u u u u u u u u u u u t t t t t t t t e e e t x.vXAXAXAXyXm.s e e e e e e e e e e e e e e e e e w w w w w w w w 9 9 9 2 2 2 2 2 2 2 2 2 2 2 9 2 2 2 2 2 2 2 2 2 2 2 2 2 2 2 2 2 < < < 2 2 2 < < 2 2 2 2 2 2 2 2 2 2 2 2 2 2 2 2 2 2 2 2 2 2 2 2 2 2 2 2 2 2 2 2 2 2 2 < < 2 2 2 < < 2 2 < < 2 2 < 2 2 2 2 2 2 2 2 2 2 2 2 2 2 2 2 2 2 2 2 2 2 2 2 2 2 2 5 w w r y N J.3XI.H.%.W 7 SXSXSX",
"SXSXSX[ m.+XfXhXZXv.q h h h h h h h h h h h h l l l h h h h h h h h h h h h h l h h h h h h h h h h h h h h h h h h h h h u u u u u u u u u u u u u u u u u u u u u t t t t t t e e 1.kXAXAXAXvXe.w e e e e e e e e e e e e e e e e e e w w w w w w w w 9 9 9 2 2 2 2 2 2 2 2 2 2 2 2 2 2 2 2 2 2 2 2 2 2 2 2 2 2 2 2 2 2 < 2 < < 2 2 2 < < 2 < 2 2 2 2 2 2 2 2 2 2 2 2 2 2 2 2 2 2 2 2 2 2 2 2 2 2 2 2 2 2 2 2 2 2 2 2 2 2 2 2 2 2 2 2 2 2 2 2 2 2 2 2 2 2 2 2 2 2 2 2 2 2 2 2 2 2 2 2 2 2 2 2 5 w w r y N J.3XI.J.%.W 7 SXSXSX",
"SXSXSX[ m.+XfXhXZXk.q h h h h h h h h h h h h h h l h h h h h h h h h h h h h h h h h h h h h h h h h h h h h h h h h u u u u u u u u u u u u u u u u t t t t t t t t t t t e t e G 0XAXAXAXeX<.e e e e e e e e e e e e e e e e e e e e e w w w w w 9 9 9 9 9 2 2 2 2 2 2 2 2 2 2 2 2 2 2 2 2 2 2 2 2 2 2 2 2 2 2 2 2 2 2 2 2 2 2 2 2 2 < < 2 2 2 2 2 2 2 2 2 2 2 < 2 2 2 2 2 2 2 2 2 2 2 2 2 2 2 2 2 2 2 2 2 2 2 2 2 2 2 2 2 2 2 2 2 2 2 2 2 2 2 2 2 2 2 2 2 2 2 2 2 2 2 2 2 2 2 2 2 2 2 2 2 2 w w r r y N J.3XI.J.%.W 7 SXSXSX",
"SXSXSX] m.+XfXhXZX0.0 h h h h h h h h h h h h h h h h h h h h h h h h h h h h h h h h h h h h h h h h h h h h h h h h u u u u u u u u u u u u u u u t t t t t t t t t t t t e e G @XAXVXlXOXH 9 w e e e e e e w e e e e e e e e e e e w w w w 9 w w 9 9 9 9 9 9 2 2 2 2 2 2 2 2 2 2 2 2 2 2 2 2 2 2 2 2 2 2 2 2 2 2 2 2 2 2 2 2 2 2 2 2 < 2 2 2 2 2 2 2 2 2 2 2 2 < < < 2 2 2 2 2 2 2 2 2 2 2 2 2 2 2 2 < < < < 2 2 2 2 2 2 2 2 2 2 2 2 2 2 2 2 2 2 2 2 2 2 2 2 2 2 2 2 2 2 2 2 2 2 2 2 2 2 9 9 9 w r y y N J.3XI.J.%.W 7 SXSXSX",
"SXSXSX] m.+XfXhXZX0.0 u h h h h h h h h h h h h h h h h h h h h h h h h h h h h h h h h h h h u h h h h h h h h h u u u u u u u u u u u u t t t t u t t t t t t t t t t t t t t ).zXCX`.E C w w e e e e e e e e e e e e e e e w e e e w w w w w 9 9 9 9 9 9 9 9 9 2 2 2 2 2 2 2 2 2 2 2 2 2 2 2 2 2 2 2 2 2 2 2 2 2 2 2 2 2 2 2 2 2 2 2 2 2 2 2 2 2 2 2 2 2 2 2 2 2 2 2 2 2 2 2 2 2 2 2 2 2 2 2 2 2 2 2 2 < 2 2 2 2 2 2 2 2 2 2 2 2 2 2 2 2 2 2 2 2 2 2 2 2 2 2 2 2 2 2 2 2 2 2 2 2 2 2 2 2 2 9 w w r y y N J.3XI.J.%.W 7 SXSXSX",
"SXSXSX] m.+XfXhXMX0.0 u h h h h h h h h h h h h h h h h h h h h h h h h h h h h h h h h h h u u u u h h h u u u u u u u u u u u u u u u u t t t t t t t t t t t t t t t t t t t ' 1.#X_ w e e w e e e e e e e e e e e e e e e e e e w w w w w 9 9 9 9 9 9 9 9 9 9 9 9 9 2 2 2 2 2 2 2 2 2 2 2 2 2 2 2 2 2 2 2 2 2 2 2 2 2 2 2 2 2 2 2 2 2 2 2 2 2 2 2 2 2 2 2 2 2 2 2 2 2 2 2 2 2 2 2 2 2 2 2 2 2 2 2 2 2 2 2 2 2 2 2 2 2 2 2 2 2 2 2 2 2 2 2 2 2 2 2 2 2 2 2 2 2 2 2 2 2 2 2 2 2 2 2 2 2 2 2 2 w w w y y N J.3XI.J.%.W 7 SXSXSX",
"SXSXSX] m.+XfXhXMX0.0 u h h h h h h h h h h h h h h h h h h h h h h h h h h h h h u u u u u u u u u u u u u u u u u u u u t t t u u u t t t t t t t t t t t t t t t t t t t t t w w s t e e e e e e e e w w w w e e e e e e e w w w w w w w 9 9 9 9 9 9 9 9 9 9 9 9 9 9 2 2 2 2 2 2 2 2 2 2 2 2 2 2 2 2 2 2 2 2 2 2 2 2 2 2 2 2 2 2 2 2 2 2 2 2 2 2 2 2 2 2 2 2 2 2 2 2 2 2 2 2 2 2 2 < 2 2 2 2 2 2 2 2 2 2 2 2 2 2 2 2 2 2 2 2 2 2 2 2 2 2 2 2 2 2 2 2 2 2 2 2 2 2 2 2 2 2 2 2 2 2 2 2 2 2 2 2 w w r r y N J.4XI.J.%.W 7 SXSXSX",
"SXSXSX[ M.+XfXfXMX0.8 u h h h h h h h h h h h h h h h h h h u h u h h h h h h h u u u u u u u u u u u u u u u u u u t u u t t t t t t t t t t t t t t t t t t t t t e e e e e e e e w e e e e e e e e w w w w w w e e e e e e w w w w w w w 9 9 9 9 9 9 9 9 9 9 2 2 2 2 2 2 2 2 2 2 2 2 2 2 2 2 2 2 2 2 2 2 2 2 2 2 2 2 2 2 2 2 2 2 < 2 2 2 2 2 2 2 2 2 2 2 2 2 2 2 2 2 2 2 2 2 2 2 2 2 2 2 2 2 2 2 2 2 2 2 2 2 2 2 2 2 2 2 2 2 2 2 2 2 2 2 2 2 2 2 2 2 2 2 2 9 9 2 2 2 2 2 9 2 2 2 2 2 2 2 2 2 5 w r y g N J.4XH.J.$.W 7 SXSXSX",
"SXSXSX[ M.+XfXfXMX0.0 u h h h h h h h h h h h h h h h h h h u h h h h h h u u u u u u u u u u u u u u u u u u t t t t t t t t t t t t t t t t t t t t t t t t t t t e e e e e e e e e e e e e e e e e w w w w w w w w w e e e w w 9 9 w 9 w w w 9 9 9 9 9 9 9 9 2 2 2 2 2 2 2 2 2 2 2 2 2 2 2 2 2 2 2 2 2 2 2 2 2 2 2 2 2 2 2 < 2 2 2 2 2 2 2 2 2 2 2 2 2 2 2 < 2 2 2 2 2 2 2 2 2 2 < 2 2 2 2 2 2 2 2 2 2 2 2 2 2 2 2 2 2 2 2 2 2 2 2 2 2 2 2 2 2 2 2 2 2 2 2 2 2 2 2 2 2 2 2 2 2 2 2 2 2 2 2 2 5 w r y g N J.4XH.J.$.W 7 SXSXSX",
"SXSXSX[ M.+XfXfXMX0.0 u h h h h h h h h h h h h u h h h h h u u u u u u u u u u u u u u u u u u u u u u u t t t t t t t t t t t t t t t t t t t t t t t t t t t t e e e e e e e e e e e e e e e e e e e w w w w w w w w e e w w w 9 9 9 w w w w 9 9 9 9 9 9 9 2 2 2 2 2 2 2 2 2 2 2 2 2 2 2 2 2 2 2 2 2 2 2 2 2 2 2 2 2 2 2 2 2 2 2 2 2 2 2 2 2 2 2 2 2 2 2 2 2 < 2 2 2 2 2 2 < < < < 2 2 < 2 2 2 2 2 2 2 2 2 2 2 2 2 2 2 2 2 2 2 2 2 2 2 2 2 2 2 2 2 2 2 2 2 2 2 2 2 2 2 2 2 2 2 2 2 2 2 2 2 2 w w w r g N J.4XH.J.$.W 7 SXSXSX",
"SXSXSX[ M.+XfXfXMX0.8 t u h h u u u u u u u h h h u h u u u u u u u u u u u u u u u u u u u t t t u u t t t t t t t t t t t t t t t t t t t t t t t e t t t e e e e e e e e e e e e e e e e e e e e e e e w 9 9 w e w w w w w w w 9 9 9 w 9 9 w w 9 9 9 9 9 9 9 2 2 2 2 2 2 2 2 2 2 2 2 2 2 2 2 2 2 2 2 2 2 2 2 2 2 2 2 2 2 2 2 2 2 2 2 2 2 2 2 2 2 2 2 2 2 2 < < < < < < < 2 < < < < < < < 2 2 2 2 2 2 2 2 < 2 2 2 2 2 2 2 2 2 2 2 2 2 2 2 2 2 2 2 2 2 2 2 2 2 2 2 2 2 2 2 2 2 2 2 2 2 2 2 2 2 5 w w r y m J.4XH.J.$.W 7 SXSXSX",
"SXSXSX[ M.+XfXfXMX0.8 t u u u u u u u u u u u u u u u u u u t u u u u u u u t t t t u u t t t t t u t t t t t t t t t t t t t t t t t t t t t t t t e e t e e e e e e e e e e e e e e e e e e e e e w w w w 9 w w w w 9 9 w 9 9 9 9 9 9 9 w 9 w 9 9 2 2 2 2 2 9 2 2 2 2 2 2 2 2 2 2 2 2 2 2 2 2 2 2 2 2 2 2 2 2 2 2 2 2 2 2 2 < 2 < < 2 2 2 2 2 2 2 2 2 2 2 < < < < 2 < < < < < < < < < < < 2 2 2 2 < < < < < < 2 2 2 2 2 2 2 2 2 2 2 2 2 2 2 2 2 2 2 2 2 2 2 2 2 2 2 9 2 2 2 2 2 2 2 2 2 2 2 2 w w w r y N J.4XH.J.$.W 7 SXSXSX",
"SXSXSX[ M.+XfXfXMX0.8 r u u u u u u u u u u u u u u u u u u t t u u u u t t t t t t t t t t t t t t t t t t t t t t t t t t t t t e e e e t t e e e e e e e e e e e e e e e e e e e e e e e e e w w w w w 9 9 w w 9 9 9 9 w w w 9 9 9 9 9 9 9 9 2 2 2 2 2 2 2 2 2 2 2 2 2 2 2 2 2 2 2 2 2 2 2 2 2 2 2 2 2 2 2 2 2 2 2 2 2 2 2 < < < < 2 2 2 2 2 < < < < < < < < < < < 2 2 2 < < < < < < < < < 2 2 2 < < < < < 2 2 2 2 2 2 2 2 2 2 2 2 2 2 2 2 2 2 2 2 2 2 2 2 2 2 2 9 2 2 2 2 2 2 2 2 2 2 2 9 w w w w r y N J.4XH.J.$.W 7 SXSXSX",
"SXSXSX[ M.+XfXfXMX0.8 r u u u u u u u t t t t t t t u u u t t t u u u u t t t t t t t t t t t t t t t t t t t t t e e e e t e e e e e e e e e e e e e e e e e e e e e e e e e e w w w w w w w w w w w w 9 9 9 9 9 9 9 9 w w w w w 3 9 9 9 9 2 2 2 2 2 2 2 2 2 2 2 2 2 2 2 2 2 2 2 2 2 2 2 2 2 2 2 2 2 2 2 2 2 2 2 2 2 2 2 2 < < < < 2 2 2 2 2 < < < < < < < < < < < < < < < < < < < < < < < < 2 2 2 2 < 2 2 2 2 2 2 2 2 2 2 2 2 2 2 2 2 2 2 2 2 2 2 2 2 2 2 2 9 9 9 9 2 2 2 2 2 2 2 9 9 9 w 9 w w w w r y m J.4XH.C.$.W 7 SXSXSX",
"SXSXSX<.M.+XfXfXMX0.8 r u u u u u t t t t t t t t t t t t t t t t u u t t t t t t t t t t t t t t t t e t e e e e e e e e e e e e e e e e e e e e e e e e e e e e e e e w w w w w w w w w w w w 9 9 9 w 9 9 9 w w 9 9 9 w w w w 2 2 2 2 2 2 2 2 2 2 2 2 2 2 2 2 2 2 2 2 2 2 2 2 2 2 2 2 2 2 2 2 2 2 2 2 2 2 2 2 2 2 2 2 2 2 2 < < < 2 2 < 2 2 < < < < < < < < 2 2 < < < < < < < < < < < < < < < 2 2 2 2 2 < < 2 2 2 2 2 2 2 2 2 2 2 2 2 2 2 2 2 2 2 2 2 2 2 2 9 9 9 9 2 2 2 2 2 2 2 2 9 2 w w w w w w r y m J.4XH.C.$.W 1 SXSXSX",
"SXSXSX<.M.+XfXfXMX0.8 r t u u u u t t t t t t t t t t t t t t t t t t t t t t t t t t t t t t t t e e e e e e e e e e e e e e e e e e e e w w e e e e e w w e e w e e e w w w w w w w w w w w w w 9 w w 9 9 9 w w w 9 w w w w 9 2 2 2 2 2 2 2 2 2 2 2 2 2 2 2 2 2 2 2 2 2 2 2 2 2 2 2 2 2 2 2 2 2 2 2 2 2 2 < 2 2 2 2 2 2 2 2 < < < < 2 < < < < < < < < < < < < < < < < < < < < < < < < < < < < < < < < < < < 2 2 2 2 2 2 2 2 2 2 2 2 2 2 2 2 2 2 2 2 2 2 2 2 2 9 9 9 2 2 2 2 2 2 2 2 2 2 9 w w w w w r y m J.4XJ.C.$.v 1 SXSXSX",
"SXSXSX[ M.+XfXfXMX0.8 r t t u t t t t t t t t t t t t t t t t t t t t t t t t t t t t t t t t t e e e e e e e e w e e e e e e e e e e e e e e e e e e e e w e w w e e e w w w w w w w w w w w w w w w w w 9 w w w w 9 9 w w w 3 2 2 2 2 2 9 2 2 2 2 2 2 2 2 2 2 2 2 2 2 2 2 2 2 2 2 2 2 < < < 2 2 2 2 2 2 < 2 2 2 2 2 2 2 2 2 2 < < < 2 < < < < < < < < < < 2 2 2 < < < < < < < < < < < < < < < < < < < < 2 2 2 2 2 2 2 2 2 2 2 2 2 2 2 2 2 2 2 2 2 2 2 2 2 2 2 2 2 2 2 2 2 2 2 2 2 2 2 2 2 2 2 w w w r y m J.4XJ.C.Q v 7 SXSXSX",
"SXSXSX[ m.+XfXfXMX0.8 r t t t t t t t t t t t t t t t t t t t t t t t t t t t t e e e e t t t e e e e e e e e e e e e e e e e e e e e e e e e e w w w w 9 9 w w w 2 w w 9 2 2 9 w 9 2 2 2 2 9 9 9 2 9 w 2 2 2 w w 2 2 2 2 2 2 2 2 2 2 2 2 9 9 2 < < < < 2 2 2 2 2 2 2 2 < < < < < < < ; ; ; ; ; ; ; ; ; ; ; < ; ; ; ; , < < ; ; ; ; < < < < - - < < < 2 < < < 2 2 2 < < < < ; ; ; ; ; ; ; ; ; - - - - - ; ; 2 < < 2 2 2 ; ; ; ; 2 2 2 2 2 2 2 2 2 2 2 2 2 2 2 2 2 2 2 2 2 2 2 2 2 2 2 2 2 2 2 2 2 w w r y m J.4XJ.B.Q v 7 SXSXSX",
"SXSXSX[ m.+XfXfXMX0.8 r r t t t t t t t t e t t t t t t t t t t t t t t t t t t e e e e e e e e e e e e e w e e e w w w w e e w e e e t u t t Z G _ ] ] ] ) ) 1.1.[ ) H ' ] w.e.w.w.r.r.r.<.e.w.' 1.w.<.' ' ] H Z Z G / [ <.1.] F w s _ _ G Z H [ ] r.x.<./ c F F G F c c F F F H G F / ] [ <.<.] _ _ ] <.w.e.z.z.T.z.T.E.T.x.w.w.<.F c F c H G d d s e 6 3 < 2 2 6 e a a d F / ) ' [ [ <.w.r.r.r.x.w.<.[ ) _ F d 5 Z ' <.w.r.w.F 2 2 3 2 2 2 2 2 2 2 2 2 2 2 2 2 2 2 2 9 9 2 2 2 2 2 2 2 2 2 2 2 w w r y m J.4XJ.B.Q v 7 SXSXSX",
"SXSXSX] m.+XfXfXMX0.: r r t t t t t t t t t e e e e e e t t t t t e e t t t t t e e e e e e e e w w w w e s C Z Z C Z Z C _ w.1.e.z.^.@X*X{.`.qXiXzXnXnXBXvXzXBXtX`.z.E.{.6XzXCXCXCXCXCXCXBXCXBXnXBXVXBXvXBXBXiXeXyXkXzXBXvX@X]._.[.7XzXzXiX0X7XvXBXAXZXwXOX#X#X7X0X7XOXqXxXxXiXtX5X].Q.{._.^./.#XkXvXBXVXCXAXAXAXAXAXAXAXAXAXCXCXBXiXyXiXiXzXlXeXwX7X=X=X{.W.'.}.@X5XqXqXeXkXzXnXBXBXBXVXCXCXkX0XyXCXVXBXnXvXyXQ.<._.vXBXVXBXOXH < 2 w 3 2 2 < 2 9 2 : < 2 2 2 < 2 2 2 9 9 2 2 2 2 2 2 2 2 2 2 2 2 w r y m J.1XJ.B.Q v 7 SXSXSX",
"SXSXSX] m.+XfXfXMX0.: r r r t t t t t e e e e e e e e e e t e t t e t e e t t t e e e e e e e e F w.w.e.x.z.^.OX0X0X0XwXwXwXkXvXzXlXvXZXAXAXAXAXAXAXCXCXAXAXZXZXvXiXlXvXCXAXAXAXAXAXAXAXAXCXCXAXAXAXAXCXAXAXAXAXAXAXAXAXAXCXBXBXAXAXAXAXAXAXCXCXCXAXAXAXnXzXBXCXAXCXBXlXVXAXAXvX*X].].].#X).*XxXBXAXAXAXAXAXAXAXCXAXAXAXAXAXAXAXAXAXAXAXAXAXAXAXCXCXAXAXAXAXAXAXZXAXAXAXAXAXAXAXAXAXAXAXAXAXBX6XyXBXAXAXAXAXAXAXnXnXAXAXAXAXAXVX*XW.W.<.d e d ' z.[.].r.3.<.<.<.r.<.w 2 2 9 9 2 2 2 2 2 2 2 2 2 2 2 w r y m J.1XJ.B.Q v 7 SXSXSX",
"SXSXSX] m.+XfXfXMX0.: w e t t t t t e e e e e e e e e e e t e e e e t t e e e e e e e e w e e e G ] e.OX6X*XqXlXAXCXZXAXAXAXAXAXAXZXVXVXZXCXAXAXAXAXAXAXCXCXZXCXAXAXAXAXAXAXAXCXCXAXAXAXCXAXAXAXAXAXAXAXAXAXAXAXCXAXAXAXAXAXAXAXAXAXAXAXAXAXAXAXAXAXAXAXAXAXAXAXAXAXAXAXAXAXAXCXCXCXAXAXAXAXAXAXAXAXAXAXAXAXAXAXAXAXAXAXAXAXAXCXCXCXAXAXAXAXAXAXAXAXAXAXAXAXAXAXAXAXAXAXAXAXAXAXAXAXAXCXCXCXAXAXAXAXAXAXAXCXCXAXAXAXAXAXkXiXCXAXAXCXCXwX*X#XqXnXAXAXAXCXBXlXlXyX#XQ.a 2 2 2 9 2 2 2 2 2 2 2 2 2 2 2 w w y m G.1XJ.B.Q v 1 SXSXSX",
"SXSXSX] m.+XfXfXmX0.: w e t t t t e e e e e e e e e e t t t e e e e e e e e e e e e e e e w e e w.=XkXCXAXAXAXAXCXCXCXCXAXAXZXCXAXZXVXCXCXCXAXAXAXAXAXAXAXCXCXCXCXAXAXAXAXAXAXCXCXCXCXAXAXAXAXAXAXAXAXAXAXAXAXAXAXAXCXAXAXAXAXAXAXAXAXAXAXAXAXAXAXAXAXAXAXAXAXAXAXAXAXAXAXCXAXAXAXAXAXAXAXAXAXAXAXAXAXAXAXAXAXAXAXAXAXAXAXCXCXCXCXCXAXAXAXAXAXAXAXAXAXAXAXAXAXAXAXAXAXAXAXAXAXAXAXAXAXAXAXAXAXAXAXAXAXAXnXtXiXBXAXAXCXAX@XW.yXCXCXCXCXAXAXAXAXAXnXcXcXkX#X^.^.z.r.] w 2 2 2 2 2 2 2 9 2 2 2 2 2 2 2 w w y m V.1XJ.B.Q v 7 SXSXSX",
"SXSXSX] m.+XdXfXmX0.: w e t t t e e e e e e e e e e e e e e e e e e e e e e e e e e e w w w t 1.E._.@XvXAXAXAXZXZXCXCXAXAXAXZXZXAXZXVXlXnXAXAXAXAXAXAXAXAXAXCXCXZXAXAXAXAXAXAXCXCXCXCXAXAXAXAXAXAXAXAXAXAXAXAXxX7XvXvXCXCXvXkXvXzXxXyXxXvXAXAXAXAXAXAXAXAXAXAXAXAXAXAXAXAXzXxXAXAXAXAXAXAXAXvXiXyXkXCXAXAXAXBXvXAXAXCXeX6XzXCXAXCXCXlXkXBXAXAXAXAXAXCXiXyXzXqXqXCXAXAXAXCXVXVXAXAXAXAXAXAXAXAXAXAXBX*XW.x.z.*XZXAXAXAXAXCXBXBXAXAXCXBXlXtX*X{.}.m.] _ / Z e 2 < 2 2 9 2 2 2 2 2 2 2 9 9 2 2 2 2 2 2 9 w r f C.1XJ.B.Q v 7 SXSXSX",
"SXSXSX[ M.+XdXfXmX0.: e e e e e e e e e e e e e e e e e e e e e e e e e e e e w w w w w e w s [.BXCXCXvX0X;X#X[.6XvXBXvX7X*XwX7X@X0XVXBXCXAXAXBXzXkX0X*XOX*XkXAXCXCXCXlX6X#XwXCXAXAXAXCXCXAXAXAXAXAXAXAXAXAX6X).@XeXwXAXxXW.] / / ' z._.wXAXCXnXCXAXVXxXzXAXAXnXtX7XwX6X6X[.z.6X0XyXvXVXAXCX5X).@XtXCXAXCXBX0X#XyX*XE.<.).zXCXnXzXyXT._ {.7X6X6X#X{._.z.W.W.T.OX6X].Q.Q.r.] W.iXlXxXtXiXeX7XeX5X5XQ.d ) `.7X6X}.).).].{.#X*X=XOX).z.<./ Z d 2 w 3 2 < 2 2 9 2 2 2 2 2 2 2 2 2 2 2 9 9 2 2 2 2 2 2 2 9 w r f V.1XJ.B.Q v 7 SXSXSX",
"SXSXSX[ W.+XdXfXMX0.: w e e e e e e e e e e e e w w w w w e e e e e e e e e e w w w w w e w w s e.).E.] c u e e ) w.<.) C t c s t ) e.x.E.m.x.1._ H Z t t ) x.^.E.x.w./ s s w.E.^.^.^.e.<.x.W.W.W.^.Q.E.W.`.z.E.).).Q.W.z.r.G 3 c ' z.z.W.W.r.) 3.z.r.F ' ].{.[.E.H a e a r.w./ s Z _ ' w.W.W.W.Q.W.z.x.<.[ ] / F e d ] r.r.w._ H F c 2 e e e 6 3 < 2 w e 3 6 a a 2 < - - - 3 F H F c F Z a a 6 3 3 2 a c Z s w 2 2 2 3 6 e e 3 2 : ; ; < 2 2 2 2 2 2 2 2 2 2 2 2 2 2 2 2 2 2 2 9 9 9 2 2 2 2 2 2 2 w w r q V.1XB.B.Q v 7 SXSXSX",
"SXSXSX[ M.+XdXsXMX0.: w e e e e e e e w w e w w w w w w w e e w e e e e e e w w w w w w w w w 9 9 w 9 2 2 9 w 9 2 2 w w w w 2 2 w w 9 9 9 2 2 2 9 9 9 2 2 2 9 9 2 2 < 2 9 9 2 2 2 9 9 2 2 : 2 9 9 2 2 : : 2 2 2 9 9 2 < ; ; ; < < ; ; : ; - ; 2 2 : - ; ; < < 2 < < ; ; ; ; 2 2 2 2 ; - # # - ; ; - - - - - ; < < < - - - ; - # - - ; < < ; - - - , , < < < ; - ; < < < < < , ; < 2 2 < 2 2 < < < < < < ; 2 2 2 2 2 2 2 2 2 2 2 2 2 2 2 2 2 2 2 2 2 2 2 2 2 2 2 2 2 2 2 2 2 2 2 2 9 9 2 2 2 2 2 2 9 w w r q V.1XB.B.Q v 1 SXSXSX",
"SXSXSX[ M.+XdXsXMX0.> w e e e e e w w w w e w w w w w w w e e w w e e e e e w w w w w w w w w w 9 9 9 9 9 9 9 w w w w w w w w 9 w 9 9 9 9 9 9 9 9 9 2 2 9 9 9 2 2 2 2 2 2 2 2 2 2 2 2 2 2 2 2 2 2 9 2 2 2 2 2 2 2 2 2 2 < < < 2 2 2 2 2 2 < < 2 2 < < < < < < , , < < < < < < < < < < ; - - , < < < , , , < < < < < , , , , - - - ; , < , , ; ; , , , < < < < < < < < < < < < < 2 2 < < < < 2 2 < < 2 2 2 2 2 2 2 2 2 2 2 2 2 2 2 2 2 2 2 2 2 2 2 2 2 2 2 2 2 2 2 2 2 2 2 2 2 2 2 2 2 2 2 2 2 2 2 2 w w r q V.1XB.v.Q v 1 SXSXSX",
"SXSXSX] m.+XdXsXmX0.> w w e e e w w w e w e w w w w w w w w w e e e e e e w w w 9 9 9 w 9 w w 9 9 9 9 9 9 9 9 w w w w 9 9 9 9 9 2 2 2 2 9 9 9 9 9 9 2 2 9 9 2 2 2 2 2 2 2 2 2 2 2 2 2 2 2 2 2 2 2 2 2 2 2 2 2 2 2 2 2 2 2 < < 2 2 2 2 2 2 2 < < < < < < < < , , ; < < < < < < < < < < < < < , , , , , , , < < < < < < , , - - , - - , , , , < < < < < < < < < < < < < < < < < < 2 < < < < < < 2 2 2 2 2 2 2 2 2 2 2 2 2 2 2 2 2 2 2 2 2 2 2 2 2 2 2 2 2 2 2 2 2 2 2 2 2 2 2 2 2 2 2 2 2 2 2 2 2 2 2 5 w r q V.1XB.v.Q v 7 SXSXSX",
"SXSXSX' m.+XdXsXmX0.; w w e e w w w w w w w w w w w w w w w w e w w e w w w w 9 9 9 9 9 w w w 9 9 9 9 9 9 9 9 9 9 w w 9 9 9 9 9 2 2 2 2 9 9 9 9 9 9 9 9 9 9 2 2 2 2 2 2 2 2 2 2 2 2 2 2 2 2 2 2 2 2 2 2 2 2 2 2 2 2 2 2 2 2 2 2 2 2 2 2 2 2 < < < < < < < < , , , , < < < < , , , < , , < < < < , , , < < < < < < < < , , , , , , - , , , < < < < < < < < < < < < < < < < < < < 2 2 < < < < < 2 2 2 2 2 2 2 2 2 2 2 2 2 2 2 2 2 2 2 2 2 2 2 2 2 2 2 2 2 2 2 2 2 2 2 2 2 2 2 2 9 9 2 2 2 2 2 2 2 2 2 2 w r q V.>XB.v.Q v 1 SXSXSX",
"SXSXSX] m.+XdXsXmX0.; w w w w w w w w w 9 9 w w w w w w w w w w w w w w w w 9 9 9 9 9 9 w 9 9 9 9 9 9 9 9 9 9 9 9 9 9 9 9 9 9 9 2 2 9 9 9 9 9 9 9 9 9 9 9 9 9 9 2 2 2 2 2 2 2 9 2 2 2 2 2 2 2 2 2 2 2 2 2 2 2 2 2 2 2 2 2 2 2 2 2 2 2 2 2 2 < < < < < < < , , , , , < < < , , , , < < < < < < < < < , < < < < < < < < < , < < < < , < < < < < < < < < < < < < < < < < < < < < < 2 2 2 2 2 2 2 2 2 2 2 2 2 2 2 2 2 2 2 2 2 2 2 2 2 2 2 2 2 2 2 2 2 2 2 2 2 2 2 2 2 2 2 9 2 2 9 9 9 2 2 2 2 2 2 2 2 2 5 w w q V.>XB.v.Q v 1 SXSXSX",
"SXSXSX] m.+XdXsXmX4.; w w w w w w w 9 9 9 9 9 9 w w w w w w 9 w w w w w w w 9 9 9 9 9 9 9 9 9 9 9 9 9 9 9 9 9 9 9 9 9 9 9 9 9 2 2 9 9 9 9 9 2 9 9 9 2 2 9 9 9 9 2 2 2 2 2 2 2 2 2 2 2 2 2 2 2 2 2 2 2 2 2 2 2 2 2 2 2 2 2 2 2 2 2 2 2 2 2 2 < < < < < < , < < < < , , , , < , , , , < < < < < < < < , , , < < < < < < < < < < < < < < < < < < < < < < < < < < < < < < < < < < < < 2 2 2 2 2 2 2 2 2 2 2 2 2 2 2 2 2 2 2 2 2 2 2 2 2 2 2 2 2 2 2 2 2 2 2 2 2 2 2 2 2 2 2 2 2 2 2 2 2 2 2 2 2 2 2 2 2 2 w r y V.>XB.v.E v 7 SXSXSX",
"SXSXSX' m.+XdXsXNX4.; w w w w w w 9 9 9 9 9 9 9 9 w w w 9 9 9 9 w w w w w w 9 9 9 9 9 9 9 9 9 9 9 9 9 9 9 9 9 9 9 9 9 9 9 9 2 2 9 9 9 9 9 2 2 2 2 9 2 2 2 2 2 2 2 2 2 2 2 2 2 2 2 2 2 2 2 2 2 2 2 2 2 2 2 2 2 2 2 2 2 2 2 2 2 2 2 2 2 2 2 < < < < < < , < < < < , , , , , , , , , , < < < < < < < < , , , < < < < < < < < < < < < < < < , < , < < < < < < < < < < < < < < < < < < 2 2 2 2 2 2 2 2 2 2 2 2 2 2 2 2 2 2 2 2 2 2 2 2 2 2 2 2 2 2 2 2 2 2 2 2 2 2 2 2 2 2 2 2 2 2 2 2 2 2 2 2 2 2 2 2 2 5 w r y V.-XB.v.E v 7 SXSXSX",
"SXSXSX' x..XdXsXmX4.; 9 w w w w 9 9 9 9 9 9 9 9 9 9 9 9 9 9 9 9 w 9 w 9 w w w 9 9 9 9 9 9 9 9 9 9 9 9 9 9 9 9 2 2 2 2 9 9 2 2 2 9 9 9 2 2 2 2 2 2 2 2 2 2 2 2 2 2 2 2 2 2 2 2 2 2 2 2 2 2 2 2 2 2 2 2 2 2 2 2 2 2 2 2 2 2 2 2 2 2 2 2 2 2 < < < < < , , < < < < , , , , , , , , , , < < < < < < , , , , , , < , , < < < < < < < < < < < , , , < < < < < < < < < < < < < < < < < 2 2 2 2 2 2 2 2 2 2 2 2 2 2 2 2 2 2 2 2 2 2 2 2 2 2 2 2 2 2 2 2 2 2 2 2 2 2 2 2 2 2 2 2 2 2 2 2 2 2 2 2 2 2 2 2 2 2 5 w w r V.-Xv.v.E v 7 SXSXSX",
"SXSXSX' x..XdXsXmX4.; 9 w w w 9 9 9 9 9 9 9 9 9 9 9 9 9 9 9 9 9 9 9 9 9 9 9 9 9 9 9 9 9 9 9 9 9 9 9 9 9 9 9 9 2 2 2 2 2 2 2 2 2 9 9 9 2 2 2 2 2 2 2 2 2 2 2 2 2 2 2 2 2 2 2 2 2 2 2 2 2 2 2 2 2 2 2 2 2 2 2 2 2 2 2 2 2 2 2 2 2 2 2 2 < < < < < < < < < < < < < , , , , , , , , , , < < ; < < < , , , , , , , , , < < < < , < < < < < < < < < < < < < < < < < < < < < < < < < < < 2 2 2 2 2 2 2 2 2 2 2 2 2 2 2 2 2 2 2 2 2 2 2 2 2 2 2 2 2 2 2 2 2 2 2 2 2 2 2 2 2 2 2 2 2 2 2 2 2 2 2 2 2 2 2 2 2 5 w w q V.-Xv.v.E v 1 SXSXSX",
"SXSXSX' x.oXsXsXNX4.; 9 w w w 9 9 9 9 9 9 9 9 9 9 9 9 9 9 9 9 9 9 9 9 9 9 9 9 9 9 9 9 9 9 9 9 9 9 9 9 9 9 9 2 2 2 2 2 2 2 2 2 2 2 2 2 2 2 2 2 2 2 2 2 2 2 2 2 2 2 2 2 2 2 2 2 2 2 2 2 2 2 2 2 2 2 2 2 2 2 2 2 2 2 2 2 2 2 2 2 2 2 < < < < < < < < < < < < < < < , < < , , , < , , , , , < < , , , , , < , , , , , < < < < , , < < < < < < < < < < < < < < < < < < < 2 2 2 2 < < < 2 2 2 2 2 2 2 2 2 2 2 2 2 2 2 2 2 2 2 2 2 2 2 2 2 2 2 2 2 2 2 2 2 2 2 2 2 2 2 2 2 2 2 9 2 2 2 2 2 2 2 2 2 2 2 2 2 2 w w r V.-Xv.v.E v % SXSXSX",
"SXSXSX' m.+XdXsXNX4.; 9 w w 9 9 9 9 9 9 9 9 2 2 2 2 9 9 9 9 9 9 9 9 9 9 9 9 9 9 9 9 9 9 9 9 9 9 9 9 9 9 9 2 2 2 2 2 2 2 2 2 2 2 2 2 2 2 2 2 2 2 2 2 2 2 2 2 2 2 < 2 2 2 2 2 2 2 2 2 2 2 2 2 2 2 2 2 2 2 2 2 2 2 2 2 2 2 2 2 2 2 < < < < < < < < < < < < < < < , < < - - , < < , , , , , , , , , , ; ; , , , , , < < < < < < , < < < < < < < < < < < < < < < < < < < 2 2 2 2 < < < 2 2 2 2 2 2 2 2 2 2 2 2 2 2 2 2 2 2 2 2 2 2 2 2 2 2 2 < - ; 2 2 2 2 2 2 2 2 2 2 2 2 2 2 2 2 2 2 2 2 2 2 2 2 2 2 2 2 w r y V.-Xv.k.E v % SXSXSX",
"SXSXSX' m.+XdXsXNX4.; 9 9 9 9 9 9 9 9 9 2 2 2 2 2 2 9 9 9 9 9 9 9 9 9 9 9 9 9 9 9 2 9 9 2 9 9 9 9 9 9 9 2 2 2 2 2 2 2 2 2 2 2 2 2 2 2 2 2 2 2 2 2 2 2 2 2 2 < < ' E.a ; 2 2 2 2 2 2 2 2 2 2 2 2 2 2 2 2 2 2 2 2 2 2 2 2 2 2 2 2 2 < < < < < < , < < < < < < < - < 6 c a < ; - - - , - , , , , , - - ; , , , , , , , , , , , , < < < < < < < < < < < ; ; ; < < ; - , < ; 2 2 2 2 2 2 2 2 2 2 2 2 2 2 2 2 2 2 2 2 2 2 2 2 2 2 2 2 < 2 t e c ) ) Z t 2 ; 2 2 2 2 2 2 2 2 2 2 2 2 9 9 9 2 2 2 2 2 2 2 2 2 w r r V.-Xv.k.E v % SXSXSX",
"SXSXSX' m.+XdXuXNX4.; 9 9 9 9 9 9 2 2 2 2 2 2 2 2 2 9 9 9 9 9 9 9 9 9 9 2 2 9 9 9 9 2 2 2 2 2 9 2 2 2 2 2 2 2 2 2 2 2 2 2 2 2 2 2 2 2 2 2 2 2 2 2 2 2 2 2 2 2 r.lXBX[.F 2 2 2 2 2 2 2 2 2 2 2 2 2 2 2 2 2 2 2 2 < 2 < 2 2 2 < < < < < < < < < , , < < < - 3 d w.{.*XtXw.6 F 3 - , , , , , - , , , , , , , , , - , , , , , , , < < < < < , , < < < < < - - 2 F ] T.W./ / E.e.2 2 2 2 2 2 2 2 2 2 2 2 2 2 2 2 2 2 2 2 2 2 2 2 2 5 [ ).;X6XeXvXBXyX6X).[ s 2 2 2 2 2 2 2 2 2 2 2 9 9 9 2 2 2 2 2 2 2 2 2 w w r N.-Xv.k.E v % SXSXSX",
"SXSXSX' m.+XuXuXNX4.; 2 9 9 9 9 2 2 2 2 2 2 2 2 2 2 2 2 9 9 2 2 2 2 2 2 2 2 2 2 2 2 2 2 2 2 2 2 2 2 2 2 2 2 2 2 2 2 2 2 2 2 2 2 2 2 2 2 2 2 2 2 2 2 2 2 2 e z.vXAXVXVXE.< < 2 2 2 2 2 2 2 2 2 2 2 2 2 2 2 < < < < < 2 < 2 2 < < < < < < < < , , , , < 2 F ].eXvXAXAXBXE.OXiX].a - - - - - - , , , , , , , , - - - , , - - ; ; < < < < < - - < < ; : ; p / w.tXVXAXBXyXzXAXkX) : 2 2 2 2 2 2 2 2 2 2 2 2 2 2 2 2 2 2 2 2 3 H z.[.zXAXZXZXZXCXAXAXAXAXBXOXs 2 2 2 2 2 2 2 2 2 2 2 9 9 9 2 2 2 2 2 2 2 2 w w r N.-Xn.l.E c % SXSXSX",
"SXSXSX' m.+XuXuXNX4.= 2 9 9 9 2 2 2 2 2 2 2 2 2 2 2 2 2 2 2 2 2 2 2 2 2 2 2 2 2 2 2 2 2 2 2 2 2 2 2 2 2 2 2 2 2 2 2 2 2 2 2 2 2 2 2 2 2 2 2 2 2 2 2 < ; G {.nXZXZXAX6Xc ; < 2 2 2 2 2 2 2 2 2 2 2 2 2 < < < < < < < 2 < < < < < < < < < < < , - # a ] w w.CXAXCXCXCXAXBXCXAXvXr./ , - - - - - , , , , , , - - - - , - - - - - , , < < ; , 1 ; Z <./ [ #XzXvXVXZXAXAXAXAXAXAXx.: 2 2 2 2 2 2 2 2 2 2 2 2 2 2 2 2 2 2 < c ^.kXCXAXZXVXVXBXZXAXCXCXCXZXZXBX[ ; 2 2 2 9 9 9 2 2 2 2 9 2 2 2 2 2 2 2 2 2 2 w w 0 N.-Xv.k.E c % SXSXSX",
"SXSXSX' m.+XuXuXNX4.; 2 9 2 2 2 2 2 2 2 2 2 2 2 2 2 2 2 2 2 2 2 2 2 2 2 2 2 2 2 2 2 2 2 2 2 2 2 2 2 2 2 2 2 2 2 2 2 2 2 2 2 2 2 2 2 2 2 2 2 2 2 2 < - / qXAXVXVXZXyX' : < < 2 2 2 2 2 < < 2 2 2 2 2 < < < < < < < < < < < < < < < < < < < , - # ' *XlXW.7XAXAXVXzXBXCXzXzXAXAXBXiX] # - - - - - - - , - - - - - - - - - - - - ; ; - ; 2 <.[ b OXVXlXBXAXCXBXBXZXAXAXAXCXCXeXG ; 2 2 2 2 2 2 2 2 2 2 2 2 2 2 2 2 2 d x.0XCXAXCXCXVXVXBXnXVXCXVXBXCXCXZXVXE.< 2 2 2 9 9 9 9 9 2 2 9 9 9 2 2 2 2 2 2 2 2 5 w 0 M.-Xk.0.E c % SXSXSX",
"SXSXSX' m.+XuXuXcX4.; 2 9 2 2 2 2 2 2 2 2 2 2 2 2 2 2 2 2 2 2 2 2 2 2 2 2 2 2 2 2 2 2 2 2 2 2 2 2 2 2 2 2 2 2 2 2 2 2 2 2 2 2 2 2 2 2 2 < < < 2 2 ; / wXZXVXVXZXpX[ ; 2 < < < 2 2 < < < < < 2 2 2 2 < < < < < < < < < < < < < < < < < , , < < [ kXCXBXBXCXAXAXwXw.tXQ.` W.CXAXVXVX5Xa - - - - - - - - - - - - - - - - - - - - - < H i ( T.).0XnXZXAXAXAXAXVXZXAXAXAXAXzX=XG ; 2 2 2 2 2 2 2 2 2 2 2 2 2 2 2 2 t E.wXVXAXAXAXCXVXVXVX6XW.E.z.w.W.kXBXAX5XF 2 2 2 2 2 9 9 9 9 9 2 2 2 2 2 2 2 2 2 2 2 2 5 w 0 M.+Xk.0.E c % SXSXSX",
"SXSXSX] m.+XuXuXcX4.; 2 9 2 2 2 2 2 2 2 2 2 2 2 2 2 2 2 2 2 2 2 2 2 2 2 2 2 2 2 2 2 2 2 2 2 2 2 2 2 2 2 2 2 2 2 2 2 2 2 2 2 2 2 2 2 : < ; ; < ; 2 : w.tXyXVXAXwX' - - < < < < < < < < < < < 2 2 2 < < < < < < < < < < < < < < , , , ; - - < w.zXAXCXxX7XvXAXxX) 6 w.d , |.AXZXVXZXBX) # - - - - - - - - - - - - - - - - - - - - r.iX*XkXVXAXVXBXBXAXAXAXAXAXAXCXAXAXlX1.i - < 2 2 2 2 2 2 2 2 2 2 2 2 2 2 2 ; G iXAXAXAXAXAXAXBXqXT.' Z t : # p / w.).) < 2 2 2 2 2 2 9 9 9 9 2 2 2 2 2 2 2 2 2 2 2 2 5 w w M.+X0.0.H c % SXSXSX",
"SXSXSX' m.oXuXuXNX4.; 2 2 2 2 2 2 2 2 2 2 2 2 2 2 2 2 2 2 2 2 2 2 2 2 < < < < < 2 2 2 2 2 2 2 2 2 2 2 2 2 2 2 2 2 2 2 2 2 2 < < < < ; : ; ; - d F x.].] E.0X6X) # - - - < < < < < < < < < < < 2 < < < < < < < < < < < < < < , , - - - - - 3 =XAXAXAX6X*XBX6X' < ; - - - b OXVXVXZXCXw.O - - - - - - - - - - - - - - - - - - # F yXAXVXVXZXZXVXnXmXVXyXvXAXAXAXAXAXxX_.s : < 2 2 2 2 2 2 2 2 2 2 2 2 2 2 2 : c OXnXZXAXAXAXkX/.[ b ; ; < 2 2 < < < 2 2 2 2 2 2 2 2 2 2 9 9 9 9 2 2 2 2 2 2 2 2 2 2 2 2 5 w w M.+X0.0.H c % SXSXSX",
"SXSXSX' z. XuXuXNX4.; 2 2 2 2 2 2 < < 2 2 2 2 2 2 2 2 2 2 2 2 2 2 2 2 < < < < < < 2 < 2 2 2 2 2 2 2 2 2 2 2 < < < < 2 2 < < < < < < ; : : - a @XtXvXqX*XpX/.F : ; - # a 3 ; < < < < < < < < < < < < < < < < < < < < < , , - - - , - - - < r.xXAXAXAXvXzXQ.d # - - - - - + p 5XAXAXzX) F 6 - - - - - - - - - - - - - - - - - 3 ].AXCXBXBXCXAXAXnX6Xr._ =XxX*X/.).W.F 2 2 2 2 2 2 2 2 2 2 2 2 2 2 2 2 < < ; ) 6XBXBXZXAXVXOX/ < - ; < 2 < < 2 2 2 2 2 2 2 2 2 2 2 2 2 2 9 9 9 2 2 2 2 2 2 2 2 2 2 2 2 2 5 w w M.+X0.0.H c % SXSXSX",
"SXSXSX' x. XrXrXcX4.= 2 2 2 2 2 < < : < 2 2 2 2 2 2 < < < 2 2 2 2 2 2 2 < < < < 2 2 < < < < 2 2 2 2 < < 2 2 < < < < < < < < < < ; ; ; < ; F [.mXmXVXZXZX_.a ; ; < a z.5X) 3 ; , < < < < < < < < < < < < < < < < < < , , - - - - - - - - [ zXCXAXAXeX<.] < # # # - - # # # + w.VXZXkXW.kXT.# # # - - - - - - - - - - # # # # x.CXAXVXvXiXnXeX/.r.d + 2 d Z t < , - ; 2 2 2 2 2 2 2 2 2 2 2 2 2 2 2 2 < - G tXAXVXBXVXyXr.e ; < < < < < < < 2 2 2 2 2 2 2 2 2 2 2 2 2 2 9 9 9 2 2 2 2 2 2 2 2 2 2 2 2 2 2 w w M.+X0.0.H c % SXSXSX",
"SXSXSX) x. XrXrXcX1.= 2 2 2 2 2 : : : < : < < < : < < < < 2 2 2 2 2 2 2 2 < < < 2 2 < < < < < < < < < < < < < < < < < < < < < ; ; ; ; : H 7XZXVXmXmXBX{.6 # - ; : z.VXvX[ # - < < < < < < < < < < < < < < < < < < < , , - - - - - - # 6 *XZXZXAXzX) # - - # # # # # # # # # d 0XmXnXVXAX=X, # # - - - - - - - - - # # # + [ zXAXAXAX5XG ) c < # # - - - ; < 2 < , < 2 2 2 2 2 2 2 2 2 2 2 2 2 2 2 2 ; a *XZXZXZXVX0X) ; 2 2 2 < 2 2 2 2 2 2 2 2 2 2 2 2 2 2 2 2 2 2 2 2 9 9 2 2 2 2 2 2 2 2 2 2 2 2 2 2 w w M.+X0.0.H c % SXSXSX",
"SXSXSX` x. XrXrXbX4.= 2 2 2 2 2 : : : : : < : ; < : ; < < < 2 2 2 2 2 2 < < < < < 2 < ; ; < < < < < < < < < < < < < < < < < ; ; ; - - ) wXZXVXmXmXpXe.a - - - - a @XAXyXF a - , < < < < < < < , < , , < < < < < < , , , - - - - - - + ' vXZXVXAXOX< # # - - # # # # # # # - , Q.cXBXZXAXlX) + # - - - - - - - - - # # + / yXAXAXAXvX<.= # - - - - - - ; < < < < < < 2 2 2 2 2 2 2 2 2 2 2 2 2 2 2 < 2 W.AXZXCXAXvX[ # - < 2 2 2 2 2 2 2 2 2 2 2 2 2 2 2 2 2 2 2 2 2 2 2 2 2 2 2 2 2 2 2 2 2 2 2 2 2 2 2 w w M..X0.4.H c % SXSXSX",
"SXSXSX) x. XrXrXbX3.= 2 2 2 2 : ; ; ; : < < < < : < ; ; ; : < < < < < < < < < : 2 : < < < < < < < < < < < < ; ; ; < ; < < ; ; ; ; ' w.rXVXVXVXVXiX<.- - ; - - @ ' vXZX6Xw.[.3 - < < < < , , < < , , , , , , , < , , , - - - - - - - # / lXZXVXBXw.# # # # - # # # # # # # # # p qXAXZXVXZX/., - - - - - - - - # # - - 1 OXAXAXAXAX[.2 ; - # - - - ; ; ; , < < < < < 2 2 2 2 2 2 2 2 2 2 2 2 2 2 2 - / lXAXAXAXnXz.< - - , < 2 2 2 2 2 2 2 2 2 2 2 2 2 2 2 2 2 2 2 2 2 2 2 2 2 2 2 2 2 2 2 2 2 2 2 2 2 2 5 4 M..X0.4.H a $ SXSXSX",
"SXSXSX) x. XrXrXbX3.= 2 2 2 2 ; ; ; ; ; < < < 2 ; < ; ; ; ; : < ; ; < ; ; : : : < : < < ; < < < < < < < < < ; ; ; ; ; ; ; ; - - <.xXpXcXmXmXVXyX<.; - - - ; - 3 ].vXnXtX#XW.- ; , , ; ; - , , , , , , , , , , , , , , - - - - - - - - x.BXZXZX0Xa # # # # # # # # # # # # # # w.vXCXCXZXZX7Xa - , - - - - - # # # # # / xXCXCXAXtXH : - # # - - - ; - - , < < < < < < 2 2 2 2 2 2 2 2 2 2 2 < 2 : 2 [.AXAXAXAX/.2 < ; ; - - - 2 2 < ; 2 : 2 2 2 2 2 2 2 2 2 2 2 2 2 2 2 2 2 2 2 2 2 2 2 2 2 2 2 2 2 2 2 5 5 M.oX0.4.G p $ SXSXSX",
"SXSXSX` x. XrXrXbX4.= 2 2 2 : ; ; ; ; ; ; < < < ; ; ; ; ; ; < < ; ; ; ; ; ; ; ; ; < < ; ; ; ; < < < < < < < ; ; ; ; - - - - 2 ) 6XZXlXkXmXVX0X/ : - - - - ; ; _ @X0XvXBXBX<.= ; , , - - - - , , , , , , , , , , , , , , - - - - - # a wXZXCXAX#X% # # # # # # - - # - # # X / iXZXCXCXZXZXeXd # - - - - - # # # # # d 6XZXVXVXtX[ w 2 3 p 2 , - - - , , , < < 2 2 < 2 2 2 2 2 2 2 2 2 < w H ) d F 3.lXZXCXAXkX( e w e a ) [ ] a < G [ <.w.e < 2 2 2 2 2 2 2 2 2 2 2 2 2 2 2 2 2 2 2 2 2 2 2 2 2 2 2 2 2 5 w M.oX4.4.G p $ SXSXSX",
"SXSXSX` x.'.rX<XbX1.= 2 2 2 : ; ; ; ; ; ; ; ; ; ; ; ; ; ; ; ; ; ; ; ; ; ; ; ; ; ; ; ; ; ; ; ; ; < < ; ; < ; ; ; ; - - - # 6 T.yXvXmXcX@X@X6X/ - - - - - - - ; z.*X@XnXZXyXc - - - - - - - - - , , , - - , - , - - - - - - - - # # # b xXAXAXAX{.# # # - - # # - # # # # , ` #XCXCXAXCXCXVX*Xp # - , - - - # # # # H ].AXAXAXVX{.x.*X{.OX6X#X`.z.) , - , , < < 2 2 2 2 2 2 2 2 2 2 2 2 F ).lXyXOXyXvXVXVXVXZXvX5X6X#X5X0XvXVXtXE./ *XBXBXBX/.d 2 2 2 2 2 2 2 2 2 2 2 9 2 2 2 2 2 2 2 2 2 2 2 2 2 2 2 2 2 5 5 M.oX4.3.G p $ SXSXSX",
"SXSXSX` x.'.rX<XcX1.= 2 2 : : ; ; ; ; ; ; ; ; ; < ; ; ; ; ; ; ; ; < < ; ; ; ; ; ; ; ; ; ; ; ; ; < ; ; ; ; ; ; ; - - - - a OXBXZXVXmXOXF r.Z - - # - - - - - 3 =XVXnXvXVX).< - - - , - - - - - , - - - - , - - - - - - # - # # # # # d yXAXAXAXyXG + - - - # # - # + # b W.vXAXCXCXAXAXAXVXw.# - , , - - - # # + b eXAXAXAXAXVXvXnXVXZXVXVXZXvXpX).F # - < < < < 2 2 2 2 2 2 2 2 2 < _ qXvXVXVXVXBXVXVXVXVXVXCXAXAXAXAXZXZXVXVXVXxXBXCXCXCXAXW.2 2 2 2 2 2 2 2 2 2 2 9 9 2 2 2 2 2 2 2 2 2 2 2 2 2 2 2 2 2 5 M.oX3.<.F a $ SXSXSX",
"SXSXSX` x.'.rX<XbX1.= 2 2 : ; ; ; ; ; ; ; ; ; ; ; ; ; ; ; ; ; ; ; < ; ; ; ; ; ; ; ; ; ; ; ; ; ; ; ; ; - - - - - - - # d #XZXvXcXcXvXW.< < - - - - - - - - + G lXZXVXnXcX[ # - - - , , - - - - - - - - - - - - - - - # # # # # # # # d yXZXCXCXAXwX[ < # # # # # d [ Q.yXAXAXAXAXCXCXCXZXAXW.# # - , - - - # # 1 |.CXCXAXAXAXZXBXBXVXVXVXBXmXvXpX;XQ.[ F 2 < < < < 2 2 2 2 2 2 2 2 ; <.BXVXBXBXBXBXBXVXVXVXZXAXCXCXAXAXAXCXnXnXmXAXAXCXCXAXAXyXG < 2 2 2 2 2 2 2 2 2 2 2 2 2 2 2 2 2 2 2 2 2 2 2 2 2 2 2 2 5 M.oX3.<.F a % SXSXSX",
"SXSXSX/ l.'.rX<XbX4.= : : : ; ; - ; ; ; ; ; ; ; ; ; ; ; ; ; ; ; ; ; ; ; ; ; ; ; ; ; ; ; ; ; ; ; ; ; - - - - - - - - 6 {.AXVX=X@XE.w.a - # # # - - - - - # + z.VXZXZXkXOXa # - - , - - - - - - - - - - - - - - - # # # # # # # # # # 3 Q.tXBXCXAXAXnX|.' ] z.r.W.wXBXAXCXCXkXBXCXzXVXBXVXZXOX< # - - - - # - # [ BXAXCXCXAXAXAXZXVXVXCXVXBXnXcXcXcXcXvX6XH ; < < < 2 2 2 2 2 2 < 2 ; ) kXZXBXVXZXVXBXVXVXVXAXAXCXCXAXAXAXZXnXvXnXnXkXBXCXBX0Xx.w 2 2 2 2 2 2 2 2 2 2 2 2 2 2 2 2 2 2 2 2 2 2 2 < < 2 2 2 2 5 M.}.3.<.F a % SXSXSX",
"SXSXSX/ e.'.rX<XcX4.= : : : ; - - - - ; ; ; ; ; ; ; ; ; ; ; ; ; ; ; ; ; ; ; ; ; ; ; ; - - ; - ; ; - - - - - - - - e ).nXVXBXwXvXW.3 - - - # # # - - # # # , OXnXVXZXlXw.O + # < 3 6 6 # # # , # - - - - - - - - # # # # # # # # # # # , W.CXAXAXAXAXAXvXBXAXAXCXCXCXAXAXwX' OXR.{.ZXBXBXVXW.- , - - - # # # # ) zXAXCXCXAXAXlX].[.CXZXZXVXmXcXcXvXvXnXvXW.6 < 2 2 2 2 2 2 2 2 < < < < ] {.6X6X6XzXZXVXVXnXyXeXlXeXwXeXzXkXkXnXVXeX1.<.x.[ a < 2 2 2 2 2 2 2 2 2 2 2 2 2 2 2 2 2 2 2 2 2 2 2 2 2 < 2 < 2 2 5 M.}.3.<.F a $ SXSXSX",
"SXSXSX( x. XrX<XbX4.= : : : ; - - - - ; ; ; ; ; ; ; - - ; ; ; ; ; ; ; - - ; - - - - - - - - - - - - - - - - - # a ].VXBXBXZXVXW.3 % , 6 a d b F F b d G / <.iXBXVXVXVXW.[ <.E.].@X5X6XQ.R.z.].[ < # - - - - - # # # # # # # # # # # # + r.AXAXAXCXZXAXAXAXAXAXAXCXCXCXAXwX` b 1 =XAXBXBX0XF - - - - - - # # # , r.tXBXAXBX5X) 2 / @X{.[.{.}.;XpXVXVXVXBXlX[ ; 2 2 2 2 2 2 2 2 < < < - - 3 a p 6 {.AXAXZXtX/ c / Z d d / G / [ r.' e 2 : ; - < 2 2 2 2 2 2 2 2 2 2 2 2 2 2 2 2 2 2 2 2 2 2 2 2 2 2 2 < 2 2 5 M.}.<.<.G p $ SXSXSX",
"SXSXSX` x. XrX<XbX4.= : : ; ; - - - - - - ; ; ; - - - - ; ; ; ; ; - - - - - - - - - - - - - - - - - - - - - ( W.#XVXVXBXBXZXBX{.{.W.a Q.qXeXxXkXpXyXtXlXvXBXZXVXVXVXVXCXBXtXBXAXAXAXAXAXAXCXCXE.3 # # # # - - - # # # # # # # # # # # # d ].vXAXVXVXAXAXAXAXCXwXqXCXBX5Xw.< X / pXVXVXAX{.< - - - - - - # # # # , c w.W.<.a - < 2 6 < % , 3 F #XCXZXVXBXmX[.3 2 2 2 2 2 2 2 2 < < < < < < < - , {.AXAXAX6Xw - , 2 2 3 # 2 3 d a 2 6 2 3 6 6 6 2 2 2 2 2 2 2 2 2 2 2 2 2 2 2 2 2 2 2 2 2 2 2 < < 2 < 2 2 2 2 M.'.<.<.G a $ SXSXSX",
"SXSXSX` x. X<X,XbX4.= : : ; ; - - - - - - - - - - - - - - ; ; ; ; - - - - - - - - - - - - - - - - - - - # b wXZXVXVXVXVXVXCXAXAXAXvX*XzXAXAXAXZXVXVXVXZXZXZXVXVXVXVXVXZXAXlXBXCXAXAXAXAXAXCXCXx.- # # # # # # # # # # # # # # # # # # # # < ) r.z.xXAXAXBXiX{.Q.W.x.[ p + # , ).nXnXZXeX[ # - - - - - - - - - # # # # - - - - - < ; - # # - < d z.lXVXnXnXiXH 2 2 2 2 2 2 2 < < < < ; 2 i d / <.7XAXAXAXvXW.z.].).{.#Xw./.#XwXW.E.w.G r.] x.T.< 2 2 2 2 2 2 2 2 2 2 2 2 2 2 2 2 2 2 2 2 2 2 < < 2 2 2 2 2 2 M.'.<.<.G a $ SXSXSX",
"SXSXSX` x. X,X,XbX4.= : : ; - - - - - - - - - - - - - - - ; ; ; ; - - - - - - - - - - - - - - - - - - - - Q.AXAXAXCXAXAXCXVXBXVXVXZXZXVXZXAXAXZXVXVXVXVXZXCXZXZXVXZXVXZXAXBXBXAXCXCXAXAXAXAXeX/ # # # # # # # # # # # # # # # # # # # # # # # + # [ {.].` / <.' a - # # # + ` lXnXnXZX).a # # - - - - - - - - - - - - - - - - - - - - - - - < < 2 w.pXnXVXwXG < 2 2 2 2 2 2 2 < ; 6 ] E.OXqXlXBXVXVXZXVXZXAXVXVXVXZXAXzXCXAXAXvXnXkXxXvXW.w.Z < 2 2 2 2 2 2 2 2 2 2 2 2 2 2 2 2 2 2 2 2 2 < < < < < 2 2 2 2 M.oX3.<.G p $ SXSXSX",
"SXSXSX` x. X,X,XbX1.= : : ; - - - - - - - - - - - - - - ; - - - - - - - - - - - - - - - - - - - - - - - # W.AXAXAXZXVXVXBXBXBXBXVXVXBXmXVXAXBXxXkXZXZXCXCXAXAXCXVXVXiX6X].r.e.5XxXCXBXxXBXAX].% # # # # # # # # # # # # # # # # # # # # # # # # # # % # X X + # # # # # # % Q.ZXnXBXAX].< # # - - - - - - - - - - - - - - - - - - - - - - - - , ; , W.mX6X/ 2 2 2 2 2 2 2 2 2 2 2 E.nXZXBXmXBXVXVXVXVXBXVXVXVXnXnXnXBXAXAXAXZXVXnXBXZXyX*Xw.; 2 2 2 2 2 2 2 2 2 2 2 2 2 2 2 2 2 2 2 2 2 2 < < < < < 2 2 2 2 M.oX3.<.G p $ SXSXSX",
"SXSXSX` x. X,X,XbX4.= : : ; - - - - - - - - - - - - - - - - - - - - - - - - - - - - - - - - - - - - - - # x.AXAXAXVXcXcXBXVXVXZXZXZXkX6XcXAX5XG ) #XvXBXBXCXAXAXBX].' ` b W.#X0X7XQ.[ b ` Q.w.% # # # # # # # # # # # # # # # # # # # # # # # # # # # # # # # # # # # # # [ vXVXBXVXiX/ # # - - - - - - - - - - - - - - - - - - - - - ; ; - - - - - w.BXx.: 2 2 2 2 2 2 2 2 2 2 a #XZXVXnXnXBXBXVXVXVXVXBXVXVXmXcX@Xr.kXZXVXBXiXiXBXeX) e 6 2 2 2 2 2 2 2 2 2 2 2 2 2 2 2 2 2 2 2 2 2 2 2 < < < < < < 2 2 2 M.}.3.<.G p $ SXSXSX",
"SXSXSX` x. X,X,XbX4.= : : ; - - - - - - - - - - - - - - - - - - - - - - - - - - - - - - - - - - - - - - # p W.iXzX6X0XlXlXvXkXeX6X|.[ 6 ' x.[ , - 3 ` [ 6XZXAXAXOX3 1 1 # 6 / [ ) < O O X + # # # # # # # # # # # # # # # # # # # # # # # # # # # # # # # # # # # # # # F qXZXVXCXVXT.# # # - - - - - - - - - - - - - - , - - - - ; ; ; , - - - - / eXVX@Xe < 2 2 2 2 2 2 2 2 2 2 W.nXnXnXmXVXZXVXVXCXCXCXZXZXZX0X<.E.cX*Xr.[ F [ yX[ < < < 2 2 2 2 2 2 2 2 2 2 2 2 2 2 2 2 2 2 2 < 2 2 2 < < < < < < 2 2 2 M.}.<.<.G p $ SXSXSX",
"SXSXSX` x. X,X,XbX4.= 2 : ; - - - - - - - - - - - - - - - - - - - - - - - - - - - - - - - - - - # # # # # # # b G 6 b ) / ) G a 1 % # + O + o + # # O o {.ZXCXAXz.@ + o + # + @ # # # + + # # # # # # # # # # # # # # # # # # # # # # # # # # # # # # # # # # # # # # a *XVXBXVXAX6Xp # # # - - - - - - - - - - - - - , , , - - - - , < , , - # , _.VXvX[.3 < 2 2 2 2 2 2 2 2 2 2 c ).VXVXVXkX*XiXvXCXCXAXCX7X[.E.] w.w.G < ; ; d w.a - < < < 2 2 2 2 2 2 2 2 2 2 2 2 2 2 2 < 2 < < < < < < < < < < < < 2 2 W.}.<.<.H p $ SXSXSX",
"SXSXSX` x. X,X,XbX1.= : : ; - - - - - - - - - - - - - - - - - - - - - # # - - - - - - - - # # # # # # # # # # + + # # # # # # + + # # # # # + + + # + p wXZXCXAXQ.+ + + + # # # # # # # # # # # # # # # + + # # # # # # # # # # # # # # # # # # # # # # # # # # # + p ].nXnXnXvX[.) # # # # - - - - # # # - - - - - - - - ; ; ; ; - - - - - 6 a / kXVXvXe.- < 2 2 2 2 2 2 2 2 < < ; b E.Q.r.) a F {.AXAXAXAX/.5 < - # # - , < < < ; , , , < < < 2 2 2 2 2 2 2 2 2 2 2 < 2 2 < < < < < < < < < < < , < < 2 2 M.[.[ <.H p & SXSXSX",
"SXSXSX` x. X,X<XbX1.= : : - - - # # # - - - # - - - - - - - - # # # # # # # # # # - - # # # # # # # # # # # # # # # # # # # # # # # # # # + + + + # o ` BXAXCXCX@X3 + # # # # # # # # # # # # # # # # + % [ W./ # # # # # # # # # # # # # # # # # # # # # # # # + p [.nXnXvXcXpX<.- - # # - - - - # # # # < b , - - - - - - - ; - - - - 3 / {.7X0XVXZXvXe.< < 2 2 2 2 2 2 2 2 2 < < < < < - ; < - w.CXAXAXAXkX) # , < < , , < < < < < < < < < < < < < < 2 2 2 2 2 2 < < 2 2 < < < < < < < < < < , , < < 2 2 M.].[ [ H p . SXSXSX",
"SXSXSX` x. X,X<XbX1.= : : - - # # # # # # # # # - - # # # # # # # # # # # # # # # # # # # # # # # # # # # # # # # # # # # # # # # # # # + + + + + + o w.AXAXCXVX|.3 # # # # # # # # # # # # # # # # # p /.vXmXtXz., # # # # # # # # # # # # # # # # # # # # # # d {.vXnXnXvXpX).d # - # # # - - # # # # 6 T.eXW.a - - - - - - - - - - a ].zXAXCXCXCXCXW.w 2 2 2 2 2 2 2 2 2 2 2 < < < 2 < < < < < a *XAXAXCXCX6XG < < < < < < < < < < < < < < < < < < < < 2 2 2 2 < < < < < < < < < < < < < , , , , < < 2 2 M.].[ [ G p . SXSXSX",
"SXSXSX/ x. X,X,XbX0.; 2 ; - - # # # # # # # # # # # # # # # # # # # # # # # # # # # # # # # # # # # # # # # # # # # # # # # # # # # # + + + + + + + # /.AXCXCXiXb + # # # # # # # # # # + # # # # # 1 /.VXBXnXvXkX' @ # # # # # # # # # # # # # # # # # # # # ( 6XvXcXvXvXnXT., # # # # # # # # # # - , W.VXAXxXF - - , - - - # < c ) #XCXAXAXAXCXCXBX<.- 2 2 2 2 2 2 2 2 2 2 2 2 < < 2 2 < < < < ; [ zXCXCXCXAX5Xc 2 < < < < < < < < < < < < < 2 < < < < < < < < < < < < < < < < < < , , , , , , , < < 2 5 ^.[.[ [ G 6 . SXSXSX",
"SXSXSX/ l.`.;X,XfXl.; 2 ; - - # # # # # # # # # # # # # # # # # # # # # # # # # # # # # # # # # # # # # # # # # # # # # # # # # # + + + + + + + + + p wXAXAXAX6X1 + + # # # # # # # # # + # # # # o [ vXnXnXnXnXmXE.# # # # # # # # # # # # # # # # # # + 1 / 5XnXvXvXvXmX7Xb # # # # # # - - - # # - ) kXnXZX]., # - , - - # G `.tXvXVXCXAXAXAXAXBXT.6 < < 2 2 2 2 2 2 2 2 2 2 2 2 2 2 2 < < < < < 6 ).CXCXCXAXCX7Xe.a < , , < < < < < < < < < 2 2 < < < < < < < < < < < < < < < , , , , , , , , , < 2 2 w `./.[ [ F 7 . SXSXSX",
"SXSXSXH e.`.;X,XdXM.: 9 : - - # # # # # # # # # # # # # # # # # # # # # # # # # # # # # # # # # # # # # # # # # # # # # # # # # # # # + + + + + + o d yXAXAXAXeXp o + + # # # # # # # # # # @ # + % {.mXnXnXnXnXnXr.+ # # # # # # # # # # # # # # # # O c ).pXvXiXvX0XvX7XG # # # # # # - - - - # # - /.VXnXmX{.1 # , 3 G F x.yXmXBXVXVXCXCXAXAXBXE.3 , < 2 2 2 2 2 2 2 2 2 2 2 2 2 2 2 2 2 2 < < < < a ].BXAXAXAXAXBX_.G a p , - < 2 2 < - , < < e / ) 3 < < < < < < < < < < < < < < , , , , , , , < 2 5 i oXW.' ] c 7 . SXSXSX",
"SXSXSXG w.~.;X;XsX`.8 9 : - # # # # # # # # # # # # # # # # # # # # # # # # # # # # # # # # # # # # # # # # # # # # # # # # # # # # # + + + + + + X / kXVXAXBXW., + + # + # # # # # # # + + + + + 1 5XmXnXnXnXnXyXG # # # # # # # # # # # # # # # # , ' 6XcXcXcXnX#XW.].b # # # # # # # - - - # # # 1 @XBXnXmXiX[ [ G [ yX*XnXVXnXnXVXBXVXCXzXeXr.3 < < 2 2 2 2 2 2 2 2 2 2 2 2 2 2 2 2 2 2 2 2 < < < ; 6 #XAXAXCXCXCXiX0X0X6X].W.) 6 Z <.z./.{.E.#XzX7Xd < < < < < < < < < < < < < < , , , , , , , < 2 w v =Xx.' ' c % . SXSXSX",
"SXSXSXb 3.W.;X;XuX-Xr 9 : - - # # # # # # # # # # # # # # # # # # # # # # # # # # # # # # # # # # # # # # # # + # # # # # # # # # # # # + + + + + X x.VXVXCX{.a # # + # # # # # # # + + + + + + @ # Q.cXvXBXBXBXvX[ + # # # # # # # # # # # # # + + x.lXmXcXcXcXcXqXr., # # # # # # # # - - # # - # a 0XcXnXnXvXpX@X_.yXBXvXBXVXBXVX7XT.lXwX' d , < < < < < 2 2 2 2 2 2 2 2 2 2 2 2 2 2 2 2 2 2 < < < < < _ OXBXAXCXCXAXZXVXCXVXVXtX#XeXBXAXAXAXVXZXAX*XG < < < < < < < < < < < < < , , , , , , , , < 2 w S 6Xw.' ' a % . SXSXSX",
"SXSXSXb [ m.+X;X<XrXA 8 : ; - # # + + + + @ @ @ @ @ @ # # # # # # # # # # # # # # # # # # # # # # # # # # # # + # # # # # # # # # # # # + + + + + # {.AXVXVX).b + # # # # # # # # # # + + + + + + o p #XBXVXVXCXkXG @ # # # # # # # # # # # # # b ] {.mXnXvXlX*XyXr., # # # # # - - - - - - # - - - d tXnXvXvXnXnXBXnXnXVXVXBXVXZX0Xz.Q.T.G ; - , < < < < < 2 2 2 2 2 2 2 2 2 2 2 2 2 2 2 2 2 2 < < < < < < e /.6XwXCXAXCXVXZXZXCXCXAXAXAXCXCXAXCXVXVXiXw.< < < < < < < < < < < < < , , , , , , , , 2 5 w ' 5X[ ' _ i $   SXSXSX",
"SXSXSXd ) l. X;X,XfX,.8 : ; - # # + + + + + + + + + + # @ @ # # # # # # # # # # # # # # # # # # @ @ @ # @ @ # + + # # # # # # # # # # # + + + + + # /.nXVXVXpXG o # # # # # # # # # + + + + + + + + 1 5XZXVXVXAX].% # # # # # # # # # # # # + p *XcXpXvXVXnX].[ ) # # # # # # - - - - - - - - # - - 3 OXVXnXnXnXnXnXvXnXVXVXvXwX[.W.<.c - - < , , < < < < < 2 2 2 < < 2 2 2 2 2 2 2 2 2 2 2 2 < < < < < < < ; 6 p b x.#XxXnXAXAXAXCXVXCXAXAXAXBXCXAXlX' < < < < < < < , , , , , , , , , , , , , , < 2 5 w x.{.` ' H 6 .   SXSXSX",
"SXSXSXSX( e.(.;X>XfXM.8 8 : - # # + + + + + + + + + + + # # # # @ + + # + # + + # # # # # # # @ + + + + + @ # + + + # # # # # # # # # @ + + + + + + d OXVXVXlX^ o # # # + + # # # + + + + + + o + O ' vXCXVXVXyXG + # # # # # # # # # # # # + 1 T.vXnXwXQ.r.a # + # # # # # # # - - - - - - - - - # # [ lXVXnXvXvXcXvXVXZXCX{./ 6 d < < , , , , , < < < < < 2 2 2 < < 2 2 2 2 2 2 2 2 2 2 2 < < < < < < < < < - - - 3 p G [ z.OXW._.zXCXAXeX`.E.vXlX).p - < < < , , , , , , , , , , , , , , , , , < 2 w t [.W.` ' F 1 . SXSXSXSX",
"SXSXSXSXG w.M.$X-XuX-Xg q : - # + + o + + + o o + o + + + + + + + + + + + + + + + + @ # # # # + + + + @ @ + @ + + + + + @ + # # # # # + + + + + + + # ).lXW.W.G o + + + # # # # # + + + + + + + o p *XAXVXVXVXW.+ + # # # # # # # # # # # # # % T.BXAX7X[ , # # # # # # # # # # - - - - - - - - - # # < r.tXnXcXpXcXvXlXkXOX<.6 - - , < < , , , < < < < < 2 2 2 < < < 2 2 2 2 2 2 2 2 < < < 2 2 < < < < < < < < < < - - - ; < 3 3 w.Q.).#Xz.e / r.H 3 - , , , , , , , , , , , , , , , , , , , , , < 2 w G 6Xr.` ' a % . SXSXSXSX",
"SXSXSXSXb 1.l..X-X,XdXR q 8 ; # # + o o o o o o o o o + + + + + + + + + + + + o + + + + @ + + + + + + + + + + + + + + + + + + + # # # + + + + o + + + b ` $ + # + + + # # # # # @ + + + + + + o % /.ZXAXCXAX*Xp + # # # # # # # # # # # # # # % ` #XqX) # # # # # # # # # # # # - - - - - - - - - - - - , b r.<.<.*XW./ b 3 - - - - , , < , < < < < < < < 2 2 2 2 < < 2 2 2 2 2 2 2 < < < < 2 2 < < 2 < < < < < < < < < < < < < , , , , 3 2 < - # - , , , , , , , , , , , , , , , , , , , - # - , 2 5 w w.5X{ ` ( 6 $   SXSXSXSX",
"SXSXSXSXp ( w.(.$X-XdXm.8 8 : - # + o o o o o o o o o o + + + + + + + + o o o o o + + + + + + + + + + + + + + + + + + + + + + + + + # + + + + + + o + o o o o + + + + # # # # # + + + + + + + , x.vXCXCXAXqX/ O # # # # # # # # # # # # # # # + X p a + # # # # # # # # - - - # # - - , - - - - - - - - # # + # < 6 < - - - - - - ; ; , < < < < < < < < < < 2 2 2 2 2 2 2 2 2 2 2 2 < < < 2 < 2 < < 2 < < < < < < < < < , , ; ; , , , , , , , , , , , , , , , , , , , , , , , , , , , , # # # , < 3 w e [.Q.( ` G 1 .   SXSXSXSX",
"SXSXSXSXSXG 1.m.+X$X<X;XM r : - # + o o o o o o o o o + + + + + + o o o o o o o o o + + + + + + + + + + + + + o o o o o + + + + + + # + + + o + o o o o o + + + + + + + # # # # + + + + o O # R.BXCXCXCX7Xb + # # # # # # # # # # # # # # # # # # + + # # # # # # # # # # # # # # - - - - - - - - - - - # # # - - - , , , - - , , < < < < < < < < < < < < < < 2 < 2 2 2 2 2 2 2 2 2 < < 2 2 < < < < 2 < < < < < < < < < < < < < , < < , , , , , , , , , , , , , , , , , , , , , , , - # # # % , 2 w w E 6X} ( ` c % . SXSXSXSXSX",
"SXSXSXSXSXb ' w.`.$X>XdX0.q 8 ; - + + o o o o o o o o + + + + + + o o o o o o o o + + + + + o o o + + + + + o o o o o + + + + + + + + + + + + o o + o o o + + + + # + + # # + + + + + + o X [ zXZXCXVXOXb o + # # # # # # # # # # # # # # # # # # # # # # # # # # # # # # # - - - - - - - - - - - - - - - - - - - - , , , , , , , < < < < < < < < < < < < < < < < < 2 2 2 2 2 2 2 2 2 < 2 2 < < < 2 2 < < < < < < < < < < < < < < < < , , , , , , , , , , , , , , , , , , , , , , - # # # # - < 2 e e W.|.` ` / 6 $   SXSXSXSXSX",
"SXSXSXSXSXSXH 1.m.+X$XuX;XM r : - # + o o o o o o o o + + o o o o o o o o o o o o o o o o o o o + o o + o o o o o o o + + + o + + o + + + + + + + + + o o + + + + + # + + + + + + + o o + ` wXVXZXnXW.1 o + # # # # # # # # # # # # # # # # # # # # # # # # # # # # # # # # - - - - - - - - - - - - - - - - - - - - - , , , , , < < < < < < < < < < < < < < < < < 2 < < < 2 2 2 2 2 2 < 2 2 < < < < 2 < < < < < < < < < < < < < , , < , , , , , , , , , , , , , , , , , , - - - # # # # # # , < 5 e H 6Xr.( ` b % .   SXSXSXSXSX",
"SXSXSXSXSXSXb ' 4. X$X>XfXv.q 8 : - # + o o o o X o o o o o o o o o o o o o o o o o o o o o o o o o o o o o o o o o o o o o o + o o + + + o + + + + + o o + + + + + + + + + + + + o o o [ kXVXkXQ.[ , + + # # # # # # # # # # # # # # # # # # # # # # # # # # # # # # # # - - - - - - - - - - - - - - - - - - - - - , , < , < < ; < < < < < < < < < < < < < < < 2 < < < 2 2 < 2 2 2 2 2 2 2 < < < < < < < < < < < < < < < < < , , , , , , , , , , , , , , , , , , , , , , - - # # # # # # % < 2 w e ^.|.` ` ( p $   SXSXSXSXSXSX",
"SXSXSXSXSXSXp H 1.M.+X$X<X<XI q 8 ; = + o X X o X o X X o X o o o o o o o o o o o o o o o o o o o o o o o o o o o o o o o o o o o + + + + + + + + + + + + + + + + + + + + + + + + + o # Q.7X6XQ.# o + # + # # # # # # # # # # # # # # # # # # # # # # # # # # # # # # # - - - - - - - - - - - - - - - - - - - - - - , , < < < < < < < < < < < < < < < < < < < 2 2 2 2 2 2 2 2 2 < 2 2 2 2 2 < 2 < < < < < < < < < < < < < < < , , , , , , < < , , , , , , , , , , , , , , - # # # # # # % , 2 5 w _ 6X} ( ' G 7 .   SXSXSXSXSXSX",
"SXSXSXSXSXSXSXd ' e. X$X>XdX!.g r 8 - @ O X X X X X X X X X X X X X o o X X o o o o o o o o o o o o o o o o o o o o o o o o o o o o o o + + + + + + + + + + + + + + + + + + + + + + + + p p b d + # + + + # # # # # # # # # # # # # # # # # # # # # # # # # # # # # # - - - - - - - - - - - - - ; - - , , , - - ; - ; , < < < < < < < < < < < < < < < 2 2 2 2 2 2 2 2 2 2 2 2 2 < 2 < 2 2 2 < < < < < < < < < < < < < < < < < , , , , , , < < < , , , , , , , , , , , , - - # # # # # # , < 5 e s }./.( ( ' v % . SXSXSXSXSXSXSX",
"SXSXSXSXSXSXSXp H 1.m.+X$X,XdX8.g r : - + o X X X X X X X X X X X X X X X X X X o o o o o o o o o o o o o o o o o o o o o + o + o o o o + + o o + + + + + + + + + + + + + + + + + + + + o o o + # # + + # # # # # # # # # # # # # # # # # # # # # # # # # # # # # # # - - - - - - - - - - - - ; ; ; , , , , , , , ; ; , < < < < < < < < < < < < < < < 2 2 2 2 2 2 2 2 2 2 2 2 2 < 2 < < < < < < < < < < < < < < < < , < < < < , < , , , , , , , , , , , , , , , , , - # # # # # # # # , < 5 e e e.5X{ ^ ` H 7 o   SXSXSXSXSXSXSX",
"SXSXSXSXSXSXSXSXb _ 1.!.$X$XuX,XP g 8 : = O o X X X X X X X X X X X X X X X X X o o o o o o o o o o o o o o o o o o o o + + + + o o o o o + + o + o o o o o + + o o o + + + + + + + + + + + + + + # + + # # # # # # # # # # # # # # # # # # # # # # # # # # # # # # # - - - - - - - - - - - - ; , , , , , , , , , , , < < < < < < < < < < < < < < < 2 2 2 2 2 2 2 2 2 < 2 2 2 2 2 2 2 < < < < < < < < < < < < < < < , , < < , < < , < , , , , , , , , , , , , , , - - # # # # # # # - < 5 e t / 6Xr.^ ( _ a % . SXSXSXSXSXSXSXSX",
"SXSXSXSXSXSXSXSXSXb _ e. X$X>XfX Xj r 8 ; @ O X X X X X X X X X X X X X X X X X X o o o o o o o o o o o o o o o o o o o o o o o o o o o o + + o o o o o o o o + o o o o o + + + o o + + + + + + + + # # # # # # # # # # # # # # # # # # # # # # # # # # # # # # # # # # - - - - - - - - - - - - , , , - , , , < < < < < < < < < < < < < < < < < < < < < 2 2 2 2 2 2 < < < 2 < 2 2 2 2 < < < < < < < < < < < < , , , , , < , , , < , < , , , , , , , , , , , , , - - - # # # # # # - < 2 e t Z OXQ.^ ( ' v % .   SXSXSXSXSXSXSXSX",
"SXSXSXSXSXSXSXSXSXp G ' m.+X.X>XdXM.j g 8 ; # + o X X X X X X X X X X X X X X X X X X X o o o o o o o o X o o o o o o o o o o o o o o o o o o o o o o o o o o + o o o + + + o o o + + + + + + + o + + + # # # # @ @ @ @ # # # # # # # # # # # # # # # # # # # # # # # # # - - - - - - - - - - - - , , - , , , , < < < < < < < < < < < < < < < < < < < 2 2 < < < < < < < < 2 < < < 2 2 < < < < < < < < < < < < , , , , , , , , , , , , , , , , , , , , , , , , , - # # # # # # # - < 2 w t l `.{.( ^ ` H 7 &   SXSXSXSXSXSXSXSXSX",
"SXSXSXSXSXSXSXSXSXSXd / 1.!..X.X1XdXn.j g 8 ; = @ o o X X X X X X X X X X X X X X X X X X X X X o o o o o X X o o o o o o o o o o o o o o o o o o o o o o o o o o o o o + + o o + + + + + + + + o o + + + @ @ @ @ @ @ @ # @ @ @ # # # # # # # # # # # # # # # # # # # # # - - - - - - - - - - - - ; - - - , ; ; ; ; ; < < < < < < < < < < < < < < < < < < < < < < < < < < < < < < < < < < < < < < < < < < < < , , , , < , , , , , , , , , , , , , , , , , - - - # # # # # # # , < 2 w t u E.5X{ ^ ( _ a $ . SXSXSXSXSXSXSXSXSXSX",
"SXSXSXSXSXSXSXSXSXSX1 b _ 1.(..X.X1XdXd.f g 8 : - @ O o X X X X X X X X X X X X X X X X X X X X X o o X X X X X X X X o o o o o o o o o o o o o o X o o o o o o o + o o o o o o + + + + + + + o o o + + + @ @ @ @ @ @ @ @ @ @ @ # # # # # # # # # # # # # # # # # # # # # - - - - - - - - - - - - - - - - , ; ; ; ; ; < < < < < < < , , < < < < < < < < < < < < < < < < < < < < < < < < < < < < < < < < < < < < < , , , , , , , , , , , , , , , , - - , , - # # # # # # # # , < 2 w t u z.5X} ^ ( ` a $ .   SXSXSXSXSXSXSXSXSXSX",
"SXSXSXSXSXSXSXSXSXSXSXp b / 4. X.X.X1XaXd.j g r : - # + o X X X X X X X X X X X X X X X X X X X X X X X X X X X X X X X X X o X X o X X X X X o o X o o o o o o o + o o o o o o + + + + + + + + + + @ + + # # # # # # @ @ @ @ @ # # # # # # # # # # # # # # # # # # # - - - - - - - - - - - - - - - - - ; ; ; ; ; ; ; ; < < < < , , , , < < < < < < < < < 2 < < < , , < < < < < < < < < < < < < < < < < < < , , , , , , , , , , , , , , , , - , - - - - - - # # # # # # % , 2 5 e t s E.5X} ^ ( ` c % .   SXSXSXSXSXSXSXSXSXSXSX",
"SXSXSXSXSXSXSXSXSXSXSXSXp F _ e. X.X.X1XfXB.M g r : ; = @ o X X X X X X X X X X X X X X X X X X X X X X X X X X X X X X X X X X X X X o X o o o o o o o o o o o + + + + o o o o + o + + O O O O @ @ @ @ @ @ # # # # # # @ @ @ @ @ # # # @ # # # # # # # # # # # = - - - - - - - - - - - - - - - - ; - - ; ; ; ; ; ; ; ; ; ; ; ; - - - , , , < < < < < < < < < < < , , , , , , , , , , < < , , < < < , , , , , , , , , , , , , , , , , , , , - - - # # # # # # # # # % , < 2 e t t C Q.5X} ^ ( ` v % .   SXSXSXSXSXSXSXSXSXSXSXSX",
"SXSXSXSXSXSXSXSXSXSXSXSXSXp H _ 0. X.X.X1XdX XP f g w : = @ O o X X X X X X X X X X X X X X X X X X X X X X X X X X X X X X X X X o X X X o o o o o o o o o o O O O O O O o o o o O O O O @ @ @ @ @ @ @ @ @ # # # @ @ @ @ @ @ @ @ @ @ @ @ = = = = = = = = = = = = ; ; ; ; ; ; ; ; ; ; ; ; ; ; ; ; ; ; ; ; ; ; ; ; ; ; ; ; ; ; ; - - - ; , ; , < < < < < < < < < , , , , , , , , , , , , , , , , , < , , , , , , , , , , , , , , , , , , , - - # # # # # # # % , , , < 2 w e t t G [.OX{ ^ ( ` v % .   SXSXSXSXSXSXSXSXSXSXSXSXSX",
"SXSXSXSXSXSXSXSXSXSXSXSXSXSXp G E 0. X.X.X&XdX;X5.k g r 8 ; = @ O o X X X X X X X X X X X X X X X X X X X X X X X X X X X X X X X X o X X o o o o o o o o o O O O O O O O O O O O @ @ @ @ @ @ @ @ @ @ @ @ @ @ = # @ @ @ @ @ = = = = = = = ; ; ; ; ; ; ; ; ; ; ; > > > > ; > > > : : : : ; ; ; ; : : : ; ; ; ; ; ; ; ; ; ; ; ; ; ; ; ; ; ; ; ; ; ; ; < < < < < < , , , , , , , , , , , , , , , , , < , , , , , , - - - - , , , , - % % % # # # # # # # # # , , < < 2 5 e t u u 1.*X).( ^ ( ( c % . . SXSXSXSXSXSXSXSXSXSXSXSXSXSX",
"SXSXSXSXSXSXSXSXSXSXSXSXSXSXSXp Z E 4.!. XXX%XuXaXN.P j g r 8 ; = @ @ O O o o X X X X X X X X o o o X o o X o o o o o o o o o o o O O O O O O O O O O O O O @ @ @ @ @ @ @ @ @ @ @ @ @ @ @ @ @ @ = = = = = ; ; ; ; ; ; ; ; ; ; ; > > > > > > 4 4 4 4 4 0 0 0 0 0 0 0 0 0 0 0 0 0 0 0 0 4 4 4 4 4 4 4 4 4 : : : : : : : : : : : : ; ; ; ; ; ; ; ; ; < < < < < < < < < < < , , < < < < , < , , , , , < , , , , , , , , , , , , , , - - , , % # # # - - , , < 2 2 5 e e t t t S ^.6XT.( ^ ( _ v % .   SXSXSXSXSXSXSXSXSXSXSXSXSXSXSX",
"SXSXSXSXSXSXSXSXSXSXSXSXSXSXSXSX7 c H ,.M. X.X.X>XfX,Xv.M j g r 8 8 : ; = @ @ O O O O O O O O O O O O O O O @ @ @ @ @ @ @ @ @ @ @ @ @ @ @ @ @ @ @ @ @ @ @ = = = = = = = = = = ; = = = ; ; > > > > > > > > 4 4 4 4 4 4 4 0 0 0 0 0 q q q q q q q q q m m m m m m m m m m m m m q q q q q q q q q q q q q q q q 0 0 0 0 0 4 4 4 4 : : : : : : : : 2 2 2 2 2 2 2 2 2 2 2 2 2 2 2 2 2 2 2 2 < < < < < < < < < < < < < < < < < < < < , , , , , , , , < 2 2 2 w e t t u t t Z e.*X{.} ( ( ' _ a % .   SXSXSXSXSXSXSXSXSXSXSXSXSXSXSXSX",
"SXSXSXSXSXSXSXSXSXSXSXSXSXSXSXSXSX1 a G E l.(. XXX%X1XdX;Xv.@.M j j g r 8 8 : ; = = = = = = = = = = = = = = = = ; ; ; ; ; ; ; ; ; ; ; ; ; ; ; ; > ; ; ; > > > > > > > > > > 4 0 0 0 0 0 0 0 0 0 0 q q q q q q q q q q f m m m m m m N N N N N N B B B B B B | | | B B B B B B B N N N N N N N m m m m m m m m m q q q q q q q q q q q q q q 0 0 r r r r r w w w w w w w w w w w w w w 5 5 2 2 2 2 2 2 2 2 2 2 2 2 2 2 2 2 2 2 2 2 2 2 2 2 2 5 w e t t u u u u t e Z e.@X#Xc.( ( ` ' E i $ .   SXSXSXSXSXSXSXSXSXSXSXSXSXSXSXSXSX",
"SXSXSXSXSXSXSXSXSXSXSXSXSXSXSXSXSXSX% p Z H 1.M. X XXX&X1XsX<XG.=.@.M j j j g y r 0 0 0 0 0 0 0 0 0 0 0 0 0 0 0 q q q q q q q q q q q q q q q q q q q q q q q q q q q q q f f f f f f f m m m m m m m N N N N N N N N B B | | | | | | #.#.#.#.#.:.:.:.:.:.:.:.:.:.:.:.:.:.:.#.#.#.#.#.#.#.#.| | B B B B B B B N N N N N N N m m m m M M m m m m g g g g g y y y y y y y y y r r y r r r r r r r r r r r r r e e r t t t t t t t t t t t t t u u u h h u t w u _ E.*X#Xx.` / ( ' ' W 1 $ .   SXSXSXSXSXSXSXSXSXSXSXSXSXSXSXSXSXSX",
"SXSXSXSXSXSXSXSXSXSXSXSXSXSXSXSXSXSXSX% 7 v G E 0.N. XXXXX%X1XsXsX;XV.9.@.M M M M j j j j j f f j j f f f f f f f f f f f f f m m m m m m m m m m m m m m m m m m N N N N N N N N N B B B | B | | | | | #.#.#.#.#.#.#.:.:.:.:.:.:.:.j.j.j.j.j.j.A.A.A.A.A.A.A.A.A.A.A.A.A.A.j.j.j.j.j.:.:.:.:.:.:.:.:.:.#.#.#.#.#.#.#.| | | B B B B N N N N N N N N M N M M M M m m m g g g g g g g g g g g g g g g g g g g u u u h u u u u u u u u u u u u t t e t s G 1.E.OX5X].r.` ( ` ' ' E i $ .     SXSXSXSXSXSXSXSXSXSXSXSXSXSXSXSXSXSXSX",
"SXSXSXSXSXSXSXSXSXSXSXSXSXSXSXSXSXSXSXSXSX1 a Z S E 0.N. XXXXXXX&X1X3XsXsX;X.XN.B.v.d.9.9.9.9.9.9.9.9.9.9.9.9.9.9.9.9.9.9.9.9.9.9.9.p.p.9.p.p.9.9.9.9.p.p.p.p.p.p.p.p.p.b.b.b.b.b.b.b.b.b.b.b.b.b.b.b.S.S.F.F.F.F.F.F.F.F.F.F.F.F.F.L.L.P.P.P.P.P.Y.Y.Y.Y.U.U.U.U.U.Y.Y.P.P.P.P.P.F.F.F.F.F.F.F.F.F.F.F.F.F.Z.b.b.b.b.b.b.b.b.b.b.b.b.b.b.b.9.9.9.9.9.9.9.0.9.9.2.4.4.2.1.1.1.1.1.1.1.1.1.1.1.1.1.1.1.1.1.1.1.1.1.1.1.1.1.1.1.1.1.1.1.1.1.4.w.l.m.).#X*X#X/.r.' ( ( ` [ 4.Q v 1 $ .   SXSXSXSXSXSXSXSXSXSXSXSXSXSXSXSXSXSXSXSXSX",
"SXSXSXSXSXSXSXSXSXSXSXSXSXSXSXSXSXSXSXSXSXSXSX6 a v Z U q.B.G.XXXXH.H.H.:X:X1X3X3X3XsXsXsXsXsXsXsXsXsXsXsXsXsXsXsXsXsXsXsXsXsXsX3XsXsXsX3X3X3X3X3XsXsXsX3X3X3X3X3XsXsXgXgXgXgXgXgXgXgXgXgXgXgXgXgXgXgXgXgXgXgXgXgXgXgXgXgXgXgXhXhXhXhXhXhXhXhXhXhXhXNXMXMXZXAXAXAXZXMXNXNXhXhXhXhXhXhXhXhXhXhXgXgXgXgXgXgXgXgXgXgXsXsXsXsXsXsX3X3X3X3X3X<X<X<X<X<X<X<X<X<X<X<X;X;X;X;X;X;X;X;X;X;X;X;X;X=X;X;X;X=X=X=X=X=X=X=X=X=X=X=X=X=X@XOXOX#X#XOXOX#XOX{.]./.R.r.[ ` ( ( ` ] 1.4.Q v 1 $ .     SXSXSXSXSXSXSXSXSXSXSXSXSXSXSXSXSXSXSXSXSXSX",
"SXSXSXSXSXSXSXSXSXSXSXSXSXSXSXSXSXSXSXSXSXSXSXSX% 1 e s C L $.0.B.N.G.G.H.H.H.H.H.H.H.H.H.H.H.H.H.H.H.H.K.K.K.K.K.K.K.K.K.K.K.K.K.K.K.K.L.L.K.L.L.K.L.L.P.L.L.P.P.P.P.I.P.P.P.I.I.I.I.I.I.I.I.I.I.I.I.I.I.I.I.U.U.U.U.U.U.U.U.U.2X2X2X2X2X2X2X2X2X2X3X3X3X3XgXgXgX3X3X3X2X2X2X2X2X2X2X2X2XU.U.I.I.I.I.I.I.I.I.I.I.K.K.K.F.F.F.F.F.F.F.S.S.S.Z.Z.Z.Z.Z.Z.b.b.b.v.v.v.k.k.k.0.0.0.0.0.0.4.4.4.4.4.4.1.1.1.1.1.1.1.1.1.' [ ' ' ' ' ' ' ' ' ' ' ) ` ` ` ` ` ' [ 1.2.2.E x % o .     SXSXSXSXSXSXSXSXSXSXSXSXSXSXSXSXSXSXSXSXSXSXSXSX",
"SXSXSXSXSXSXSXSXSXSXSXSXSXSXSXSXSXSXSXSXSXSXSXSXSXSX% 1 6 u C C J E 2.d.v.B.B.D.D.D.D.D.D.D.D.D.D.D.D.D.D.D.D.D.D.D.D.D.D.D.S.S.S.S.S.S.S.S.S.S.S.S.S.S.S.S.S.F.F.F.F.F.F.F.F.F.F.F.F.F.F.F.F.F.F.F.F.F.F.F.F.F.F.L.L.P.P.P.P.P.I.I.I.I.I.I.I.I.I.I.U.U.U.U.U.U.U.U.U.U.I.I.I.I.I.I.I.P.K.F.F.F.F.F.F.F.F.F.F.S.S.S.Z.Z.Z.Z.Z.Z.Z.Z.b.b.b.b.b.v.v.v.v.v.v.k.k.k.k.k.0.0.0.0.4.4.4.4.4.4.4.4.4.4.4.4.1.1.1.1.1.1.1.1.1.1.1.1.1.1.1.1.1.1.1.1.1.1.4.0.0.2.2.%.E x < $ . .     SXSXSXSXSXSXSXSXSXSXSXSXSXSXSXSXSXSXSXSXSXSXSXSXSXSX",
"SXSXSXSXSXSXSXSXSXSXSXSXSXSXSXSXSXSXSXSXSXSXSXSXSXSXSXSX$ % 6 i i x M M M T T @.$.-.-.-.-.-.-.-.-.-.-.-.-.&.&.-.-.-.-.&.&.&.&.&.&.&.&.&.&.&.&.&.&.&.&.&.&.&.&.&.&.&.&.&.&.&.;.;.;.;.;.;.;.;.;.;.;.>.h.h.h.h.h.h.h.h.h.h.h.h.h.h.h.h.h.h.h.h.h.Z.F.F.F.F.F.F.F.F.F.F.F.Z.Z.h.h.h.h.h.h.h.h.h.h.h.h.h.h.h.h.%.%.%.%.%.%.%.%.%.%.%.$.$.$.$.$.Q Q Q Q Q Q Q Q Q Q E E E E E H H H H H H H H H H H E E E E E E E H H H E E E E E E E E E E Q Q Q Q $.Q E W x 7 % $ . .       SXSXSXSXSXSXSXSXSXSXSXSXSXSXSXSXSXSXSXSXSXSXSXSXSXSXSXSX",
"SXSXSXSXSXSXSXSXSXSXSXSXSXSXSXSXSXSXSXSXSXSXSXSXSXSXSXSXSXSXSX$ % < 5 w i y y y y y y y m m m m m m m m m m f m m m m f f q q f f m m m m f q m m m m m m m N N N N N N N N N V V V V V V V V V V ~ ~ ~ ~ &.&.&.&.&.&.&.;.;.;.;.;.;.;.;.;.;.h.h.h.h.h.h.h.h.h.h.h.h.h.h.h.h.h.;.;.;.;.;.&.&.&.! ! ! ! ! ! ! T T T V V V V V V V V M M x x x x x x x x x i i i i i i i i i 7 7 7 7 7 7 7 7 7 7 7 7 7 7 < < , , % % , < , % % % % % % % % % % , , % $ $ o . . .     SXSXSXSXSXSXSXSXSXSXSXSXSXSXSXSXSXSXSXSXSXSXSXSXSXSXSXSXSXSXSX",
"SXSXSXSXSXSXSXSXSXSXSXSXSXSXSXSXSXSXSXSXSXSXSXSXSXSXSXSXSXSXSXSXSXSXSX# % ; ; ; ; : 4 5 4 4 4 4 5 4 4 4 4 4 4 4 4 4 4 4 4 4 4 4 4 4 4 4 4 4 4 4 4 4 4 0 q q q q q q q q x x x x m M M M M M M M M M M V V V V V V V V V ~ ~ ! ! ! ! &.&.&.&.;.;.%.%.%.%.%.%.%.%.%.%.%.;.;.&.&.&.&.! ! ~ ~ V V V V V V V V V V V V M M M x x x x x x x i i i i i i i i i 7 7 7 7 7 7 7 7 % % % % % % % % % % % % % $ $ $ $ $ $ $ $ $ $ $ $ $ $ $ $ $ $ $ $ $ . . . . .     SXSXSXSXSXSXSXSXSXSXSXSXSXSXSXSXSXSXSXSXSXSXSXSXSXSXSXSXSXSXSXSXSXSXSX",
"SXSXSXSXSXSXSXSXSXSXSXSXSXSXSXSXSXSXSXSXSXSXSXSXSXSXSXSXSXSXSXSXSXSXSXSXSXSXSXSXSXSXSXSXSXSXSXSXSXSXSXSXSXSXSXSXSXSXSXSXSXSXSXSXSXSXSXSXSXSXSXSXSXSXSXSXSXSXSXSXSXSXSXSXSXSXSXSXSXSXSXSXSXSXSXSXSXSXSXSXSXSXSXSXSXSXSXSXSXSXSXSXSXSXSXSXSXSXSXSXSXSXSXSXSXSXSXSXSXSXSXSXSXSXSXSXSXSXSXSXSXSXSXSXSXSXSXSXSXSXSXSXSXSXSXSXSXSXSXSXSXSXSXSXSXSXSXSXSXSXSXSXSXSXSXSXSXSXSXSXSXSXSXSXSXSXSXSXSXSXSXSXSXSXSXSXSXSXSXSXSXSXSXSXSXSXSXSXSXSXSXSXSXSXSXSXSXSXSXSXSXSXSXSXSXSXSXSXSXSXSXSXSXSXSXSXSXSXSXSXSXSXSXSXSXSXSXSXSXSXSXSXSXSXSXSX",
"SXSXSXSXSXSXSXSXSXSXSXSXSXSXSXSXSXSXSXSXSXSXSXSXSXSXSXSXSXSXSXSXSXSXSXSXSXSXSXSXSXSXSXSXSXSXSXSXSXSXSXSXSXSXSXSXSXSXSXSXSXSXSXSXSXSXSXSXSXSXSXSXSXSXSXSXSXSXSXSXSXSXSXSXSXSXSXSXSXSXSXSXSXSXSXSXSXSXSXSXSXSXSXSXSXSXSXSXSXSXSXSXSXSXSXSXSXSXSXSXSXSXSXSXSXSXSXSXSXSXSXSXSXSXSXSXSXSXSXSXSXSXSXSXSXSXSXSXSXSXSXSXSXSXSXSXSXSXSXSXSXSXSXSXSXSXSXSXSXSXSXSXSXSXSXSXSXSXSXSXSXSXSXSXSXSXSXSXSXSXSXSXSXSXSXSXSXSXSXSXSXSXSXSXSXSXSXSXSXSXSXSXSXSXSXSXSXSXSXSXSXSXSXSXSXSXSXSXSXSXSXSXSXSXSXSXSXSXSXSXSXSXSXSXSXSXSXSXSXSXSXSXSXSXSXSX",
"SXSXSXSXSXSXSXSXSXSXSXSXSXSXSXSXSXSXSXSXSXSXSXSXSXSXSXSXSXSXSXSXSXSXSXSXSXSXSXSXSXSXSXSXSXSXSXSXSXSXSXSXSXSXSXSXSXSXSXSXSXSXSXSXSXSXSXSXSXSXSXSXSXSXSXSXSXSXSXSXSXSXSXSXSXSXSXSXSXSXSXSXSXSXSXSXSXSXSXSXSXSXSXSXSXSXSXSXSXSXSXSXSXSXSXSXSXSXSXSXSXSXSXSXSXSXSXSXSXSXSXSXSXSXSXSXSXSXSXSXSXSXSXSXSXSXSXSXSXSXSXSXSXSXSXSXSXSXSXSXSXSXSXSXSXSXSXSXSXSXSXSXSXSXSXSXSXSXSXSXSXSXSXSXSXSXSXSXSXSXSXSXSXSXSXSXSXSXSXSXSXSXSXSXSXSXSXSXSXSXSXSXSXSXSXSXSXSXSXSXSXSXSXSXSXSXSXSXSXSXSXSXSXSXSXSXSXSXSXSXSXSXSXSXSXSXSXSXSXSXSXSXSXSXSXSX",
"SXSXSXSXSXSXSXSXSXSXSXSXSXSXSXSXSXSXSXSXSXSXSXSXSXSXSXSXSXSXSXSXSXSXSXSXSXSXSXSXSXSXSXSXSXSXSXSXSXSXSXSXSXSXSXSXSXSXSXSXSXSXSXSXSXSXSXSXSXSXSXSXSXSXSXSXSXSXSXSXSXSXSXSXSXSXSXSXSXSXSXSXSXSXSXSXSXSXSXSXSXSXSXSXSXSXSXSXSXSXSXSXSXSXSXSXSXSXSXSXSXSXSXSXSXSXSXSXSXSXSXSXSXSXSXSXSXSXSXSXSXSXSXSXSXSXSXSXSXSXSXSXSXSXSXSXSXSXSXSXSXSXSXSXSXSXSXSXSXSXSXSXSXSXSXSXSXSXSXSXSXSXSXSXSXSXSXSXSXSXSXSXSXSXSXSXSXSXSXSXSXSXSXSXSXSXSXSXSXSXSXSXSXSXSXSXSXSXSXSXSXSXSXSXSXSXSXSXSXSXSXSXSXSXSXSXSXSXSXSXSXSXSXSXSXSXSXSXSXSXSXSXSXSXSXSX"
};
